( Square Holes )
( Mach2/3 Postprocessor )
N20G00G20G17G20G90G40G49G80
N30G70
N40T4M06
N50G00G43Z3.0000H4
N60S12000M03
N70G94
N80X0.0000Y8.0000F25.0
N90G00X1.4275Y5.5725Z0.2362
N100G01Z-0.0750F15.0
N110G01Y5.4275F25.0
N120X1.5725
N130Y5.5725
N140X1.4275
N150G01Z-0.1500F15.0
N160G01Y5.4275F25.0
N170X1.5725
N180Y5.5725
N190X1.4275
N200G00Z0.2362
N210G00X3.4275
N220G01Z-0.0750F15.0
N230G01Y5.4275F25.0
N240X3.5725
N250Y5.5725
N260X3.4275
N270G01Z-0.1500F15.0
N280G01Y5.4275F25.0
N290X3.5725
N300Y5.5725
N310X3.4275
N320G00Z0.2362
N330G00X5.4275
N340G01Z-0.0750F15.0
N350G01Y5.4275F25.0
N360X5.5725
N370Y5.5725
N380X5.4275
N390G01Z-0.1500F15.0
N400G01Y5.4275F25.0
N410X5.5725
N420Y5.5725
N430X5.4275
N440G00Z0.2362
N450G00Y3.5725
N460G01Z-0.0750F15.0
N470G01Y3.4275F25.0
N480X5.5725
N490Y3.5725
N500X5.4275
N510G01Z-0.1500F15.0
N520G01Y3.4275F25.0
N530X5.5725
N540Y3.5725
N550X5.4275
N560G00Z0.2362
N570G00Y1.5725
N580G01Z-0.0750F15.0
N590G01Y1.4275F25.0
N600X5.5725
N610Y1.5725
N620X5.4275
N630G01Z-0.1500F15.0
N640G01Y1.4275F25.0
N650X5.5725
N660Y1.5725
N670X5.4275
N680G00Z0.2362
N690G00X3.4275
N700G01Z-0.0750F15.0
N710G01Y1.4275F25.0
N720X3.5725
N730Y1.5725
N740X3.4275
N750G01Z-0.1500F15.0
N760G01Y1.4275F25.0
N770X3.5725
N780Y1.5725
N790X3.4275
N800G00Z0.2362
N810G00X1.4275
N820G01Z-0.0750F15.0
N830G01Y1.4275F25.0
N840X1.5725
N850Y1.5725
N860X1.4275
N870G01Z-0.1500F15.0
N880G01Y1.4275F25.0
N890X1.5725
N900Y1.5725
N910X1.4275
N920G00Z0.2362
N930G00Y3.5725
N940G01Z-0.0750F15.0
N950G01Y3.4275F25.0
N960X1.5725
N970Y3.5725
N980X1.4275
N990G01Z-0.1500F15.0
N1000G01Y3.4275F25.0
N1010X1.5725
N1020Y3.5725
N1030X1.4275
N1040G00Z0.2362
N1050G00X1.5017Y5.5017Z0.2362
N1060G01Z-0.0625F15.0
N1070G01X1.4994Y5.5024F25.0
N1080X1.4976Y5.5004
N1090X1.4984Y5.4982
N1100X1.5010Y5.4978
N1110X1.5024Y5.4996
N1120X1.5017Y5.5017
N1130X1.5371Y5.5371
N1140X1.5270Y5.5450
N1150X1.5157Y5.5501
N1160X1.5057Y5.5521
N1170X1.4943
N1180X1.4820Y5.5493
N1190X1.4709Y5.5436
N1200X1.4611Y5.5352
N1210X1.4538Y5.5248
N1220X1.4492Y5.5133
N1230X1.4477Y5.5029
N1240X1.4482Y5.4917
N1250X1.4516Y5.4797
N1260X1.4579Y5.4688
N1270X1.4668Y5.4594
N1280X1.4774Y5.4526
N1290X1.4891Y5.4487
N1300X1.5000Y5.4476
N1310X1.5109Y5.4487
N1320X1.5226Y5.4526
N1330X1.5332Y5.4594
N1340X1.5421Y5.4688
N1350X1.5484Y5.4797
N1360X1.5518Y5.4917
N1370X1.5523Y5.5029
N1380X1.5508Y5.5133
N1390X1.5462Y5.5248
N1400X1.5389Y5.5352
N1410X1.5371Y5.5371
N1420X1.5724Y5.5724
N1430X1.5612Y5.5822
N1440X1.5487Y5.5902
N1450X1.5352Y5.5963
N1460X1.5209Y5.6003
N1470X1.5055Y5.6023
N1480X1.4893Y5.6019
N1490X1.4742Y5.5992
N1500X1.4602Y5.5945
N1510X1.4470Y5.5877
N1520X1.4349Y5.5791
N1530X1.4241Y5.5688
N1540X1.4149Y5.5571
N1550X1.4076Y5.5443
N1560X1.4021Y5.5306
N1570X1.3988Y5.5159
N1580X1.3976Y5.5000
N1590X1.3988Y5.4841
N1600X1.4021Y5.4694
N1610X1.4076Y5.4557
N1620X1.4149Y5.4429
N1630X1.4241Y5.4312
N1640X1.4349Y5.4209
N1650X1.4470Y5.4123
N1660X1.4602Y5.4055
N1670X1.4742Y5.4008
N1680X1.4893Y5.3981
N1690X1.5055Y5.3977
N1700X1.5209Y5.3997
N1710X1.5352Y5.4037
N1720X1.5487Y5.4098
N1730X1.5612Y5.4178
N1740X1.5724Y5.4276
N1750X1.5822Y5.4388
N1760X1.5902Y5.4513
N1770X1.5963Y5.4648
N1780X1.6003Y5.4791
N1790X1.6023Y5.4945
N1800X1.6019Y5.5107
N1810X1.5992Y5.5258
N1820X1.5945Y5.5398
N1830X1.5877Y5.5530
N1840X1.5791Y5.5651
N1850X1.5724Y5.5724
N1860X1.6078Y5.6078
N1870X1.5911Y5.6222
N1880X1.5726Y5.6341
N1890X1.5524Y5.6432
N1900X1.5309Y5.6493
N1910X1.5080Y5.6522
N1920X1.4920
N1930X1.4691Y5.6493
N1940X1.4476Y5.6432
N1950X1.4274Y5.6341
N1960X1.4089Y5.6222
N1970X1.3922Y5.6078
N1980X1.3778Y5.5911
N1990X1.3659Y5.5726
N2000X1.3568Y5.5524
N2010X1.3507Y5.5309
N2020X1.3478Y5.5080
N2030Y5.4920
N2040X1.3507Y5.4691
N2050X1.3568Y5.4476
N2060X1.3659Y5.4274
N2070X1.3778Y5.4089
N2080X1.3922Y5.3922
N2090X1.4089Y5.3778
N2100X1.4274Y5.3659
N2110X1.4476Y5.3568
N2120X1.4691Y5.3507
N2130X1.4920Y5.3478
N2140X1.5080
N2150X1.5309Y5.3507
N2160X1.5524Y5.3568
N2170X1.5726Y5.3659
N2180X1.5911Y5.3778
N2190X1.6078Y5.3922
N2200X1.6222Y5.4089
N2210X1.6341Y5.4274
N2220X1.6432Y5.4476
N2230X1.6493Y5.4691
N2240X1.6522Y5.4920
N2250Y5.5080
N2260X1.6493Y5.5309
N2270X1.6432Y5.5524
N2280X1.6341Y5.5726
N2290X1.6222Y5.5911
N2300X1.6078Y5.6078
N2310X1.6432Y5.6432
N2320X1.6287Y5.6563
N2330X1.6131Y5.6680
N2340X1.5964Y5.6781
N2350X1.5788Y5.6866
N2360X1.5603Y5.6934
N2370X1.5409Y5.6983
N2380X1.5208Y5.7014
N2390X1.5000Y5.7025
N2400X1.4792Y5.7014
N2410X1.4591Y5.6983
N2420X1.4397Y5.6934
N2430X1.4212Y5.6866
N2440X1.4036Y5.6781
N2450X1.3869Y5.6680
N2460X1.3713Y5.6563
N2470X1.3568Y5.6432
N2480X1.3437Y5.6287
N2490X1.3320Y5.6131
N2500X1.3219Y5.5964
N2510X1.3134Y5.5788
N2520X1.3066Y5.5603
N2530X1.3017Y5.5409
N2540X1.2986Y5.5208
N2550X1.2975Y5.5000
N2560X1.2986Y5.4792
N2570X1.3017Y5.4591
N2580X1.3066Y5.4397
N2590X1.3134Y5.4212
N2600X1.3219Y5.4036
N2610X1.3320Y5.3869
N2620X1.3437Y5.3713
N2630X1.3568Y5.3568
N2640X1.3713Y5.3437
N2650X1.3869Y5.3320
N2660X1.4036Y5.3219
N2670X1.4212Y5.3134
N2680X1.4397Y5.3066
N2690X1.4591Y5.3017
N2700X1.4792Y5.2986
N2710X1.5000Y5.2975
N2720X1.5208Y5.2986
N2730X1.5409Y5.3017
N2740X1.5603Y5.3066
N2750X1.5788Y5.3134
N2760X1.5964Y5.3219
N2770X1.6131Y5.3320
N2780X1.6287Y5.3437
N2790X1.6432Y5.3568
N2800X1.6563Y5.3713
N2810X1.6680Y5.3869
N2820X1.6781Y5.4036
N2830X1.6866Y5.4212
N2840X1.6934Y5.4397
N2850X1.6983Y5.4591
N2860X1.7014Y5.4792
N2870X1.7025Y5.5000
N2880X1.7014Y5.5208
N2890X1.6983Y5.5409
N2900X1.6934Y5.5603
N2910X1.6866Y5.5788
N2920X1.6781Y5.5964
N2930X1.6680Y5.6131
N2940X1.6563Y5.6287
N2950X1.6432Y5.6432
N2960X1.6785Y5.6785
N2970X1.6606Y5.6949
N2980X1.6411Y5.7094
N2990X1.6203Y5.7220
N3000X1.5983Y5.7327
N3010X1.5751Y5.7411
N3020X1.5510Y5.7473
N3030X1.5259Y5.7512
N3040X1.5000Y5.7525
N3050X1.4741Y5.7512
N3060X1.4490Y5.7473
N3070X1.4249Y5.7411
N3080X1.4017Y5.7327
N3090X1.3797Y5.7220
N3100X1.3589Y5.7094
N3110X1.3394Y5.6949
N3120X1.3215Y5.6785
N3130X1.3051Y5.6606
N3140X1.2906Y5.6411
N3150X1.2780Y5.6203
N3160X1.2673Y5.5983
N3170X1.2589Y5.5751
N3180X1.2527Y5.5510
N3190X1.2488Y5.5259
N3200X1.2475Y5.5000
N3210X1.2488Y5.4741
N3220X1.2527Y5.4490
N3230X1.2589Y5.4249
N3240X1.2673Y5.4017
N3250X1.2780Y5.3797
N3260X1.2906Y5.3589
N3270X1.3051Y5.3394
N3280X1.3215Y5.3215
N3290X1.3394Y5.3051
N3300X1.3589Y5.2906
N3310X1.3797Y5.2780
N3320X1.4017Y5.2673
N3330X1.4249Y5.2589
N3340X1.4490Y5.2527
N3350X1.4741Y5.2488
N3360X1.5000Y5.2475
N3370X1.5259Y5.2488
N3380X1.5510Y5.2527
N3390X1.5751Y5.2589
N3400X1.5983Y5.2673
N3410X1.6203Y5.2780
N3420X1.6411Y5.2906
N3430X1.6606Y5.3051
N3440X1.6785Y5.3215
N3450X1.6949Y5.3394
N3460X1.7094Y5.3589
N3470X1.7220Y5.3797
N3480X1.7327Y5.4017
N3490X1.7411Y5.4249
N3500X1.7473Y5.4490
N3510X1.7512Y5.4741
N3520X1.7525Y5.5000
N3530X1.7512Y5.5259
N3540X1.7473Y5.5510
N3550X1.7411Y5.5751
N3560X1.7327Y5.5983
N3570X1.7220Y5.6203
N3580X1.7094Y5.6411
N3590X1.6949Y5.6606
N3600X1.6785Y5.6785
N3610G00Z0.2362
N3620G00X3.4983Y5.4983
N3630G01Z-0.0625F15.0
N3640G01X3.5006Y5.4976F25.0
N3650X3.5024Y5.4996
N3660X3.5016Y5.5018
N3670X3.4990Y5.5022
N3680X3.4976Y5.5004
N3690X3.4983Y5.4983
N3700X3.4629Y5.4629
N3710X3.4730Y5.4550
N3720X3.4843Y5.4499
N3730X3.4943Y5.4479
N3740X3.5057
N3750X3.5180Y5.4507
N3760X3.5291Y5.4564
N3770X3.5389Y5.4648
N3780X3.5462Y5.4752
N3790X3.5508Y5.4867
N3800X3.5523Y5.4971
N3810X3.5518Y5.5083
N3820X3.5484Y5.5203
N3830X3.5421Y5.5312
N3840X3.5332Y5.5406
N3850X3.5226Y5.5474
N3860X3.5109Y5.5513
N3870X3.5000Y5.5524
N3880X3.4891Y5.5513
N3890X3.4774Y5.5474
N3900X3.4668Y5.5406
N3910X3.4579Y5.5312
N3920X3.4516Y5.5203
N3930X3.4482Y5.5083
N3940X3.4477Y5.4971
N3950X3.4492Y5.4867
N3960X3.4538Y5.4752
N3970X3.4611Y5.4648
N3980X3.4629Y5.4629
N3990X3.4276Y5.4276
N4000X3.4388Y5.4178
N4010X3.4513Y5.4098
N4020X3.4648Y5.4037
N4030X3.4791Y5.3997
N4040X3.4945Y5.3977
N4050X3.5107Y5.3981
N4060X3.5258Y5.4008
N4070X3.5398Y5.4055
N4080X3.5530Y5.4123
N4090X3.5651Y5.4209
N4100X3.5759Y5.4312
N4110X3.5851Y5.4429
N4120X3.5924Y5.4557
N4130X3.5979Y5.4694
N4140X3.6012Y5.4841
N4150X3.6024Y5.5000
N4160X3.6012Y5.5159
N4170X3.5979Y5.5306
N4180X3.5924Y5.5443
N4190X3.5851Y5.5571
N4200X3.5759Y5.5688
N4210X3.5651Y5.5791
N4220X3.5530Y5.5877
N4230X3.5398Y5.5945
N4240X3.5258Y5.5992
N4250X3.5107Y5.6019
N4260X3.4945Y5.6023
N4270X3.4791Y5.6003
N4280X3.4648Y5.5963
N4290X3.4513Y5.5902
N4300X3.4388Y5.5822
N4310X3.4276Y5.5724
N4320X3.4178Y5.5612
N4330X3.4098Y5.5487
N4340X3.4037Y5.5352
N4350X3.3997Y5.5209
N4360X3.3977Y5.5055
N4370X3.3981Y5.4893
N4380X3.4008Y5.4742
N4390X3.4055Y5.4602
N4400X3.4123Y5.4470
N4410X3.4209Y5.4349
N4420X3.4276Y5.4276
N4430X3.3922Y5.3922
N4440X3.4089Y5.3778
N4450X3.4274Y5.3659
N4460X3.4476Y5.3568
N4470X3.4691Y5.3507
N4480X3.4920Y5.3478
N4490X3.5080
N4500X3.5309Y5.3507
N4510X3.5524Y5.3568
N4520X3.5726Y5.3659
N4530X3.5911Y5.3778
N4540X3.6078Y5.3922
N4550X3.6222Y5.4089
N4560X3.6341Y5.4274
N4570X3.6432Y5.4476
N4580X3.6493Y5.4691
N4590X3.6522Y5.4920
N4600Y5.5080
N4610X3.6493Y5.5309
N4620X3.6432Y5.5524
N4630X3.6341Y5.5726
N4640X3.6222Y5.5911
N4650X3.6078Y5.6078
N4660X3.5911Y5.6222
N4670X3.5726Y5.6341
N4680X3.5524Y5.6432
N4690X3.5309Y5.6493
N4700X3.5080Y5.6522
N4710X3.4920
N4720X3.4691Y5.6493
N4730X3.4476Y5.6432
N4740X3.4274Y5.6341
N4750X3.4089Y5.6222
N4760X3.3922Y5.6078
N4770X3.3778Y5.5911
N4780X3.3659Y5.5726
N4790X3.3568Y5.5524
N4800X3.3507Y5.5309
N4810X3.3478Y5.5080
N4820Y5.4920
N4830X3.3507Y5.4691
N4840X3.3568Y5.4476
N4850X3.3659Y5.4274
N4860X3.3778Y5.4089
N4870X3.3922Y5.3922
N4880X3.3568Y5.3568
N4890X3.3713Y5.3437
N4900X3.3869Y5.3320
N4910X3.4036Y5.3219
N4920X3.4212Y5.3134
N4930X3.4397Y5.3066
N4940X3.4591Y5.3017
N4950X3.4792Y5.2986
N4960X3.5000Y5.2975
N4970X3.5208Y5.2986
N4980X3.5409Y5.3017
N4990X3.5603Y5.3066
N5000X3.5788Y5.3134
N5010X3.5964Y5.3219
N5020X3.6131Y5.3320
N5030X3.6287Y5.3437
N5040X3.6432Y5.3568
N5050X3.6563Y5.3713
N5060X3.6680Y5.3869
N5070X3.6781Y5.4036
N5080X3.6866Y5.4212
N5090X3.6934Y5.4397
N5100X3.6983Y5.4591
N5110X3.7014Y5.4792
N5120X3.7025Y5.5000
N5130X3.7014Y5.5208
N5140X3.6983Y5.5409
N5150X3.6934Y5.5603
N5160X3.6866Y5.5788
N5170X3.6781Y5.5964
N5180X3.6680Y5.6131
N5190X3.6563Y5.6287
N5200X3.6432Y5.6432
N5210X3.6287Y5.6563
N5220X3.6131Y5.6680
N5230X3.5964Y5.6781
N5240X3.5788Y5.6866
N5250X3.5603Y5.6934
N5260X3.5409Y5.6983
N5270X3.5208Y5.7014
N5280X3.5000Y5.7025
N5290X3.4792Y5.7014
N5300X3.4591Y5.6983
N5310X3.4397Y5.6934
N5320X3.4212Y5.6866
N5330X3.4036Y5.6781
N5340X3.3869Y5.6680
N5350X3.3713Y5.6563
N5360X3.3568Y5.6432
N5370X3.3437Y5.6287
N5380X3.3320Y5.6131
N5390X3.3219Y5.5964
N5400X3.3134Y5.5788
N5410X3.3066Y5.5603
N5420X3.3017Y5.5409
N5430X3.2986Y5.5208
N5440X3.2975Y5.5000
N5450X3.2986Y5.4792
N5460X3.3017Y5.4591
N5470X3.3066Y5.4397
N5480X3.3134Y5.4212
N5490X3.3219Y5.4036
N5500X3.3320Y5.3869
N5510X3.3437Y5.3713
N5520X3.3568Y5.3568
N5530X3.3215Y5.3215
N5540X3.3394Y5.3051
N5550X3.3589Y5.2906
N5560X3.3797Y5.2780
N5570X3.4017Y5.2673
N5580X3.4249Y5.2589
N5590X3.4490Y5.2527
N5600X3.4741Y5.2488
N5610X3.5000Y5.2475
N5620X3.5259Y5.2488
N5630X3.5510Y5.2527
N5640X3.5751Y5.2589
N5650X3.5983Y5.2673
N5660X3.6203Y5.2780
N5670X3.6411Y5.2906
N5680X3.6606Y5.3051
N5690X3.6785Y5.3215
N5700X3.6949Y5.3394
N5710X3.7094Y5.3589
N5720X3.7220Y5.3797
N5730X3.7327Y5.4017
N5740X3.7411Y5.4249
N5750X3.7473Y5.4490
N5760X3.7512Y5.4741
N5770X3.7525Y5.5000
N5780X3.7512Y5.5259
N5790X3.7473Y5.5510
N5800X3.7411Y5.5751
N5810X3.7327Y5.5983
N5820X3.7220Y5.6203
N5830X3.7094Y5.6411
N5840X3.6949Y5.6606
N5850X3.6785Y5.6785
N5860X3.6606Y5.6949
N5870X3.6411Y5.7094
N5880X3.6203Y5.7220
N5890X3.5983Y5.7327
N5900X3.5751Y5.7411
N5910X3.5510Y5.7473
N5920X3.5259Y5.7512
N5930X3.5000Y5.7525
N5940X3.4741Y5.7512
N5950X3.4490Y5.7473
N5960X3.4249Y5.7411
N5970X3.4017Y5.7327
N5980X3.3797Y5.7220
N5990X3.3589Y5.7094
N6000X3.3394Y5.6949
N6010X3.3215Y5.6785
N6020X3.3051Y5.6606
N6030X3.2906Y5.6411
N6040X3.2780Y5.6203
N6050X3.2673Y5.5983
N6060X3.2589Y5.5751
N6070X3.2527Y5.5510
N6080X3.2488Y5.5259
N6090X3.2475Y5.5000
N6100X3.2488Y5.4741
N6110X3.2527Y5.4490
N6120X3.2589Y5.4249
N6130X3.2673Y5.4017
N6140X3.2780Y5.3797
N6150X3.2906Y5.3589
N6160X3.3051Y5.3394
N6170X3.3215Y5.3215
N6180G00Z0.2362
N6190G00X5.4983Y5.4983
N6200G01Z-0.0625F15.0
N6210G01X5.5006Y5.4976F25.0
N6220X5.5024Y5.4996
N6230X5.5016Y5.5018
N6240X5.4990Y5.5022
N6250X5.4976Y5.5004
N6260X5.4983Y5.4983
N6270X5.4629Y5.4629
N6280X5.4730Y5.4550
N6290X5.4843Y5.4499
N6300X5.4943Y5.4479
N6310X5.5057
N6320X5.5180Y5.4507
N6330X5.5291Y5.4564
N6340X5.5389Y5.4648
N6350X5.5462Y5.4752
N6360X5.5508Y5.4867
N6370X5.5523Y5.4971
N6380X5.5518Y5.5083
N6390X5.5484Y5.5203
N6400X5.5421Y5.5312
N6410X5.5332Y5.5406
N6420X5.5226Y5.5474
N6430X5.5109Y5.5513
N6440X5.5000Y5.5524
N6450X5.4891Y5.5513
N6460X5.4774Y5.5474
N6470X5.4668Y5.5406
N6480X5.4579Y5.5312
N6490X5.4516Y5.5203
N6500X5.4482Y5.5083
N6510X5.4477Y5.4971
N6520X5.4492Y5.4867
N6530X5.4538Y5.4752
N6540X5.4611Y5.4648
N6550X5.4629Y5.4629
N6560X5.4276Y5.4276
N6570X5.4388Y5.4178
N6580X5.4513Y5.4098
N6590X5.4648Y5.4037
N6600X5.4791Y5.3997
N6610X5.4945Y5.3977
N6620X5.5107Y5.3981
N6630X5.5258Y5.4008
N6640X5.5398Y5.4055
N6650X5.5530Y5.4123
N6660X5.5651Y5.4209
N6670X5.5759Y5.4312
N6680X5.5851Y5.4429
N6690X5.5924Y5.4557
N6700X5.5979Y5.4694
N6710X5.6012Y5.4841
N6720X5.6024Y5.5000
N6730X5.6012Y5.5159
N6740X5.5979Y5.5306
N6750X5.5924Y5.5443
N6760X5.5851Y5.5571
N6770X5.5759Y5.5688
N6780X5.5651Y5.5791
N6790X5.5530Y5.5877
N6800X5.5398Y5.5945
N6810X5.5258Y5.5992
N6820X5.5107Y5.6019
N6830X5.4945Y5.6023
N6840X5.4791Y5.6003
N6850X5.4648Y5.5963
N6860X5.4513Y5.5902
N6870X5.4388Y5.5822
N6880X5.4276Y5.5724
N6890X5.4178Y5.5612
N6900X5.4098Y5.5487
N6910X5.4037Y5.5352
N6920X5.3997Y5.5209
N6930X5.3977Y5.5055
N6940X5.3981Y5.4893
N6950X5.4008Y5.4742
N6960X5.4055Y5.4602
N6970X5.4123Y5.4470
N6980X5.4209Y5.4349
N6990X5.4276Y5.4276
N7000X5.3922Y5.3922
N7010X5.4089Y5.3778
N7020X5.4274Y5.3659
N7030X5.4476Y5.3568
N7040X5.4691Y5.3507
N7050X5.4920Y5.3478
N7060X5.5080
N7070X5.5309Y5.3507
N7080X5.5524Y5.3568
N7090X5.5726Y5.3659
N7100X5.5911Y5.3778
N7110X5.6078Y5.3922
N7120X5.6222Y5.4089
N7130X5.6341Y5.4274
N7140X5.6432Y5.4476
N7150X5.6493Y5.4691
N7160X5.6522Y5.4920
N7170Y5.5080
N7180X5.6493Y5.5309
N7190X5.6432Y5.5524
N7200X5.6341Y5.5726
N7210X5.6222Y5.5911
N7220X5.6078Y5.6078
N7230X5.5911Y5.6222
N7240X5.5726Y5.6341
N7250X5.5524Y5.6432
N7260X5.5309Y5.6493
N7270X5.5080Y5.6522
N7280X5.4920
N7290X5.4691Y5.6493
N7300X5.4476Y5.6432
N7310X5.4274Y5.6341
N7320X5.4089Y5.6222
N7330X5.3922Y5.6078
N7340X5.3778Y5.5911
N7350X5.3659Y5.5726
N7360X5.3568Y5.5524
N7370X5.3507Y5.5309
N7380X5.3478Y5.5080
N7390Y5.4920
N7400X5.3507Y5.4691
N7410X5.3568Y5.4476
N7420X5.3659Y5.4274
N7430X5.3778Y5.4089
N7440X5.3922Y5.3922
N7450X5.3568Y5.3568
N7460X5.3713Y5.3437
N7470X5.3869Y5.3320
N7480X5.4036Y5.3219
N7490X5.4212Y5.3134
N7500X5.4397Y5.3066
N7510X5.4591Y5.3017
N7520X5.4792Y5.2986
N7530X5.5000Y5.2975
N7540X5.5208Y5.2986
N7550X5.5409Y5.3017
N7560X5.5603Y5.3066
N7570X5.5788Y5.3134
N7580X5.5964Y5.3219
N7590X5.6131Y5.3320
N7600X5.6287Y5.3437
N7610X5.6432Y5.3568
N7620X5.6563Y5.3713
N7630X5.6680Y5.3869
N7640X5.6781Y5.4036
N7650X5.6866Y5.4212
N7660X5.6934Y5.4397
N7670X5.6983Y5.4591
N7680X5.7014Y5.4792
N7690X5.7025Y5.5000
N7700X5.7014Y5.5208
N7710X5.6983Y5.5409
N7720X5.6934Y5.5603
N7730X5.6866Y5.5788
N7740X5.6781Y5.5964
N7750X5.6680Y5.6131
N7760X5.6563Y5.6287
N7770X5.6432Y5.6432
N7780X5.6287Y5.6563
N7790X5.6131Y5.6680
N7800X5.5964Y5.6781
N7810X5.5788Y5.6866
N7820X5.5603Y5.6934
N7830X5.5409Y5.6983
N7840X5.5208Y5.7014
N7850X5.5000Y5.7025
N7860X5.4792Y5.7014
N7870X5.4591Y5.6983
N7880X5.4397Y5.6934
N7890X5.4212Y5.6866
N7900X5.4036Y5.6781
N7910X5.3869Y5.6680
N7920X5.3713Y5.6563
N7930X5.3568Y5.6432
N7940X5.3437Y5.6287
N7950X5.3320Y5.6131
N7960X5.3219Y5.5964
N7970X5.3134Y5.5788
N7980X5.3066Y5.5603
N7990X5.3017Y5.5409
N8000X5.2986Y5.5208
N8010X5.2975Y5.5000
N8020X5.2986Y5.4792
N8030X5.3017Y5.4591
N8040X5.3066Y5.4397
N8050X5.3134Y5.4212
N8060X5.3219Y5.4036
N8070X5.3320Y5.3869
N8080X5.3437Y5.3713
N8090X5.3568Y5.3568
N8100X5.3215Y5.3215
N8110X5.3394Y5.3051
N8120X5.3589Y5.2906
N8130X5.3797Y5.2780
N8140X5.4017Y5.2673
N8150X5.4249Y5.2589
N8160X5.4490Y5.2527
N8170X5.4741Y5.2488
N8180X5.5000Y5.2475
N8190X5.5259Y5.2488
N8200X5.5510Y5.2527
N8210X5.5751Y5.2589
N8220X5.5983Y5.2673
N8230X5.6203Y5.2780
N8240X5.6411Y5.2906
N8250X5.6606Y5.3051
N8260X5.6785Y5.3215
N8270X5.6949Y5.3394
N8280X5.7094Y5.3589
N8290X5.7220Y5.3797
N8300X5.7327Y5.4017
N8310X5.7411Y5.4249
N8320X5.7473Y5.4490
N8330X5.7512Y5.4741
N8340X5.7525Y5.5000
N8350X5.7512Y5.5259
N8360X5.7473Y5.5510
N8370X5.7411Y5.5751
N8380X5.7327Y5.5983
N8390X5.7220Y5.6203
N8400X5.7094Y5.6411
N8410X5.6949Y5.6606
N8420X5.6785Y5.6785
N8430X5.6606Y5.6949
N8440X5.6411Y5.7094
N8450X5.6203Y5.7220
N8460X5.5983Y5.7327
N8470X5.5751Y5.7411
N8480X5.5510Y5.7473
N8490X5.5259Y5.7512
N8500X5.5000Y5.7525
N8510X5.4741Y5.7512
N8520X5.4490Y5.7473
N8530X5.4249Y5.7411
N8540X5.4017Y5.7327
N8550X5.3797Y5.7220
N8560X5.3589Y5.7094
N8570X5.3394Y5.6949
N8580X5.3215Y5.6785
N8590X5.3051Y5.6606
N8600X5.2906Y5.6411
N8610X5.2780Y5.6203
N8620X5.2673Y5.5983
N8630X5.2589Y5.5751
N8640X5.2527Y5.5510
N8650X5.2488Y5.5259
N8660X5.2475Y5.5000
N8670X5.2488Y5.4741
N8680X5.2527Y5.4490
N8690X5.2589Y5.4249
N8700X5.2673Y5.4017
N8710X5.2780Y5.3797
N8720X5.2906Y5.3589
N8730X5.3051Y5.3394
N8740X5.3215Y5.3215
N8750G00Z0.2362
N8760G00X5.5017Y3.4983
N8770G01Z-0.0625F15.0
N8780G01X5.5024Y3.5006F25.0
N8790X5.5004Y3.5024
N8800X5.4982Y3.5016
N8810X5.4978Y3.4990
N8820X5.4996Y3.4976
N8830X5.5017Y3.4983
N8840X5.5371Y3.4629
N8850X5.5450Y3.4730
N8860X5.5501Y3.4843
N8870X5.5521Y3.4943
N8880Y3.5057
N8890X5.5493Y3.5180
N8900X5.5436Y3.5291
N8910X5.5352Y3.5389
N8920X5.5248Y3.5462
N8930X5.5133Y3.5508
N8940X5.5029Y3.5523
N8950X5.4917Y3.5518
N8960X5.4797Y3.5484
N8970X5.4688Y3.5421
N8980X5.4594Y3.5332
N8990X5.4526Y3.5226
N9000X5.4487Y3.5109
N9010X5.4476Y3.5000
N9020X5.4487Y3.4891
N9030X5.4526Y3.4774
N9040X5.4594Y3.4668
N9050X5.4688Y3.4579
N9060X5.4797Y3.4516
N9070X5.4917Y3.4482
N9080X5.5029Y3.4477
N9090X5.5133Y3.4492
N9100X5.5248Y3.4538
N9110X5.5352Y3.4611
N9120X5.5371Y3.4629
N9130X5.5724Y3.4276
N9140X5.5822Y3.4388
N9150X5.5902Y3.4513
N9160X5.5963Y3.4648
N9170X5.6003Y3.4791
N9180X5.6023Y3.4945
N9190X5.6019Y3.5107
N9200X5.5992Y3.5258
N9210X5.5945Y3.5398
N9220X5.5877Y3.5530
N9230X5.5791Y3.5651
N9240X5.5688Y3.5759
N9250X5.5571Y3.5851
N9260X5.5443Y3.5924
N9270X5.5306Y3.5979
N9280X5.5159Y3.6012
N9290X5.5000Y3.6024
N9300X5.4841Y3.6012
N9310X5.4694Y3.5979
N9320X5.4557Y3.5924
N9330X5.4429Y3.5851
N9340X5.4312Y3.5759
N9350X5.4209Y3.5651
N9360X5.4123Y3.5530
N9370X5.4055Y3.5398
N9380X5.4008Y3.5258
N9390X5.3981Y3.5107
N9400X5.3977Y3.4945
N9410X5.3997Y3.4791
N9420X5.4037Y3.4648
N9430X5.4098Y3.4513
N9440X5.4178Y3.4388
N9450X5.4276Y3.4276
N9460X5.4388Y3.4178
N9470X5.4513Y3.4098
N9480X5.4648Y3.4037
N9490X5.4791Y3.3997
N9500X5.4945Y3.3977
N9510X5.5107Y3.3981
N9520X5.5258Y3.4008
N9530X5.5398Y3.4055
N9540X5.5530Y3.4123
N9550X5.5651Y3.4209
N9560X5.5724Y3.4276
N9570X5.6078Y3.3922
N9580X5.6222Y3.4089
N9590X5.6341Y3.4274
N9600X5.6432Y3.4476
N9610X5.6493Y3.4691
N9620X5.6522Y3.4920
N9630Y3.5080
N9640X5.6493Y3.5309
N9650X5.6432Y3.5524
N9660X5.6341Y3.5726
N9670X5.6222Y3.5911
N9680X5.6078Y3.6078
N9690X5.5911Y3.6222
N9700X5.5726Y3.6341
N9710X5.5524Y3.6432
N9720X5.5309Y3.6493
N9730X5.5080Y3.6522
N9740X5.4920
N9750X5.4691Y3.6493
N9760X5.4476Y3.6432
N9770X5.4274Y3.6341
N9780X5.4089Y3.6222
N9790X5.3922Y3.6078
N9800X5.3778Y3.5911
N9810X5.3659Y3.5726
N9820X5.3568Y3.5524
N9830X5.3507Y3.5309
N9840X5.3478Y3.5080
N9850Y3.4920
N9860X5.3507Y3.4691
N9870X5.3568Y3.4476
N9880X5.3659Y3.4274
N9890X5.3778Y3.4089
N9900X5.3922Y3.3922
N9910X5.4089Y3.3778
N9920X5.4274Y3.3659
N9930X5.4476Y3.3568
N9940X5.4691Y3.3507
N9950X5.4920Y3.3478
N9960X5.5080
N9970X5.5309Y3.3507
N9980X5.5524Y3.3568
N9990X5.5726Y3.3659
N10000X5.5911Y3.3778
N10010X5.6078Y3.3922
N10020X5.6432Y3.3568
N10030X5.6563Y3.3713
N10040X5.6680Y3.3869
N10050X5.6781Y3.4036
N10060X5.6866Y3.4212
N10070X5.6934Y3.4397
N10080X5.6983Y3.4591
N10090X5.7014Y3.4792
N10100X5.7025Y3.5000
N10110X5.7014Y3.5208
N10120X5.6983Y3.5409
N10130X5.6934Y3.5603
N10140X5.6866Y3.5788
N10150X5.6781Y3.5964
N10160X5.6680Y3.6131
N10170X5.6563Y3.6287
N10180X5.6432Y3.6432
N10190X5.6287Y3.6563
N10200X5.6131Y3.6680
N10210X5.5964Y3.6781
N10220X5.5788Y3.6866
N10230X5.5603Y3.6934
N10240X5.5409Y3.6983
N10250X5.5208Y3.7014
N10260X5.5000Y3.7025
N10270X5.4792Y3.7014
N10280X5.4591Y3.6983
N10290X5.4397Y3.6934
N10300X5.4212Y3.6866
N10310X5.4036Y3.6781
N10320X5.3869Y3.6680
N10330X5.3713Y3.6563
N10340X5.3568Y3.6432
N10350X5.3437Y3.6287
N10360X5.3320Y3.6131
N10370X5.3219Y3.5964
N10380X5.3134Y3.5788
N10390X5.3066Y3.5603
N10400X5.3017Y3.5409
N10410X5.2986Y3.5208
N10420X5.2975Y3.5000
N10430X5.2986Y3.4792
N10440X5.3017Y3.4591
N10450X5.3066Y3.4397
N10460X5.3134Y3.4212
N10470X5.3219Y3.4036
N10480X5.3320Y3.3869
N10490X5.3437Y3.3713
N10500X5.3568Y3.3568
N10510X5.3713Y3.3437
N10520X5.3869Y3.3320
N10530X5.4036Y3.3219
N10540X5.4212Y3.3134
N10550X5.4397Y3.3066
N10560X5.4591Y3.3017
N10570X5.4792Y3.2986
N10580X5.5000Y3.2975
N10590X5.5208Y3.2986
N10600X5.5409Y3.3017
N10610X5.5603Y3.3066
N10620X5.5788Y3.3134
N10630X5.5964Y3.3219
N10640X5.6131Y3.3320
N10650X5.6287Y3.3437
N10660X5.6432Y3.3568
N10670X5.6785Y3.3215
N10680X5.6949Y3.3394
N10690X5.7094Y3.3589
N10700X5.7220Y3.3797
N10710X5.7327Y3.4017
N10720X5.7411Y3.4249
N10730X5.7473Y3.4490
N10740X5.7512Y3.4741
N10750X5.7525Y3.5000
N10760X5.7512Y3.5259
N10770X5.7473Y3.5510
N10780X5.7411Y3.5751
N10790X5.7327Y3.5983
N10800X5.7220Y3.6203
N10810X5.7094Y3.6411
N10820X5.6949Y3.6606
N10830X5.6785Y3.6785
N10840X5.6606Y3.6949
N10850X5.6411Y3.7094
N10860X5.6203Y3.7220
N10870X5.5983Y3.7327
N10880X5.5751Y3.7411
N10890X5.5510Y3.7473
N10900X5.5259Y3.7512
N10910X5.5000Y3.7525
N10920X5.4741Y3.7512
N10930X5.4490Y3.7473
N10940X5.4249Y3.7411
N10950X5.4017Y3.7327
N10960X5.3797Y3.7220
N10970X5.3589Y3.7094
N10980X5.3394Y3.6949
N10990X5.3215Y3.6785
N11000X5.3051Y3.6606
N11010X5.2906Y3.6411
N11020X5.2780Y3.6203
N11030X5.2673Y3.5983
N11040X5.2589Y3.5751
N11050X5.2527Y3.5510
N11060X5.2488Y3.5259
N11070X5.2475Y3.5000
N11080X5.2488Y3.4741
N11090X5.2527Y3.4490
N11100X5.2589Y3.4249
N11110X5.2673Y3.4017
N11120X5.2780Y3.3797
N11130X5.2906Y3.3589
N11140X5.3051Y3.3394
N11150X5.3215Y3.3215
N11160X5.3394Y3.3051
N11170X5.3589Y3.2906
N11180X5.3797Y3.2780
N11190X5.4017Y3.2673
N11200X5.4249Y3.2589
N11210X5.4490Y3.2527
N11220X5.4741Y3.2488
N11230X5.5000Y3.2475
N11240X5.5259Y3.2488
N11250X5.5510Y3.2527
N11260X5.5751Y3.2589
N11270X5.5983Y3.2673
N11280X5.6203Y3.2780
N11290X5.6411Y3.2906
N11300X5.6606Y3.3051
N11310X5.6785Y3.3215
N11320G00Z0.2362
N11330G00X5.4983Y1.5017
N11340G01Z-0.0625F15.0
N11350G01X5.4976Y1.4994F25.0
N11360X5.4996Y1.4976
N11370X5.5018Y1.4984
N11380X5.5022Y1.5010
N11390X5.5004Y1.5024
N11400X5.4983Y1.5017
N11410X5.4629Y1.5371
N11420X5.4550Y1.5270
N11430X5.4499Y1.5157
N11440X5.4479Y1.5057
N11450Y1.4943
N11460X5.4507Y1.4820
N11470X5.4564Y1.4709
N11480X5.4648Y1.4611
N11490X5.4752Y1.4538
N11500X5.4867Y1.4492
N11510X5.4971Y1.4477
N11520X5.5083Y1.4482
N11530X5.5203Y1.4516
N11540X5.5312Y1.4579
N11550X5.5406Y1.4668
N11560X5.5474Y1.4774
N11570X5.5513Y1.4891
N11580X5.5524Y1.5000
N11590X5.5513Y1.5109
N11600X5.5474Y1.5226
N11610X5.5406Y1.5332
N11620X5.5312Y1.5421
N11630X5.5203Y1.5484
N11640X5.5083Y1.5518
N11650X5.4971Y1.5523
N11660X5.4867Y1.5508
N11670X5.4752Y1.5462
N11680X5.4648Y1.5389
N11690X5.4629Y1.5371
N11700X5.4276Y1.5724
N11710X5.4178Y1.5612
N11720X5.4098Y1.5487
N11730X5.4037Y1.5352
N11740X5.3997Y1.5209
N11750X5.3977Y1.5055
N11760X5.3981Y1.4893
N11770X5.4008Y1.4742
N11780X5.4055Y1.4602
N11790X5.4123Y1.4470
N11800X5.4209Y1.4349
N11810X5.4312Y1.4241
N11820X5.4429Y1.4149
N11830X5.4557Y1.4076
N11840X5.4694Y1.4021
N11850X5.4841Y1.3988
N11860X5.5000Y1.3976
N11870X5.5159Y1.3988
N11880X5.5306Y1.4021
N11890X5.5443Y1.4076
N11900X5.5571Y1.4149
N11910X5.5688Y1.4241
N11920X5.5791Y1.4349
N11930X5.5877Y1.4470
N11940X5.5945Y1.4602
N11950X5.5992Y1.4742
N11960X5.6019Y1.4893
N11970X5.6023Y1.5055
N11980X5.6003Y1.5209
N11990X5.5963Y1.5352
N12000X5.5902Y1.5487
N12010X5.5822Y1.5612
N12020X5.5724Y1.5724
N12030X5.5612Y1.5822
N12040X5.5487Y1.5902
N12050X5.5352Y1.5963
N12060X5.5209Y1.6003
N12070X5.5055Y1.6023
N12080X5.4893Y1.6019
N12090X5.4742Y1.5992
N12100X5.4602Y1.5945
N12110X5.4470Y1.5877
N12120X5.4349Y1.5791
N12130X5.4276Y1.5724
N12140X5.3922Y1.6078
N12150X5.3778Y1.5911
N12160X5.3659Y1.5726
N12170X5.3568Y1.5524
N12180X5.3507Y1.5309
N12190X5.3478Y1.5080
N12200Y1.4920
N12210X5.3507Y1.4691
N12220X5.3568Y1.4476
N12230X5.3659Y1.4274
N12240X5.3778Y1.4089
N12250X5.3922Y1.3922
N12260X5.4089Y1.3778
N12270X5.4274Y1.3659
N12280X5.4476Y1.3568
N12290X5.4691Y1.3507
N12300X5.4920Y1.3478
N12310X5.5080
N12320X5.5309Y1.3507
N12330X5.5524Y1.3568
N12340X5.5726Y1.3659
N12350X5.5911Y1.3778
N12360X5.6078Y1.3922
N12370X5.6222Y1.4089
N12380X5.6341Y1.4274
N12390X5.6432Y1.4476
N12400X5.6493Y1.4691
N12410X5.6522Y1.4920
N12420Y1.5080
N12430X5.6493Y1.5309
N12440X5.6432Y1.5524
N12450X5.6341Y1.5726
N12460X5.6222Y1.5911
N12470X5.6078Y1.6078
N12480X5.5911Y1.6222
N12490X5.5726Y1.6341
N12500X5.5524Y1.6432
N12510X5.5309Y1.6493
N12520X5.5080Y1.6522
N12530X5.4920
N12540X5.4691Y1.6493
N12550X5.4476Y1.6432
N12560X5.4274Y1.6341
N12570X5.4089Y1.6222
N12580X5.3922Y1.6078
N12590X5.3568Y1.6432
N12600X5.3437Y1.6287
N12610X5.3320Y1.6131
N12620X5.3219Y1.5964
N12630X5.3134Y1.5788
N12640X5.3066Y1.5603
N12650X5.3017Y1.5409
N12660X5.2986Y1.5208
N12670X5.2975Y1.5000
N12680X5.2986Y1.4792
N12690X5.3017Y1.4591
N12700X5.3066Y1.4397
N12710X5.3134Y1.4212
N12720X5.3219Y1.4036
N12730X5.3320Y1.3869
N12740X5.3437Y1.3713
N12750X5.3568Y1.3568
N12760X5.3713Y1.3437
N12770X5.3869Y1.3320
N12780X5.4036Y1.3219
N12790X5.4212Y1.3134
N12800X5.4397Y1.3066
N12810X5.4591Y1.3017
N12820X5.4792Y1.2986
N12830X5.5000Y1.2975
N12840X5.5208Y1.2986
N12850X5.5409Y1.3017
N12860X5.5603Y1.3066
N12870X5.5788Y1.3134
N12880X5.5964Y1.3219
N12890X5.6131Y1.3320
N12900X5.6287Y1.3437
N12910X5.6432Y1.3568
N12920X5.6563Y1.3713
N12930X5.6680Y1.3869
N12940X5.6781Y1.4036
N12950X5.6866Y1.4212
N12960X5.6934Y1.4397
N12970X5.6983Y1.4591
N12980X5.7014Y1.4792
N12990X5.7025Y1.5000
N13000X5.7014Y1.5208
N13010X5.6983Y1.5409
N13020X5.6934Y1.5603
N13030X5.6866Y1.5788
N13040X5.6781Y1.5964
N13050X5.6680Y1.6131
N13060X5.6563Y1.6287
N13070X5.6432Y1.6432
N13080X5.6287Y1.6563
N13090X5.6131Y1.6680
N13100X5.5964Y1.6781
N13110X5.5788Y1.6866
N13120X5.5603Y1.6934
N13130X5.5409Y1.6983
N13140X5.5208Y1.7014
N13150X5.5000Y1.7025
N13160X5.4792Y1.7014
N13170X5.4591Y1.6983
N13180X5.4397Y1.6934
N13190X5.4212Y1.6866
N13200X5.4036Y1.6781
N13210X5.3869Y1.6680
N13220X5.3713Y1.6563
N13230X5.3568Y1.6432
N13240X5.3215Y1.6785
N13250X5.3051Y1.6606
N13260X5.2906Y1.6411
N13270X5.2780Y1.6203
N13280X5.2673Y1.5983
N13290X5.2589Y1.5751
N13300X5.2527Y1.5510
N13310X5.2488Y1.5259
N13320X5.2475Y1.5000
N13330X5.2488Y1.4741
N13340X5.2527Y1.4490
N13350X5.2589Y1.4249
N13360X5.2673Y1.4017
N13370X5.2780Y1.3797
N13380X5.2906Y1.3589
N13390X5.3051Y1.3394
N13400X5.3215Y1.3215
N13410X5.3394Y1.3051
N13420X5.3589Y1.2906
N13430X5.3797Y1.2780
N13440X5.4017Y1.2673
N13450X5.4249Y1.2589
N13460X5.4490Y1.2527
N13470X5.4741Y1.2488
N13480X5.5000Y1.2475
N13490X5.5259Y1.2488
N13500X5.5510Y1.2527
N13510X5.5751Y1.2589
N13520X5.5983Y1.2673
N13530X5.6203Y1.2780
N13540X5.6411Y1.2906
N13550X5.6606Y1.3051
N13560X5.6785Y1.3215
N13570X5.6949Y1.3394
N13580X5.7094Y1.3589
N13590X5.7220Y1.3797
N13600X5.7327Y1.4017
N13610X5.7411Y1.4249
N13620X5.7473Y1.4490
N13630X5.7512Y1.4741
N13640X5.7525Y1.5000
N13650X5.7512Y1.5259
N13660X5.7473Y1.5510
N13670X5.7411Y1.5751
N13680X5.7327Y1.5983
N13690X5.7220Y1.6203
N13700X5.7094Y1.6411
N13710X5.6949Y1.6606
N13720X5.6785Y1.6785
N13730X5.6606Y1.6949
N13740X5.6411Y1.7094
N13750X5.6203Y1.7220
N13760X5.5983Y1.7327
N13770X5.5751Y1.7411
N13780X5.5510Y1.7473
N13790X5.5259Y1.7512
N13800X5.5000Y1.7525
N13810X5.4741Y1.7512
N13820X5.4490Y1.7473
N13830X5.4249Y1.7411
N13840X5.4017Y1.7327
N13850X5.3797Y1.7220
N13860X5.3589Y1.7094
N13870X5.3394Y1.6949
N13880X5.3215Y1.6785
N13890G00Z0.2362
N13900G00X3.5017Y1.4983
N13910G01Z-0.0625F15.0
N13920G01X3.5024Y1.5006F25.0
N13930X3.5004Y1.5024
N13940X3.4982Y1.5016
N13950X3.4978Y1.4990
N13960X3.4996Y1.4976
N13970X3.5017Y1.4983
N13980X3.5371Y1.4629
N13990X3.5450Y1.4730
N14000X3.5501Y1.4843
N14010X3.5521Y1.4943
N14020Y1.5057
N14030X3.5493Y1.5180
N14040X3.5436Y1.5291
N14050X3.5352Y1.5389
N14060X3.5248Y1.5462
N14070X3.5133Y1.5508
N14080X3.5029Y1.5523
N14090X3.4917Y1.5518
N14100X3.4797Y1.5484
N14110X3.4688Y1.5421
N14120X3.4594Y1.5332
N14130X3.4526Y1.5226
N14140X3.4487Y1.5109
N14150X3.4476Y1.5000
N14160X3.4487Y1.4891
N14170X3.4526Y1.4774
N14180X3.4594Y1.4668
N14190X3.4688Y1.4579
N14200X3.4797Y1.4516
N14210X3.4917Y1.4482
N14220X3.5029Y1.4477
N14230X3.5133Y1.4492
N14240X3.5248Y1.4538
N14250X3.5352Y1.4611
N14260X3.5371Y1.4629
N14270X3.5724Y1.4276
N14280X3.5822Y1.4388
N14290X3.5902Y1.4513
N14300X3.5963Y1.4648
N14310X3.6003Y1.4791
N14320X3.6023Y1.4945
N14330X3.6019Y1.5107
N14340X3.5992Y1.5258
N14350X3.5945Y1.5398
N14360X3.5877Y1.5530
N14370X3.5791Y1.5651
N14380X3.5688Y1.5759
N14390X3.5571Y1.5851
N14400X3.5443Y1.5924
N14410X3.5306Y1.5979
N14420X3.5159Y1.6012
N14430X3.5000Y1.6024
N14440X3.4841Y1.6012
N14450X3.4694Y1.5979
N14460X3.4557Y1.5924
N14470X3.4429Y1.5851
N14480X3.4312Y1.5759
N14490X3.4209Y1.5651
N14500X3.4123Y1.5530
N14510X3.4055Y1.5398
N14520X3.4008Y1.5258
N14530X3.3981Y1.5107
N14540X3.3977Y1.4945
N14550X3.3997Y1.4791
N14560X3.4037Y1.4648
N14570X3.4098Y1.4513
N14580X3.4178Y1.4388
N14590X3.4276Y1.4276
N14600X3.4388Y1.4178
N14610X3.4513Y1.4098
N14620X3.4648Y1.4037
N14630X3.4791Y1.3997
N14640X3.4945Y1.3977
N14650X3.5107Y1.3981
N14660X3.5258Y1.4008
N14670X3.5398Y1.4055
N14680X3.5530Y1.4123
N14690X3.5651Y1.4209
N14700X3.5724Y1.4276
N14710X3.6078Y1.3922
N14720X3.6222Y1.4089
N14730X3.6341Y1.4274
N14740X3.6432Y1.4476
N14750X3.6493Y1.4691
N14760X3.6522Y1.4920
N14770Y1.5080
N14780X3.6493Y1.5309
N14790X3.6432Y1.5524
N14800X3.6341Y1.5726
N14810X3.6222Y1.5911
N14820X3.6078Y1.6078
N14830X3.5911Y1.6222
N14840X3.5726Y1.6341
N14850X3.5524Y1.6432
N14860X3.5309Y1.6493
N14870X3.5080Y1.6522
N14880X3.4920
N14890X3.4691Y1.6493
N14900X3.4476Y1.6432
N14910X3.4274Y1.6341
N14920X3.4089Y1.6222
N14930X3.3922Y1.6078
N14940X3.3778Y1.5911
N14950X3.3659Y1.5726
N14960X3.3568Y1.5524
N14970X3.3507Y1.5309
N14980X3.3478Y1.5080
N14990Y1.4920
N15000X3.3507Y1.4691
N15010X3.3568Y1.4476
N15020X3.3659Y1.4274
N15030X3.3778Y1.4089
N15040X3.3922Y1.3922
N15050X3.4089Y1.3778
N15060X3.4274Y1.3659
N15070X3.4476Y1.3568
N15080X3.4691Y1.3507
N15090X3.4920Y1.3478
N15100X3.5080
N15110X3.5309Y1.3507
N15120X3.5524Y1.3568
N15130X3.5726Y1.3659
N15140X3.5911Y1.3778
N15150X3.6078Y1.3922
N15160X3.6432Y1.3568
N15170X3.6563Y1.3713
N15180X3.6680Y1.3869
N15190X3.6781Y1.4036
N15200X3.6866Y1.4212
N15210X3.6934Y1.4397
N15220X3.6983Y1.4591
N15230X3.7014Y1.4792
N15240X3.7025Y1.5000
N15250X3.7014Y1.5208
N15260X3.6983Y1.5409
N15270X3.6934Y1.5603
N15280X3.6866Y1.5788
N15290X3.6781Y1.5964
N15300X3.6680Y1.6131
N15310X3.6563Y1.6287
N15320X3.6432Y1.6432
N15330X3.6287Y1.6563
N15340X3.6131Y1.6680
N15350X3.5964Y1.6781
N15360X3.5788Y1.6866
N15370X3.5603Y1.6934
N15380X3.5409Y1.6983
N15390X3.5208Y1.7014
N15400X3.5000Y1.7025
N15410X3.4792Y1.7014
N15420X3.4591Y1.6983
N15430X3.4397Y1.6934
N15440X3.4212Y1.6866
N15450X3.4036Y1.6781
N15460X3.3869Y1.6680
N15470X3.3713Y1.6563
N15480X3.3568Y1.6432
N15490X3.3437Y1.6287
N15500X3.3320Y1.6131
N15510X3.3219Y1.5964
N15520X3.3134Y1.5788
N15530X3.3066Y1.5603
N15540X3.3017Y1.5409
N15550X3.2986Y1.5208
N15560X3.2975Y1.5000
N15570X3.2986Y1.4792
N15580X3.3017Y1.4591
N15590X3.3066Y1.4397
N15600X3.3134Y1.4212
N15610X3.3219Y1.4036
N15620X3.3320Y1.3869
N15630X3.3437Y1.3713
N15640X3.3568Y1.3568
N15650X3.3713Y1.3437
N15660X3.3869Y1.3320
N15670X3.4036Y1.3219
N15680X3.4212Y1.3134
N15690X3.4397Y1.3066
N15700X3.4591Y1.3017
N15710X3.4792Y1.2986
N15720X3.5000Y1.2975
N15730X3.5208Y1.2986
N15740X3.5409Y1.3017
N15750X3.5603Y1.3066
N15760X3.5788Y1.3134
N15770X3.5964Y1.3219
N15780X3.6131Y1.3320
N15790X3.6287Y1.3437
N15800X3.6432Y1.3568
N15810X3.6785Y1.3215
N15820X3.6949Y1.3394
N15830X3.7094Y1.3589
N15840X3.7220Y1.3797
N15850X3.7327Y1.4017
N15860X3.7411Y1.4249
N15870X3.7473Y1.4490
N15880X3.7512Y1.4741
N15890X3.7525Y1.5000
N15900X3.7512Y1.5259
N15910X3.7473Y1.5510
N15920X3.7411Y1.5751
N15930X3.7327Y1.5983
N15940X3.7220Y1.6203
N15950X3.7094Y1.6411
N15960X3.6949Y1.6606
N15970X3.6785Y1.6785
N15980X3.6606Y1.6949
N15990X3.6411Y1.7094
N16000X3.6203Y1.7220
N16010X3.5983Y1.7327
N16020X3.5751Y1.7411
N16030X3.5510Y1.7473
N16040X3.5259Y1.7512
N16050X3.5000Y1.7525
N16060X3.4741Y1.7512
N16070X3.4490Y1.7473
N16080X3.4249Y1.7411
N16090X3.4017Y1.7327
N16100X3.3797Y1.7220
N16110X3.3589Y1.7094
N16120X3.3394Y1.6949
N16130X3.3215Y1.6785
N16140X3.3051Y1.6606
N16150X3.2906Y1.6411
N16160X3.2780Y1.6203
N16170X3.2673Y1.5983
N16180X3.2589Y1.5751
N16190X3.2527Y1.5510
N16200X3.2488Y1.5259
N16210X3.2475Y1.5000
N16220X3.2488Y1.4741
N16230X3.2527Y1.4490
N16240X3.2589Y1.4249
N16250X3.2673Y1.4017
N16260X3.2780Y1.3797
N16270X3.2906Y1.3589
N16280X3.3051Y1.3394
N16290X3.3215Y1.3215
N16300X3.3394Y1.3051
N16310X3.3589Y1.2906
N16320X3.3797Y1.2780
N16330X3.4017Y1.2673
N16340X3.4249Y1.2589
N16350X3.4490Y1.2527
N16360X3.4741Y1.2488
N16370X3.5000Y1.2475
N16380X3.5259Y1.2488
N16390X3.5510Y1.2527
N16400X3.5751Y1.2589
N16410X3.5983Y1.2673
N16420X3.6203Y1.2780
N16430X3.6411Y1.2906
N16440X3.6606Y1.3051
N16450X3.6785Y1.3215
N16460G00Z0.2362
N16470G00X1.5017Y1.4983
N16480G01Z-0.0625F15.0
N16490G01X1.5024Y1.5006F25.0
N16500X1.5004Y1.5024
N16510X1.4982Y1.5016
N16520X1.4978Y1.4990
N16530X1.4996Y1.4976
N16540X1.5017Y1.4983
N16550X1.5371Y1.4629
N16560X1.5450Y1.4730
N16570X1.5501Y1.4843
N16580X1.5521Y1.4943
N16590Y1.5057
N16600X1.5493Y1.5180
N16610X1.5436Y1.5291
N16620X1.5352Y1.5389
N16630X1.5248Y1.5462
N16640X1.5133Y1.5508
N16650X1.5029Y1.5523
N16660X1.4917Y1.5518
N16670X1.4797Y1.5484
N16680X1.4688Y1.5421
N16690X1.4594Y1.5332
N16700X1.4526Y1.5226
N16710X1.4487Y1.5109
N16720X1.4476Y1.5000
N16730X1.4487Y1.4891
N16740X1.4526Y1.4774
N16750X1.4594Y1.4668
N16760X1.4688Y1.4579
N16770X1.4797Y1.4516
N16780X1.4917Y1.4482
N16790X1.5029Y1.4477
N16800X1.5133Y1.4492
N16810X1.5248Y1.4538
N16820X1.5352Y1.4611
N16830X1.5371Y1.4629
N16840X1.5724Y1.4276
N16850X1.5822Y1.4388
N16860X1.5902Y1.4513
N16870X1.5963Y1.4648
N16880X1.6003Y1.4791
N16890X1.6023Y1.4945
N16900X1.6019Y1.5107
N16910X1.5992Y1.5258
N16920X1.5945Y1.5398
N16930X1.5877Y1.5530
N16940X1.5791Y1.5651
N16950X1.5688Y1.5759
N16960X1.5571Y1.5851
N16970X1.5443Y1.5924
N16980X1.5306Y1.5979
N16990X1.5159Y1.6012
N17000X1.5000Y1.6024
N17010X1.4841Y1.6012
N17020X1.4694Y1.5979
N17030X1.4557Y1.5924
N17040X1.4429Y1.5851
N17050X1.4312Y1.5759
N17060X1.4209Y1.5651
N17070X1.4123Y1.5530
N17080X1.4055Y1.5398
N17090X1.4008Y1.5258
N17100X1.3981Y1.5107
N17110X1.3977Y1.4945
N17120X1.3997Y1.4791
N17130X1.4037Y1.4648
N17140X1.4098Y1.4513
N17150X1.4178Y1.4388
N17160X1.4276Y1.4276
N17170X1.4388Y1.4178
N17180X1.4513Y1.4098
N17190X1.4648Y1.4037
N17200X1.4791Y1.3997
N17210X1.4945Y1.3977
N17220X1.5107Y1.3981
N17230X1.5258Y1.4008
N17240X1.5398Y1.4055
N17250X1.5530Y1.4123
N17260X1.5651Y1.4209
N17270X1.5724Y1.4276
N17280X1.6078Y1.3922
N17290X1.6222Y1.4089
N17300X1.6341Y1.4274
N17310X1.6432Y1.4476
N17320X1.6493Y1.4691
N17330X1.6522Y1.4920
N17340Y1.5080
N17350X1.6493Y1.5309
N17360X1.6432Y1.5524
N17370X1.6341Y1.5726
N17380X1.6222Y1.5911
N17390X1.6078Y1.6078
N17400X1.5911Y1.6222
N17410X1.5726Y1.6341
N17420X1.5524Y1.6432
N17430X1.5309Y1.6493
N17440X1.5080Y1.6522
N17450X1.4920
N17460X1.4691Y1.6493
N17470X1.4476Y1.6432
N17480X1.4274Y1.6341
N17490X1.4089Y1.6222
N17500X1.3922Y1.6078
N17510X1.3778Y1.5911
N17520X1.3659Y1.5726
N17530X1.3568Y1.5524
N17540X1.3507Y1.5309
N17550X1.3478Y1.5080
N17560Y1.4920
N17570X1.3507Y1.4691
N17580X1.3568Y1.4476
N17590X1.3659Y1.4274
N17600X1.3778Y1.4089
N17610X1.3922Y1.3922
N17620X1.4089Y1.3778
N17630X1.4274Y1.3659
N17640X1.4476Y1.3568
N17650X1.4691Y1.3507
N17660X1.4920Y1.3478
N17670X1.5080
N17680X1.5309Y1.3507
N17690X1.5524Y1.3568
N17700X1.5726Y1.3659
N17710X1.5911Y1.3778
N17720X1.6078Y1.3922
N17730X1.6432Y1.3568
N17740X1.6563Y1.3713
N17750X1.6680Y1.3869
N17760X1.6781Y1.4036
N17770X1.6866Y1.4212
N17780X1.6934Y1.4397
N17790X1.6983Y1.4591
N17800X1.7014Y1.4792
N17810X1.7025Y1.5000
N17820X1.7014Y1.5208
N17830X1.6983Y1.5409
N17840X1.6934Y1.5603
N17850X1.6866Y1.5788
N17860X1.6781Y1.5964
N17870X1.6680Y1.6131
N17880X1.6563Y1.6287
N17890X1.6432Y1.6432
N17900X1.6287Y1.6563
N17910X1.6131Y1.6680
N17920X1.5964Y1.6781
N17930X1.5788Y1.6866
N17940X1.5603Y1.6934
N17950X1.5409Y1.6983
N17960X1.5208Y1.7014
N17970X1.5000Y1.7025
N17980X1.4792Y1.7014
N17990X1.4591Y1.6983
N18000X1.4397Y1.6934
N18010X1.4212Y1.6866
N18020X1.4036Y1.6781
N18030X1.3869Y1.6680
N18040X1.3713Y1.6563
N18050X1.3568Y1.6432
N18060X1.3437Y1.6287
N18070X1.3320Y1.6131
N18080X1.3219Y1.5964
N18090X1.3134Y1.5788
N18100X1.3066Y1.5603
N18110X1.3017Y1.5409
N18120X1.2986Y1.5208
N18130X1.2975Y1.5000
N18140X1.2986Y1.4792
N18150X1.3017Y1.4591
N18160X1.3066Y1.4397
N18170X1.3134Y1.4212
N18180X1.3219Y1.4036
N18190X1.3320Y1.3869
N18200X1.3437Y1.3713
N18210X1.3568Y1.3568
N18220X1.3713Y1.3437
N18230X1.3869Y1.3320
N18240X1.4036Y1.3219
N18250X1.4212Y1.3134
N18260X1.4397Y1.3066
N18270X1.4591Y1.3017
N18280X1.4792Y1.2986
N18290X1.5000Y1.2975
N18300X1.5208Y1.2986
N18310X1.5409Y1.3017
N18320X1.5603Y1.3066
N18330X1.5788Y1.3134
N18340X1.5964Y1.3219
N18350X1.6131Y1.3320
N18360X1.6287Y1.3437
N18370X1.6432Y1.3568
N18380X1.6785Y1.3215
N18390X1.6949Y1.3394
N18400X1.7094Y1.3589
N18410X1.7220Y1.3797
N18420X1.7327Y1.4017
N18430X1.7411Y1.4249
N18440X1.7473Y1.4490
N18450X1.7512Y1.4741
N18460X1.7525Y1.5000
N18470X1.7512Y1.5259
N18480X1.7473Y1.5510
N18490X1.7411Y1.5751
N18500X1.7327Y1.5983
N18510X1.7220Y1.6203
N18520X1.7094Y1.6411
N18530X1.6949Y1.6606
N18540X1.6785Y1.6785
N18550X1.6606Y1.6949
N18560X1.6411Y1.7094
N18570X1.6203Y1.7220
N18580X1.5983Y1.7327
N18590X1.5751Y1.7411
N18600X1.5510Y1.7473
N18610X1.5259Y1.7512
N18620X1.5000Y1.7525
N18630X1.4741Y1.7512
N18640X1.4490Y1.7473
N18650X1.4249Y1.7411
N18660X1.4017Y1.7327
N18670X1.3797Y1.7220
N18680X1.3589Y1.7094
N18690X1.3394Y1.6949
N18700X1.3215Y1.6785
N18710X1.3051Y1.6606
N18720X1.2906Y1.6411
N18730X1.2780Y1.6203
N18740X1.2673Y1.5983
N18750X1.2589Y1.5751
N18760X1.2527Y1.5510
N18770X1.2488Y1.5259
N18780X1.2475Y1.5000
N18790X1.2488Y1.4741
N18800X1.2527Y1.4490
N18810X1.2589Y1.4249
N18820X1.2673Y1.4017
N18830X1.2780Y1.3797
N18840X1.2906Y1.3589
N18850X1.3051Y1.3394
N18860X1.3215Y1.3215
N18870X1.3394Y1.3051
N18880X1.3589Y1.2906
N18890X1.3797Y1.2780
N18900X1.4017Y1.2673
N18910X1.4249Y1.2589
N18920X1.4490Y1.2527
N18930X1.4741Y1.2488
N18940X1.5000Y1.2475
N18950X1.5259Y1.2488
N18960X1.5510Y1.2527
N18970X1.5751Y1.2589
N18980X1.5983Y1.2673
N18990X1.6203Y1.2780
N19000X1.6411Y1.2906
N19010X1.6606Y1.3051
N19020X1.6785Y1.3215
N19030G00Z0.2362
N19040G00X1.4983Y3.5017
N19050G01Z-0.0625F15.0
N19060G01X1.4976Y3.4994F25.0
N19070X1.4996Y3.4976
N19080X1.5018Y3.4984
N19090X1.5022Y3.5010
N19100X1.5004Y3.5024
N19110X1.4983Y3.5017
N19120X1.4629Y3.5371
N19130X1.4550Y3.5270
N19140X1.4499Y3.5157
N19150X1.4479Y3.5057
N19160Y3.4943
N19170X1.4507Y3.4820
N19180X1.4564Y3.4709
N19190X1.4648Y3.4611
N19200X1.4752Y3.4538
N19210X1.4867Y3.4492
N19220X1.4971Y3.4477
N19230X1.5083Y3.4482
N19240X1.5203Y3.4516
N19250X1.5312Y3.4579
N19260X1.5406Y3.4668
N19270X1.5474Y3.4774
N19280X1.5513Y3.4891
N19290X1.5524Y3.5000
N19300X1.5513Y3.5109
N19310X1.5474Y3.5226
N19320X1.5406Y3.5332
N19330X1.5312Y3.5421
N19340X1.5203Y3.5484
N19350X1.5083Y3.5518
N19360X1.4971Y3.5523
N19370X1.4867Y3.5508
N19380X1.4752Y3.5462
N19390X1.4648Y3.5389
N19400X1.4629Y3.5371
N19410X1.4276Y3.5724
N19420X1.4178Y3.5612
N19430X1.4098Y3.5487
N19440X1.4037Y3.5352
N19450X1.3997Y3.5209
N19460X1.3977Y3.5055
N19470X1.3981Y3.4893
N19480X1.4008Y3.4742
N19490X1.4055Y3.4602
N19500X1.4123Y3.4470
N19510X1.4209Y3.4349
N19520X1.4312Y3.4241
N19530X1.4429Y3.4149
N19540X1.4557Y3.4076
N19550X1.4694Y3.4021
N19560X1.4841Y3.3988
N19570X1.5000Y3.3976
N19580X1.5159Y3.3988
N19590X1.5306Y3.4021
N19600X1.5443Y3.4076
N19610X1.5571Y3.4149
N19620X1.5688Y3.4241
N19630X1.5791Y3.4349
N19640X1.5877Y3.4470
N19650X1.5945Y3.4602
N19660X1.5992Y3.4742
N19670X1.6019Y3.4893
N19680X1.6023Y3.5055
N19690X1.6003Y3.5209
N19700X1.5963Y3.5352
N19710X1.5902Y3.5487
N19720X1.5822Y3.5612
N19730X1.5724Y3.5724
N19740X1.5612Y3.5822
N19750X1.5487Y3.5902
N19760X1.5352Y3.5963
N19770X1.5209Y3.6003
N19780X1.5055Y3.6023
N19790X1.4893Y3.6019
N19800X1.4742Y3.5992
N19810X1.4602Y3.5945
N19820X1.4470Y3.5877
N19830X1.4349Y3.5791
N19840X1.4276Y3.5724
N19850X1.3922Y3.6078
N19860X1.3778Y3.5911
N19870X1.3659Y3.5726
N19880X1.3568Y3.5524
N19890X1.3507Y3.5309
N19900X1.3478Y3.5080
N19910Y3.4920
N19920X1.3507Y3.4691
N19930X1.3568Y3.4476
N19940X1.3659Y3.4274
N19950X1.3778Y3.4089
N19960X1.3922Y3.3922
N19970X1.4089Y3.3778
N19980X1.4274Y3.3659
N19990X1.4476Y3.3568
N20000X1.4691Y3.3507
N20010X1.4920Y3.3478
N20020X1.5080
N20030X1.5309Y3.3507
N20040X1.5524Y3.3568
N20050X1.5726Y3.3659
N20060X1.5911Y3.3778
N20070X1.6078Y3.3922
N20080X1.6222Y3.4089
N20090X1.6341Y3.4274
N20100X1.6432Y3.4476
N20110X1.6493Y3.4691
N20120X1.6522Y3.4920
N20130Y3.5080
N20140X1.6493Y3.5309
N20150X1.6432Y3.5524
N20160X1.6341Y3.5726
N20170X1.6222Y3.5911
N20180X1.6078Y3.6078
N20190X1.5911Y3.6222
N20200X1.5726Y3.6341
N20210X1.5524Y3.6432
N20220X1.5309Y3.6493
N20230X1.5080Y3.6522
N20240X1.4920
N20250X1.4691Y3.6493
N20260X1.4476Y3.6432
N20270X1.4274Y3.6341
N20280X1.4089Y3.6222
N20290X1.3922Y3.6078
N20300X1.3568Y3.6432
N20310X1.3437Y3.6287
N20320X1.3320Y3.6131
N20330X1.3219Y3.5964
N20340X1.3134Y3.5788
N20350X1.3066Y3.5603
N20360X1.3017Y3.5409
N20370X1.2986Y3.5208
N20380X1.2975Y3.5000
N20390X1.2986Y3.4792
N20400X1.3017Y3.4591
N20410X1.3066Y3.4397
N20420X1.3134Y3.4212
N20430X1.3219Y3.4036
N20440X1.3320Y3.3869
N20450X1.3437Y3.3713
N20460X1.3568Y3.3568
N20470X1.3713Y3.3437
N20480X1.3869Y3.3320
N20490X1.4036Y3.3219
N20500X1.4212Y3.3134
N20510X1.4397Y3.3066
N20520X1.4591Y3.3017
N20530X1.4792Y3.2986
N20540X1.5000Y3.2975
N20550X1.5208Y3.2986
N20560X1.5409Y3.3017
N20570X1.5603Y3.3066
N20580X1.5788Y3.3134
N20590X1.5964Y3.3219
N20600X1.6131Y3.3320
N20610X1.6287Y3.3437
N20620X1.6432Y3.3568
N20630X1.6563Y3.3713
N20640X1.6680Y3.3869
N20650X1.6781Y3.4036
N20660X1.6866Y3.4212
N20670X1.6934Y3.4397
N20680X1.6983Y3.4591
N20690X1.7014Y3.4792
N20700X1.7025Y3.5000
N20710X1.7014Y3.5208
N20720X1.6983Y3.5409
N20730X1.6934Y3.5603
N20740X1.6866Y3.5788
N20750X1.6781Y3.5964
N20760X1.6680Y3.6131
N20770X1.6563Y3.6287
N20780X1.6432Y3.6432
N20790X1.6287Y3.6563
N20800X1.6131Y3.6680
N20810X1.5964Y3.6781
N20820X1.5788Y3.6866
N20830X1.5603Y3.6934
N20840X1.5409Y3.6983
N20850X1.5208Y3.7014
N20860X1.5000Y3.7025
N20870X1.4792Y3.7014
N20880X1.4591Y3.6983
N20890X1.4397Y3.6934
N20900X1.4212Y3.6866
N20910X1.4036Y3.6781
N20920X1.3869Y3.6680
N20930X1.3713Y3.6563
N20940X1.3568Y3.6432
N20950X1.3215Y3.6785
N20960X1.3051Y3.6606
N20970X1.2906Y3.6411
N20980X1.2780Y3.6203
N20990X1.2673Y3.5983
N21000X1.2589Y3.5751
N21010X1.2527Y3.5510
N21020X1.2488Y3.5259
N21030X1.2475Y3.5000
N21040X1.2488Y3.4741
N21050X1.2527Y3.4490
N21060X1.2589Y3.4249
N21070X1.2673Y3.4017
N21080X1.2780Y3.3797
N21090X1.2906Y3.3589
N21100X1.3051Y3.3394
N21110X1.3215Y3.3215
N21120X1.3394Y3.3051
N21130X1.3589Y3.2906
N21140X1.3797Y3.2780
N21150X1.4017Y3.2673
N21160X1.4249Y3.2589
N21170X1.4490Y3.2527
N21180X1.4741Y3.2488
N21190X1.5000Y3.2475
N21200X1.5259Y3.2488
N21210X1.5510Y3.2527
N21220X1.5751Y3.2589
N21230X1.5983Y3.2673
N21240X1.6203Y3.2780
N21250X1.6411Y3.2906
N21260X1.6606Y3.3051
N21270X1.6785Y3.3215
N21280X1.6949Y3.3394
N21290X1.7094Y3.3589
N21300X1.7220Y3.3797
N21310X1.7327Y3.4017
N21320X1.7411Y3.4249
N21330X1.7473Y3.4490
N21340X1.7512Y3.4741
N21350X1.7525Y3.5000
N21360X1.7512Y3.5259
N21370X1.7473Y3.5510
N21380X1.7411Y3.5751
N21390X1.7327Y3.5983
N21400X1.7220Y3.6203
N21410X1.7094Y3.6411
N21420X1.6949Y3.6606
N21430X1.6785Y3.6785
N21440X1.6606Y3.6949
N21450X1.6411Y3.7094
N21460X1.6203Y3.7220
N21470X1.5983Y3.7327
N21480X1.5751Y3.7411
N21490X1.5510Y3.7473
N21500X1.5259Y3.7512
N21510X1.5000Y3.7525
N21520X1.4741Y3.7512
N21530X1.4490Y3.7473
N21540X1.4249Y3.7411
N21550X1.4017Y3.7327
N21560X1.3797Y3.7220
N21570X1.3589Y3.7094
N21580X1.3394Y3.6949
N21590X1.3215Y3.6785
N21600G00Z0.2362
N21610G00X1.2492Y6.1375Z0.2362
N21620G01Z-0.0750F15.0
N21630G01X1.7508F25.0
N21640X1.7788Y6.1368
N21650X1.8073Y6.1346
N21660X1.8354Y6.1310
N21670X1.8630Y6.1260
N21680X1.8902Y6.1197
N21690X1.9169Y6.1121
N21700X1.9430Y6.1032
N21710X1.9686Y6.0931
N21720X1.9935Y6.0818
N21730X2.0177Y6.0693
N21740X2.0413Y6.0557
N21750X2.0641Y6.0411
N21760X2.0861Y6.0254
N21770X2.1074Y6.0087
N21780X2.1278Y5.9910
N21790X2.1473Y5.9723
N21800X2.1660Y5.9528
N21810X2.1837Y5.9324
N21820X2.2004Y5.9111
N21830X2.2161Y5.8891
N21840X2.2307Y5.8663
N21850X2.2443Y5.8427
N21860X2.2568Y5.8185
N21870X2.2681Y5.7936
N21880X2.2782Y5.7680
N21890X2.2871Y5.7419
N21900X2.2947Y5.7152
N21910X2.3010Y5.6880
N21920X2.3060Y5.6604
N21930X2.3096Y5.6323
N21940X2.3116Y5.6057
N21950X2.3118Y5.6038
N21960X2.3125Y5.5758
N21970Y5.4242
N21980X2.3118Y5.3962
N21990X2.3106Y5.3808
N22000X2.3096Y5.3677
N22010X2.3060Y5.3396
N22020X2.3010Y5.3120
N22030X2.2947Y5.2848
N22040X2.2871Y5.2581
N22050X2.2782Y5.2320
N22060X2.2681Y5.2064
N22070X2.2568Y5.1815
N22080X2.2443Y5.1573
N22090X2.2307Y5.1337
N22100X2.2161Y5.1109
N22110X2.2004Y5.0889
N22120X2.1837Y5.0676
N22130X2.1660Y5.0472
N22140X2.1473Y5.0277
N22150X2.1278Y5.0090
N22160X2.1074Y4.9913
N22170X2.0861Y4.9746
N22180X2.0641Y4.9589
N22190X2.0413Y4.9443
N22200X2.0177Y4.9307
N22210X1.9935Y4.9182
N22220X1.9686Y4.9069
N22230X1.9430Y4.8968
N22240X1.9169Y4.8879
N22250X1.8902Y4.8803
N22260X1.8630Y4.8740
N22270X1.8354Y4.8690
N22280X1.8073Y4.8654
N22290X1.7788Y4.8632
N22300X1.7508Y4.8625
N22310X1.2492
N22320X1.2212Y4.8632
N22330X1.1927Y4.8654
N22340X1.1646Y4.8690
N22350X1.1370Y4.8740
N22360X1.1098Y4.8803
N22370X1.0831Y4.8879
N22380X1.0570Y4.8968
N22390X1.0314Y4.9069
N22400X1.0065Y4.9182
N22410X0.9823Y4.9307
N22420X0.9587Y4.9443
N22430X0.9359Y4.9589
N22440X0.9139Y4.9746
N22450X0.8926Y4.9913
N22460X0.8722Y5.0090
N22470X0.8527Y5.0277
N22480X0.8340Y5.0472
N22490X0.8163Y5.0676
N22500X0.7996Y5.0889
N22510X0.7839Y5.1109
N22520X0.7693Y5.1337
N22530X0.7557Y5.1573
N22540X0.7432Y5.1815
N22550X0.7319Y5.2064
N22560X0.7218Y5.2320
N22570X0.7129Y5.2581
N22580X0.7053Y5.2848
N22590X0.6990Y5.3120
N22600X0.6940Y5.3396
N22610X0.6914Y5.3601
N22620X0.6904Y5.3677
N22630X0.6882Y5.3962
N22640X0.6875Y5.4242
N22650Y5.5758
N22660X0.6877Y5.5850
N22670X0.6882Y5.6038
N22680X0.6904Y5.6323
N22690X0.6940Y5.6604
N22700X0.6990Y5.6880
N22710X0.7053Y5.7152
N22720X0.7129Y5.7419
N22730X0.7218Y5.7680
N22740X0.7319Y5.7936
N22750X0.7432Y5.8185
N22760X0.7557Y5.8427
N22770X0.7693Y5.8663
N22780X0.7839Y5.8891
N22790X0.7996Y5.9111
N22800X0.8163Y5.9324
N22810X0.8340Y5.9528
N22820X0.8527Y5.9723
N22830X0.8722Y5.9910
N22840X0.8926Y6.0087
N22850X0.9139Y6.0254
N22860X0.9359Y6.0411
N22870X0.9587Y6.0557
N22880X0.9823Y6.0693
N22890X1.0065Y6.0818
N22900X1.0314Y6.0931
N22910X1.0570Y6.1032
N22920X1.0831Y6.1121
N22930X1.1098Y6.1197
N22940X1.1370Y6.1260
N22950X1.1646Y6.1310
N22960X1.1927Y6.1346
N22970X1.2212Y6.1368
N22980X1.2492Y6.1375
N22990G01Z-0.1500F15.0
N23000G01X1.7508F25.0
N23010X1.7788Y6.1368
N23020X1.8073Y6.1346
N23030X1.8354Y6.1310
N23040X1.8630Y6.1260
N23050X1.8902Y6.1197
N23060X1.9169Y6.1121
N23070X1.9430Y6.1032
N23080X1.9686Y6.0931
N23090X1.9935Y6.0818
N23100X2.0177Y6.0693
N23110X2.0413Y6.0557
N23120X2.0641Y6.0411
N23130X2.0861Y6.0254
N23140X2.1074Y6.0087
N23150X2.1278Y5.9910
N23160X2.1473Y5.9723
N23170X2.1660Y5.9528
N23180X2.1837Y5.9324
N23190X2.2004Y5.9111
N23200X2.2161Y5.8891
N23210X2.2307Y5.8663
N23220X2.2443Y5.8427
N23230X2.2568Y5.8185
N23240X2.2681Y5.7936
N23250X2.2782Y5.7680
N23260X2.2871Y5.7419
N23270X2.2947Y5.7152
N23280X2.3010Y5.6880
N23290X2.3060Y5.6604
N23300X2.3096Y5.6323
N23310X2.3116Y5.6057
N23320Z-0.0750
N23330X2.3118Y5.6038
N23340X2.3125Y5.5758
N23350Y5.4242
N23360X2.3118Y5.3962
N23370X2.3106Y5.3808
N23380G01Z-0.1500F15.0
N23390G01X2.3096Y5.3677F25.0
N23400X2.3060Y5.3396
N23410X2.3010Y5.3120
N23420X2.2947Y5.2848
N23430X2.2871Y5.2581
N23440X2.2782Y5.2320
N23450X2.2681Y5.2064
N23460X2.2568Y5.1815
N23470X2.2443Y5.1573
N23480X2.2307Y5.1337
N23490X2.2161Y5.1109
N23500X2.2004Y5.0889
N23510X2.1837Y5.0676
N23520X2.1660Y5.0472
N23530X2.1473Y5.0277
N23540X2.1278Y5.0090
N23550X2.1074Y4.9913
N23560X2.0861Y4.9746
N23570X2.0641Y4.9589
N23580X2.0413Y4.9443
N23590X2.0177Y4.9307
N23600X1.9935Y4.9182
N23610X1.9686Y4.9069
N23620X1.9430Y4.8968
N23630X1.9169Y4.8879
N23640X1.8902Y4.8803
N23650X1.8630Y4.8740
N23660X1.8354Y4.8690
N23670X1.8073Y4.8654
N23680X1.7788Y4.8632
N23690X1.7508Y4.8625
N23700X1.2492
N23710X1.2212Y4.8632
N23720X1.1927Y4.8654
N23730X1.1646Y4.8690
N23740X1.1370Y4.8740
N23750X1.1098Y4.8803
N23760X1.0831Y4.8879
N23770X1.0570Y4.8968
N23780X1.0314Y4.9069
N23790X1.0065Y4.9182
N23800X0.9823Y4.9307
N23810X0.9587Y4.9443
N23820X0.9359Y4.9589
N23830X0.9139Y4.9746
N23840X0.8926Y4.9913
N23850X0.8722Y5.0090
N23860X0.8527Y5.0277
N23870X0.8340Y5.0472
N23880X0.8163Y5.0676
N23890X0.7996Y5.0889
N23900X0.7839Y5.1109
N23910X0.7693Y5.1337
N23920X0.7557Y5.1573
N23930X0.7432Y5.1815
N23940X0.7319Y5.2064
N23950X0.7218Y5.2320
N23960X0.7129Y5.2581
N23970X0.7053Y5.2848
N23980X0.6990Y5.3120
N23990X0.6940Y5.3396
N24000X0.6914Y5.3601
N24010Z-0.0750
N24020X0.6904Y5.3677
N24030X0.6882Y5.3962
N24040X0.6875Y5.4242
N24050Y5.5758
N24060X0.6877Y5.5850
N24070G01Z-0.1500F15.0
N24080G01X0.6882Y5.6038F25.0
N24090X0.6904Y5.6323
N24100X0.6940Y5.6604
N24110X0.6990Y5.6880
N24120X0.7053Y5.7152
N24130X0.7129Y5.7419
N24140X0.7218Y5.7680
N24150X0.7319Y5.7936
N24160X0.7432Y5.8185
N24170X0.7557Y5.8427
N24180X0.7693Y5.8663
N24190X0.7839Y5.8891
N24200X0.7996Y5.9111
N24210X0.8163Y5.9324
N24220X0.8340Y5.9528
N24230X0.8527Y5.9723
N24240X0.8722Y5.9910
N24250X0.8926Y6.0087
N24260X0.9139Y6.0254
N24270X0.9359Y6.0411
N24280X0.9587Y6.0557
N24290X0.9823Y6.0693
N24300X1.0065Y6.0818
N24310X1.0314Y6.0931
N24320X1.0570Y6.1032
N24330X1.0831Y6.1121
N24340X1.1098Y6.1197
N24350X1.1370Y6.1260
N24360X1.1646Y6.1310
N24370X1.1927Y6.1346
N24380X1.2212Y6.1368
N24390X1.2492Y6.1375
N24400G00Z0.2362
N24410G00X3.2492
N24420G01Z-0.0750F15.0
N24430G01X3.7508F25.0
N24440X3.7788Y6.1368
N24450X3.8073Y6.1346
N24460X3.8354Y6.1310
N24470X3.8630Y6.1260
N24480X3.8902Y6.1197
N24490X3.9169Y6.1121
N24500X3.9430Y6.1032
N24510X3.9686Y6.0931
N24520X3.9935Y6.0818
N24530X4.0177Y6.0693
N24540X4.0413Y6.0557
N24550X4.0641Y6.0411
N24560X4.0861Y6.0254
N24570X4.1074Y6.0087
N24580X4.1278Y5.9910
N24590X4.1473Y5.9723
N24600X4.1660Y5.9528
N24610X4.1837Y5.9324
N24620X4.2004Y5.9111
N24630X4.2161Y5.8891
N24640X4.2307Y5.8663
N24650X4.2443Y5.8427
N24660X4.2568Y5.8185
N24670X4.2681Y5.7936
N24680X4.2782Y5.7680
N24690X4.2871Y5.7419
N24700X4.2947Y5.7152
N24710X4.3010Y5.6880
N24720X4.3060Y5.6604
N24730X4.3096Y5.6323
N24740X4.3118Y5.6038
N24750X4.3121Y5.5919
N24760X4.3125Y5.5758
N24770Y5.4242
N24780X4.3118Y5.3962
N24790X4.3096Y5.3677
N24800X4.3095Y5.3670
N24810X4.3060Y5.3396
N24820X4.3010Y5.3120
N24830X4.2947Y5.2848
N24840X4.2871Y5.2581
N24850X4.2782Y5.2320
N24860X4.2681Y5.2064
N24870X4.2568Y5.1815
N24880X4.2443Y5.1573
N24890X4.2307Y5.1337
N24900X4.2161Y5.1109
N24910X4.2004Y5.0889
N24920X4.1837Y5.0676
N24930X4.1660Y5.0472
N24940X4.1473Y5.0277
N24950X4.1278Y5.0090
N24960X4.1074Y4.9913
N24970X4.0861Y4.9746
N24980X4.0641Y4.9589
N24990X4.0413Y4.9443
N25000X4.0177Y4.9307
N25010X3.9935Y4.9182
N25020X3.9686Y4.9069
N25030X3.9430Y4.8968
N25040X3.9169Y4.8879
N25050X3.8902Y4.8803
N25060X3.8630Y4.8740
N25070X3.8354Y4.8690
N25080X3.8073Y4.8654
N25090X3.7788Y4.8632
N25100X3.7508Y4.8625
N25110X3.2492
N25120X3.2212Y4.8632
N25130X3.1927Y4.8654
N25140X3.1646Y4.8690
N25150X3.1370Y4.8740
N25160X3.1098Y4.8803
N25170X3.0831Y4.8879
N25180X3.0570Y4.8968
N25190X3.0314Y4.9069
N25200X3.0065Y4.9182
N25210X2.9823Y4.9307
N25220X2.9587Y4.9443
N25230X2.9359Y4.9589
N25240X2.9139Y4.9746
N25250X2.8926Y4.9913
N25260X2.8722Y5.0090
N25270X2.8527Y5.0277
N25280X2.8340Y5.0472
N25290X2.8163Y5.0676
N25300X2.7996Y5.0889
N25310X2.7839Y5.1109
N25320X2.7693Y5.1337
N25330X2.7557Y5.1573
N25340X2.7432Y5.1815
N25350X2.7319Y5.2064
N25360X2.7218Y5.2320
N25370X2.7129Y5.2581
N25380X2.7053Y5.2848
N25390X2.6990Y5.3120
N25400X2.6940Y5.3396
N25410X2.6922Y5.3532
N25420X2.6904Y5.3677
N25430X2.6882Y5.3962
N25440X2.6875Y5.4242
N25450Y5.5758
N25460X2.6876Y5.5780
N25470X2.6882Y5.6038
N25480X2.6904Y5.6323
N25490X2.6940Y5.6604
N25500X2.6990Y5.6880
N25510X2.7053Y5.7152
N25520X2.7129Y5.7419
N25530X2.7218Y5.7680
N25540X2.7319Y5.7936
N25550X2.7432Y5.8185
N25560X2.7557Y5.8427
N25570X2.7693Y5.8663
N25580X2.7839Y5.8891
N25590X2.7996Y5.9111
N25600X2.8163Y5.9324
N25610X2.8340Y5.9528
N25620X2.8527Y5.9723
N25630X2.8722Y5.9910
N25640X2.8926Y6.0087
N25650X2.9139Y6.0254
N25660X2.9359Y6.0411
N25670X2.9587Y6.0557
N25680X2.9823Y6.0693
N25690X3.0065Y6.0818
N25700X3.0314Y6.0931
N25710X3.0570Y6.1032
N25720X3.0831Y6.1121
N25730X3.1098Y6.1197
N25740X3.1370Y6.1260
N25750X3.1646Y6.1310
N25760X3.1927Y6.1346
N25770X3.2212Y6.1368
N25780X3.2492Y6.1375
N25790G01Z-0.1500F15.0
N25800G01X3.7508F25.0
N25810X3.7788Y6.1368
N25820X3.8073Y6.1346
N25830X3.8354Y6.1310
N25840X3.8630Y6.1260
N25850X3.8902Y6.1197
N25860X3.9169Y6.1121
N25870X3.9430Y6.1032
N25880X3.9686Y6.0931
N25890X3.9935Y6.0818
N25900X4.0177Y6.0693
N25910X4.0413Y6.0557
N25920X4.0641Y6.0411
N25930X4.0861Y6.0254
N25940X4.1074Y6.0087
N25950X4.1278Y5.9910
N25960X4.1473Y5.9723
N25970X4.1660Y5.9528
N25980X4.1837Y5.9324
N25990X4.2004Y5.9111
N26000X4.2161Y5.8891
N26010X4.2307Y5.8663
N26020X4.2443Y5.8427
N26030X4.2568Y5.8185
N26040X4.2681Y5.7936
N26050X4.2782Y5.7680
N26060X4.2871Y5.7419
N26070X4.2947Y5.7152
N26080X4.3010Y5.6880
N26090X4.3060Y5.6604
N26100X4.3096Y5.6323
N26110X4.3118Y5.6038
N26120X4.3121Y5.5919
N26130Z-0.0750
N26140X4.3125Y5.5758
N26150Y5.4242
N26160X4.3118Y5.3962
N26170X4.3096Y5.3677
N26180X4.3095Y5.3670
N26190G01Z-0.1500F15.0
N26200G01X4.3060Y5.3396F25.0
N26210X4.3010Y5.3120
N26220X4.2947Y5.2848
N26230X4.2871Y5.2581
N26240X4.2782Y5.2320
N26250X4.2681Y5.2064
N26260X4.2568Y5.1815
N26270X4.2443Y5.1573
N26280X4.2307Y5.1337
N26290X4.2161Y5.1109
N26300X4.2004Y5.0889
N26310X4.1837Y5.0676
N26320X4.1660Y5.0472
N26330X4.1473Y5.0277
N26340X4.1278Y5.0090
N26350X4.1074Y4.9913
N26360X4.0861Y4.9746
N26370X4.0641Y4.9589
N26380X4.0413Y4.9443
N26390X4.0177Y4.9307
N26400X3.9935Y4.9182
N26410X3.9686Y4.9069
N26420X3.9430Y4.8968
N26430X3.9169Y4.8879
N26440X3.8902Y4.8803
N26450X3.8630Y4.8740
N26460X3.8354Y4.8690
N26470X3.8073Y4.8654
N26480X3.7788Y4.8632
N26490X3.7508Y4.8625
N26500X3.2492
N26510X3.2212Y4.8632
N26520X3.1927Y4.8654
N26530X3.1646Y4.8690
N26540X3.1370Y4.8740
N26550X3.1098Y4.8803
N26560X3.0831Y4.8879
N26570X3.0570Y4.8968
N26580X3.0314Y4.9069
N26590X3.0065Y4.9182
N26600X2.9823Y4.9307
N26610X2.9587Y4.9443
N26620X2.9359Y4.9589
N26630X2.9139Y4.9746
N26640X2.8926Y4.9913
N26650X2.8722Y5.0090
N26660X2.8527Y5.0277
N26670X2.8340Y5.0472
N26680X2.8163Y5.0676
N26690X2.7996Y5.0889
N26700X2.7839Y5.1109
N26710X2.7693Y5.1337
N26720X2.7557Y5.1573
N26730X2.7432Y5.1815
N26740X2.7319Y5.2064
N26750X2.7218Y5.2320
N26760X2.7129Y5.2581
N26770X2.7053Y5.2848
N26780X2.6990Y5.3120
N26790X2.6940Y5.3396
N26800X2.6922Y5.3532
N26810Z-0.0750
N26820X2.6904Y5.3677
N26830X2.6882Y5.3962
N26840X2.6875Y5.4242
N26850Y5.5758
N26860X2.6876Y5.5780
N26870G01Z-0.1500F15.0
N26880G01X2.6882Y5.6038F25.0
N26890X2.6904Y5.6323
N26900X2.6940Y5.6604
N26910X2.6990Y5.6880
N26920X2.7053Y5.7152
N26930X2.7129Y5.7419
N26940X2.7218Y5.7680
N26950X2.7319Y5.7936
N26960X2.7432Y5.8185
N26970X2.7557Y5.8427
N26980X2.7693Y5.8663
N26990X2.7839Y5.8891
N27000X2.7996Y5.9111
N27010X2.8163Y5.9324
N27020X2.8340Y5.9528
N27030X2.8527Y5.9723
N27040X2.8722Y5.9910
N27050X2.8926Y6.0087
N27060X2.9139Y6.0254
N27070X2.9359Y6.0411
N27080X2.9587Y6.0557
N27090X2.9823Y6.0693
N27100X3.0065Y6.0818
N27110X3.0314Y6.0931
N27120X3.0570Y6.1032
N27130X3.0831Y6.1121
N27140X3.1098Y6.1197
N27150X3.1370Y6.1260
N27160X3.1646Y6.1310
N27170X3.1927Y6.1346
N27180X3.2212Y6.1368
N27190X3.2492Y6.1375
N27200G00Z0.2362
N27210G00X5.2492
N27220G01Z-0.0750F15.0
N27230G01X5.7508F25.0
N27240X5.7788Y6.1368
N27250X5.8073Y6.1346
N27260X5.8354Y6.1310
N27270X5.8630Y6.1260
N27280X5.8902Y6.1197
N27290X5.9169Y6.1121
N27300X5.9430Y6.1032
N27310X5.9686Y6.0931
N27320X5.9935Y6.0818
N27330X6.0177Y6.0693
N27340X6.0413Y6.0557
N27350X6.0641Y6.0411
N27360X6.0861Y6.0254
N27370X6.1074Y6.0087
N27380X6.1278Y5.9910
N27390X6.1473Y5.9723
N27400X6.1660Y5.9528
N27410X6.1837Y5.9324
N27420X6.2004Y5.9111
N27430X6.2161Y5.8891
N27440X6.2307Y5.8663
N27450X6.2443Y5.8427
N27460X6.2568Y5.8185
N27470X6.2681Y5.7936
N27480X6.2782Y5.7680
N27490X6.2871Y5.7419
N27500X6.2947Y5.7152
N27510X6.3010Y5.6880
N27520X6.3060Y5.6604
N27530X6.3086Y5.6402
N27540X6.3096Y5.6323
N27550X6.3118Y5.6038
N27560X6.3125Y5.5758
N27570Y5.4242
N27580X6.3123Y5.4153
N27590X6.3118Y5.3962
N27600X6.3096Y5.3677
N27610X6.3060Y5.3396
N27620X6.3010Y5.3120
N27630X6.2947Y5.2848
N27640X6.2871Y5.2581
N27650X6.2782Y5.2320
N27660X6.2681Y5.2064
N27670X6.2568Y5.1815
N27680X6.2443Y5.1573
N27690X6.2307Y5.1337
N27700X6.2161Y5.1109
N27710X6.2004Y5.0889
N27720X6.1837Y5.0676
N27730X6.1660Y5.0472
N27740X6.1473Y5.0277
N27750X6.1278Y5.0090
N27760X6.1074Y4.9913
N27770X6.0861Y4.9746
N27780X6.0641Y4.9589
N27790X6.0413Y4.9443
N27800X6.0177Y4.9307
N27810X5.9935Y4.9182
N27820X5.9686Y4.9069
N27830X5.9430Y4.8968
N27840X5.9169Y4.8879
N27850X5.8902Y4.8803
N27860X5.8630Y4.8740
N27870X5.8354Y4.8690
N27880X5.8073Y4.8654
N27890X5.7788Y4.8632
N27900X5.7508Y4.8625
N27910X5.2492
N27920X5.2212Y4.8632
N27930X5.1927Y4.8654
N27940X5.1646Y4.8690
N27950X5.1370Y4.8740
N27960X5.1098Y4.8803
N27970X5.0831Y4.8879
N27980X5.0570Y4.8968
N27990X5.0314Y4.9069
N28000X5.0065Y4.9182
N28010X4.9823Y4.9307
N28020X4.9587Y4.9443
N28030X4.9359Y4.9589
N28040X4.9139Y4.9746
N28050X4.8926Y4.9913
N28060X4.8722Y5.0090
N28070X4.8527Y5.0277
N28080X4.8340Y5.0472
N28090X4.8163Y5.0676
N28100X4.7996Y5.0889
N28110X4.7839Y5.1109
N28120X4.7693Y5.1337
N28130X4.7557Y5.1573
N28140X4.7432Y5.1815
N28150X4.7319Y5.2064
N28160X4.7218Y5.2320
N28170X4.7129Y5.2581
N28180X4.7053Y5.2848
N28190X4.6990Y5.3120
N28200X4.6940Y5.3396
N28210X4.6905Y5.3670
N28220X4.6904Y5.3677
N28230X4.6882Y5.3962
N28240X4.6875Y5.4242
N28250Y5.5758
N28260X4.6879Y5.5919
N28270X4.6882Y5.6038
N28280X4.6904Y5.6323
N28290X4.6940Y5.6604
N28300X4.6990Y5.6880
N28310X4.7053Y5.7152
N28320X4.7129Y5.7419
N28330X4.7218Y5.7680
N28340X4.7319Y5.7936
N28350X4.7432Y5.8185
N28360X4.7557Y5.8427
N28370X4.7693Y5.8663
N28380X4.7839Y5.8891
N28390X4.7996Y5.9111
N28400X4.8163Y5.9324
N28410X4.8340Y5.9528
N28420X4.8527Y5.9723
N28430X4.8722Y5.9910
N28440X4.8926Y6.0087
N28450X4.9139Y6.0254
N28460X4.9359Y6.0411
N28470X4.9587Y6.0557
N28480X4.9823Y6.0693
N28490X5.0065Y6.0818
N28500X5.0314Y6.0931
N28510X5.0570Y6.1032
N28520X5.0831Y6.1121
N28530X5.1098Y6.1197
N28540X5.1370Y6.1260
N28550X5.1646Y6.1310
N28560X5.1927Y6.1346
N28570X5.2212Y6.1368
N28580X5.2492Y6.1375
N28590G01Z-0.1500F15.0
N28600G01X5.7508F25.0
N28610X5.7788Y6.1368
N28620X5.8073Y6.1346
N28630X5.8354Y6.1310
N28640X5.8630Y6.1260
N28650X5.8902Y6.1197
N28660X5.9169Y6.1121
N28670X5.9430Y6.1032
N28680X5.9686Y6.0931
N28690X5.9935Y6.0818
N28700X6.0177Y6.0693
N28710X6.0413Y6.0557
N28720X6.0641Y6.0411
N28730X6.0861Y6.0254
N28740X6.1074Y6.0087
N28750X6.1278Y5.9910
N28760X6.1473Y5.9723
N28770X6.1660Y5.9528
N28780X6.1837Y5.9324
N28790X6.2004Y5.9111
N28800X6.2161Y5.8891
N28810X6.2307Y5.8663
N28820X6.2443Y5.8427
N28830X6.2568Y5.8185
N28840X6.2681Y5.7936
N28850X6.2782Y5.7680
N28860X6.2871Y5.7419
N28870X6.2947Y5.7152
N28880X6.3010Y5.6880
N28890X6.3060Y5.6604
N28900X6.3086Y5.6402
N28910Z-0.0750
N28920X6.3096Y5.6323
N28930X6.3118Y5.6038
N28940X6.3125Y5.5758
N28950Y5.4242
N28960X6.3123Y5.4153
N28970G01Z-0.1500F15.0
N28980G01X6.3118Y5.3962F25.0
N28990X6.3096Y5.3677
N29000X6.3060Y5.3396
N29010X6.3010Y5.3120
N29020X6.2947Y5.2848
N29030X6.2871Y5.2581
N29040X6.2782Y5.2320
N29050X6.2681Y5.2064
N29060X6.2568Y5.1815
N29070X6.2443Y5.1573
N29080X6.2307Y5.1337
N29090X6.2161Y5.1109
N29100X6.2004Y5.0889
N29110X6.1837Y5.0676
N29120X6.1660Y5.0472
N29130X6.1473Y5.0277
N29140X6.1278Y5.0090
N29150X6.1074Y4.9913
N29160X6.0861Y4.9746
N29170X6.0641Y4.9589
N29180X6.0413Y4.9443
N29190X6.0177Y4.9307
N29200X5.9935Y4.9182
N29210X5.9686Y4.9069
N29220X5.9430Y4.8968
N29230X5.9169Y4.8879
N29240X5.8902Y4.8803
N29250X5.8630Y4.8740
N29260X5.8354Y4.8690
N29270X5.8073Y4.8654
N29280X5.7788Y4.8632
N29290X5.7508Y4.8625
N29300X5.2492
N29310X5.2212Y4.8632
N29320X5.1927Y4.8654
N29330X5.1646Y4.8690
N29340X5.1370Y4.8740
N29350X5.1098Y4.8803
N29360X5.0831Y4.8879
N29370X5.0570Y4.8968
N29380X5.0314Y4.9069
N29390X5.0065Y4.9182
N29400X4.9823Y4.9307
N29410X4.9587Y4.9443
N29420X4.9359Y4.9589
N29430X4.9139Y4.9746
N29440X4.8926Y4.9913
N29450X4.8722Y5.0090
N29460X4.8527Y5.0277
N29470X4.8340Y5.0472
N29480X4.8163Y5.0676
N29490X4.7996Y5.0889
N29500X4.7839Y5.1109
N29510X4.7693Y5.1337
N29520X4.7557Y5.1573
N29530X4.7432Y5.1815
N29540X4.7319Y5.2064
N29550X4.7218Y5.2320
N29560X4.7129Y5.2581
N29570X4.7053Y5.2848
N29580X4.6990Y5.3120
N29590X4.6940Y5.3396
N29600X4.6905Y5.3670
N29610Z-0.0750
N29620X4.6904Y5.3677
N29630X4.6882Y5.3962
N29640X4.6875Y5.4242
N29650Y5.5758
N29660X4.6879Y5.5919
N29670G01Z-0.1500F15.0
N29680G01X4.6882Y5.6038F25.0
N29690X4.6904Y5.6323
N29700X4.6940Y5.6604
N29710X4.6990Y5.6880
N29720X4.7053Y5.7152
N29730X4.7129Y5.7419
N29740X4.7218Y5.7680
N29750X4.7319Y5.7936
N29760X4.7432Y5.8185
N29770X4.7557Y5.8427
N29780X4.7693Y5.8663
N29790X4.7839Y5.8891
N29800X4.7996Y5.9111
N29810X4.8163Y5.9324
N29820X4.8340Y5.9528
N29830X4.8527Y5.9723
N29840X4.8722Y5.9910
N29850X4.8926Y6.0087
N29860X4.9139Y6.0254
N29870X4.9359Y6.0411
N29880X4.9587Y6.0557
N29890X4.9823Y6.0693
N29900X5.0065Y6.0818
N29910X5.0314Y6.0931
N29920X5.0570Y6.1032
N29930X5.0831Y6.1121
N29940X5.1098Y6.1197
N29950X5.1370Y6.1260
N29960X5.1646Y6.1310
N29970X5.1927Y6.1346
N29980X5.2212Y6.1368
N29990X5.2492Y6.1375
N30000G00Z0.2362
N30010G00Y4.1375
N30020G01Z-0.0750F15.0
N30030G01X5.7508F25.0
N30040X5.7788Y4.1368
N30050X5.8073Y4.1346
N30060X5.8354Y4.1310
N30070X5.8630Y4.1260
N30080X5.8902Y4.1197
N30090X5.9169Y4.1121
N30100X5.9430Y4.1032
N30110X5.9686Y4.0931
N30120X5.9935Y4.0818
N30130X6.0177Y4.0693
N30140X6.0413Y4.0557
N30150X6.0641Y4.0411
N30160X6.0861Y4.0254
N30170X6.1074Y4.0087
N30180X6.1278Y3.9910
N30190X6.1473Y3.9723
N30200X6.1660Y3.9528
N30210X6.1837Y3.9324
N30220X6.2004Y3.9111
N30230X6.2161Y3.8891
N30240X6.2307Y3.8663
N30250X6.2443Y3.8427
N30260X6.2568Y3.8185
N30270X6.2681Y3.7936
N30280X6.2782Y3.7680
N30290X6.2871Y3.7419
N30300X6.2947Y3.7152
N30310X6.3010Y3.6880
N30320X6.3060Y3.6604
N30330X6.3096Y3.6323
N30340X6.3117Y3.6056
N30350X6.3118Y3.6038
N30360X6.3125Y3.5758
N30370Y3.4242
N30380X6.3118Y3.3962
N30390X6.3106Y3.3806
N30400X6.3096Y3.3677
N30410X6.3060Y3.3396
N30420X6.3010Y3.3120
N30430X6.2947Y3.2848
N30440X6.2871Y3.2581
N30450X6.2782Y3.2320
N30460X6.2681Y3.2064
N30470X6.2568Y3.1815
N30480X6.2443Y3.1573
N30490X6.2307Y3.1337
N30500X6.2161Y3.1109
N30510X6.2004Y3.0889
N30520X6.1837Y3.0676
N30530X6.1660Y3.0472
N30540X6.1473Y3.0277
N30550X6.1278Y3.0090
N30560X6.1074Y2.9913
N30570X6.0861Y2.9746
N30580X6.0641Y2.9589
N30590X6.0413Y2.9443
N30600X6.0177Y2.9307
N30610X5.9935Y2.9182
N30620X5.9686Y2.9069
N30630X5.9430Y2.8968
N30640X5.9169Y2.8879
N30650X5.8902Y2.8803
N30660X5.8630Y2.8740
N30670X5.8354Y2.8690
N30680X5.8073Y2.8654
N30690X5.7788Y2.8632
N30700X5.7508Y2.8625
N30710X5.2492
N30720X5.2212Y2.8632
N30730X5.1927Y2.8654
N30740X5.1646Y2.8690
N30750X5.1370Y2.8740
N30760X5.1098Y2.8803
N30770X5.0831Y2.8879
N30780X5.0570Y2.8968
N30790X5.0314Y2.9069
N30800X5.0065Y2.9182
N30810X4.9823Y2.9307
N30820X4.9587Y2.9443
N30830X4.9359Y2.9589
N30840X4.9139Y2.9746
N30850X4.8926Y2.9913
N30860X4.8722Y3.0090
N30870X4.8527Y3.0277
N30880X4.8340Y3.0472
N30890X4.8163Y3.0676
N30900X4.7996Y3.0889
N30910X4.7839Y3.1109
N30920X4.7693Y3.1337
N30930X4.7557Y3.1573
N30940X4.7432Y3.1815
N30950X4.7319Y3.2064
N30960X4.7218Y3.2320
N30970X4.7129Y3.2581
N30980X4.7053Y3.2848
N30990X4.6990Y3.3120
N31000X4.6940Y3.3396
N31010X4.6904Y3.3677
N31020X4.6894Y3.3806
N31030X4.6882Y3.3962
N31040X4.6875Y3.4242
N31050Y3.5758
N31060X4.6882Y3.6038
N31070X4.6883Y3.6056
N31080X4.6904Y3.6323
N31090X4.6940Y3.6604
N31100X4.6990Y3.6880
N31110X4.7053Y3.7152
N31120X4.7129Y3.7419
N31130X4.7218Y3.7680
N31140X4.7319Y3.7936
N31150X4.7432Y3.8185
N31160X4.7557Y3.8427
N31170X4.7693Y3.8663
N31180X4.7839Y3.8891
N31190X4.7996Y3.9111
N31200X4.8163Y3.9324
N31210X4.8340Y3.9528
N31220X4.8527Y3.9723
N31230X4.8722Y3.9910
N31240X4.8926Y4.0087
N31250X4.9139Y4.0254
N31260X4.9359Y4.0411
N31270X4.9587Y4.0557
N31280X4.9823Y4.0693
N31290X5.0065Y4.0818
N31300X5.0314Y4.0931
N31310X5.0570Y4.1032
N31320X5.0831Y4.1121
N31330X5.1098Y4.1197
N31340X5.1370Y4.1260
N31350X5.1646Y4.1310
N31360X5.1927Y4.1346
N31370X5.2212Y4.1368
N31380X5.2492Y4.1375
N31390G01Z-0.1500F15.0
N31400G01X5.7508F25.0
N31410X5.7788Y4.1368
N31420X5.8073Y4.1346
N31430X5.8354Y4.1310
N31440X5.8630Y4.1260
N31450X5.8902Y4.1197
N31460X5.9169Y4.1121
N31470X5.9430Y4.1032
N31480X5.9686Y4.0931
N31490X5.9935Y4.0818
N31500X6.0177Y4.0693
N31510X6.0413Y4.0557
N31520X6.0641Y4.0411
N31530X6.0861Y4.0254
N31540X6.1074Y4.0087
N31550X6.1278Y3.9910
N31560X6.1473Y3.9723
N31570X6.1660Y3.9528
N31580X6.1837Y3.9324
N31590X6.2004Y3.9111
N31600X6.2161Y3.8891
N31610X6.2307Y3.8663
N31620X6.2443Y3.8427
N31630X6.2568Y3.8185
N31640X6.2681Y3.7936
N31650X6.2782Y3.7680
N31660X6.2871Y3.7419
N31670X6.2947Y3.7152
N31680X6.3010Y3.6880
N31690X6.3060Y3.6604
N31700X6.3096Y3.6323
N31710X6.3117Y3.6056
N31720Z-0.0750
N31730X6.3118Y3.6038
N31740X6.3125Y3.5758
N31750Y3.4242
N31760X6.3118Y3.3962
N31770X6.3106Y3.3806
N31780G01Z-0.1500F15.0
N31790G01X6.3096Y3.3677F25.0
N31800X6.3060Y3.3396
N31810X6.3010Y3.3120
N31820X6.2947Y3.2848
N31830X6.2871Y3.2581
N31840X6.2782Y3.2320
N31850X6.2681Y3.2064
N31860X6.2568Y3.1815
N31870X6.2443Y3.1573
N31880X6.2307Y3.1337
N31890X6.2161Y3.1109
N31900X6.2004Y3.0889
N31910X6.1837Y3.0676
N31920X6.1660Y3.0472
N31930X6.1473Y3.0277
N31940X6.1278Y3.0090
N31950X6.1074Y2.9913
N31960X6.0861Y2.9746
N31970X6.0641Y2.9589
N31980X6.0413Y2.9443
N31990X6.0177Y2.9307
N32000X5.9935Y2.9182
N32010X5.9686Y2.9069
N32020X5.9430Y2.8968
N32030X5.9169Y2.8879
N32040X5.8902Y2.8803
N32050X5.8630Y2.8740
N32060X5.8354Y2.8690
N32070X5.8073Y2.8654
N32080X5.7788Y2.8632
N32090X5.7508Y2.8625
N32100X5.2492
N32110X5.2212Y2.8632
N32120X5.1927Y2.8654
N32130X5.1646Y2.8690
N32140X5.1370Y2.8740
N32150X5.1098Y2.8803
N32160X5.0831Y2.8879
N32170X5.0570Y2.8968
N32180X5.0314Y2.9069
N32190X5.0065Y2.9182
N32200X4.9823Y2.9307
N32210X4.9587Y2.9443
N32220X4.9359Y2.9589
N32230X4.9139Y2.9746
N32240X4.8926Y2.9913
N32250X4.8722Y3.0090
N32260X4.8527Y3.0277
N32270X4.8340Y3.0472
N32280X4.8163Y3.0676
N32290X4.7996Y3.0889
N32300X4.7839Y3.1109
N32310X4.7693Y3.1337
N32320X4.7557Y3.1573
N32330X4.7432Y3.1815
N32340X4.7319Y3.2064
N32350X4.7218Y3.2320
N32360X4.7129Y3.2581
N32370X4.7053Y3.2848
N32380X4.6990Y3.3120
N32390X4.6940Y3.3396
N32400X4.6904Y3.3677
N32410X4.6894Y3.3806
N32420Z-0.0750
N32430X4.6882Y3.3962
N32440X4.6875Y3.4242
N32450Y3.5758
N32460X4.6882Y3.6038
N32470X4.6883Y3.6056
N32480G01Z-0.1500F15.0
N32490G01X4.6904Y3.6323F25.0
N32500X4.6940Y3.6604
N32510X4.6990Y3.6880
N32520X4.7053Y3.7152
N32530X4.7129Y3.7419
N32540X4.7218Y3.7680
N32550X4.7319Y3.7936
N32560X4.7432Y3.8185
N32570X4.7557Y3.8427
N32580X4.7693Y3.8663
N32590X4.7839Y3.8891
N32600X4.7996Y3.9111
N32610X4.8163Y3.9324
N32620X4.8340Y3.9528
N32630X4.8527Y3.9723
N32640X4.8722Y3.9910
N32650X4.8926Y4.0087
N32660X4.9139Y4.0254
N32670X4.9359Y4.0411
N32680X4.9587Y4.0557
N32690X4.9823Y4.0693
N32700X5.0065Y4.0818
N32710X5.0314Y4.0931
N32720X5.0570Y4.1032
N32730X5.0831Y4.1121
N32740X5.1098Y4.1197
N32750X5.1370Y4.1260
N32760X5.1646Y4.1310
N32770X5.1927Y4.1346
N32780X5.2212Y4.1368
N32790X5.2492Y4.1375
N32800G00Z0.2362
N32810G00Y2.1375
N32820G01Z-0.0750F15.0
N32830G01X5.7508F25.0
N32840X5.7788Y2.1368
N32850X5.8073Y2.1346
N32860X5.8354Y2.1310
N32870X5.8630Y2.1260
N32880X5.8902Y2.1197
N32890X5.9169Y2.1121
N32900X5.9430Y2.1032
N32910X5.9686Y2.0931
N32920X5.9935Y2.0818
N32930X6.0177Y2.0693
N32940X6.0413Y2.0557
N32950X6.0641Y2.0411
N32960X6.0861Y2.0254
N32970X6.1074Y2.0087
N32980X6.1278Y1.9910
N32990X6.1473Y1.9723
N33000X6.1660Y1.9528
N33010X6.1837Y1.9324
N33020X6.2004Y1.9111
N33030X6.2161Y1.8891
N33040X6.2307Y1.8663
N33050X6.2443Y1.8427
N33060X6.2568Y1.8185
N33070X6.2681Y1.7936
N33080X6.2782Y1.7680
N33090X6.2871Y1.7419
N33100X6.2947Y1.7152
N33110X6.3010Y1.6880
N33120X6.3060Y1.6604
N33130X6.3096Y1.6323
N33140X6.3117Y1.6054
N33150X6.3118Y1.6038
N33160X6.3125Y1.5758
N33170Y1.4242
N33180X6.3118Y1.3962
N33190X6.3106Y1.3805
N33200X6.3096Y1.3677
N33210X6.3060Y1.3396
N33220X6.3010Y1.3120
N33230X6.2947Y1.2848
N33240X6.2871Y1.2581
N33250X6.2782Y1.2320
N33260X6.2681Y1.2064
N33270X6.2568Y1.1815
N33280X6.2443Y1.1573
N33290X6.2307Y1.1337
N33300X6.2161Y1.1109
N33310X6.2004Y1.0889
N33320X6.1837Y1.0676
N33330X6.1660Y1.0472
N33340X6.1473Y1.0277
N33350X6.1278Y1.0090
N33360X6.1074Y0.9913
N33370X6.0861Y0.9746
N33380X6.0641Y0.9589
N33390X6.0413Y0.9443
N33400X6.0177Y0.9307
N33410X5.9935Y0.9182
N33420X5.9686Y0.9069
N33430X5.9430Y0.8968
N33440X5.9169Y0.8879
N33450X5.8902Y0.8803
N33460X5.8630Y0.8740
N33470X5.8354Y0.8690
N33480X5.8073Y0.8654
N33490X5.7788Y0.8632
N33500X5.7508Y0.8625
N33510X5.2492
N33520X5.2212Y0.8632
N33530X5.1927Y0.8654
N33540X5.1646Y0.8690
N33550X5.1370Y0.8740
N33560X5.1098Y0.8803
N33570X5.0831Y0.8879
N33580X5.0570Y0.8968
N33590X5.0314Y0.9069
N33600X5.0065Y0.9182
N33610X4.9823Y0.9307
N33620X4.9587Y0.9443
N33630X4.9359Y0.9589
N33640X4.9139Y0.9746
N33650X4.8926Y0.9913
N33660X4.8722Y1.0090
N33670X4.8527Y1.0277
N33680X4.8340Y1.0472
N33690X4.8163Y1.0676
N33700X4.7996Y1.0889
N33710X4.7839Y1.1109
N33720X4.7693Y1.1337
N33730X4.7557Y1.1573
N33740X4.7432Y1.1815
N33750X4.7319Y1.2064
N33760X4.7218Y1.2320
N33770X4.7129Y1.2581
N33780X4.7053Y1.2848
N33790X4.6990Y1.3120
N33800X4.6940Y1.3396
N33810X4.6904Y1.3677
N33820X4.6889Y1.3874
N33830X4.6882Y1.3962
N33840X4.6875Y1.4242
N33850Y1.5758
N33860X4.6882Y1.6038
N33870X4.6889Y1.6123
N33880X4.6904Y1.6323
N33890X4.6940Y1.6604
N33900X4.6990Y1.6880
N33910X4.7053Y1.7152
N33920X4.7129Y1.7419
N33930X4.7218Y1.7680
N33940X4.7319Y1.7936
N33950X4.7432Y1.8185
N33960X4.7557Y1.8427
N33970X4.7693Y1.8663
N33980X4.7839Y1.8891
N33990X4.7996Y1.9111
N34000X4.8163Y1.9324
N34010X4.8340Y1.9528
N34020X4.8527Y1.9723
N34030X4.8722Y1.9910
N34040X4.8926Y2.0087
N34050X4.9139Y2.0254
N34060X4.9359Y2.0411
N34070X4.9587Y2.0557
N34080X4.9823Y2.0693
N34090X5.0065Y2.0818
N34100X5.0314Y2.0931
N34110X5.0570Y2.1032
N34120X5.0831Y2.1121
N34130X5.1098Y2.1197
N34140X5.1370Y2.1260
N34150X5.1646Y2.1310
N34160X5.1927Y2.1346
N34170X5.2212Y2.1368
N34180X5.2492Y2.1375
N34190G01Z-0.1500F15.0
N34200G01X5.7508F25.0
N34210X5.7788Y2.1368
N34220X5.8073Y2.1346
N34230X5.8354Y2.1310
N34240X5.8630Y2.1260
N34250X5.8902Y2.1197
N34260X5.9169Y2.1121
N34270X5.9430Y2.1032
N34280X5.9686Y2.0931
N34290X5.9935Y2.0818
N34300X6.0177Y2.0693
N34310X6.0413Y2.0557
N34320X6.0641Y2.0411
N34330X6.0861Y2.0254
N34340X6.1074Y2.0087
N34350X6.1278Y1.9910
N34360X6.1473Y1.9723
N34370X6.1660Y1.9528
N34380X6.1837Y1.9324
N34390X6.2004Y1.9111
N34400X6.2161Y1.8891
N34410X6.2307Y1.8663
N34420X6.2443Y1.8427
N34430X6.2568Y1.8185
N34440X6.2681Y1.7936
N34450X6.2782Y1.7680
N34460X6.2871Y1.7419
N34470X6.2947Y1.7152
N34480X6.3010Y1.6880
N34490X6.3060Y1.6604
N34500X6.3096Y1.6323
N34510X6.3117Y1.6054
N34520Z-0.0750
N34530X6.3118Y1.6038
N34540X6.3125Y1.5758
N34550Y1.4242
N34560X6.3118Y1.3962
N34570X6.3106Y1.3805
N34580G01Z-0.1500F15.0
N34590G01X6.3096Y1.3677F25.0
N34600X6.3060Y1.3396
N34610X6.3010Y1.3120
N34620X6.2947Y1.2848
N34630X6.2871Y1.2581
N34640X6.2782Y1.2320
N34650X6.2681Y1.2064
N34660X6.2568Y1.1815
N34670X6.2443Y1.1573
N34680X6.2307Y1.1337
N34690X6.2161Y1.1109
N34700X6.2004Y1.0889
N34710X6.1837Y1.0676
N34720X6.1660Y1.0472
N34730X6.1473Y1.0277
N34740X6.1278Y1.0090
N34750X6.1074Y0.9913
N34760X6.0861Y0.9746
N34770X6.0641Y0.9589
N34780X6.0413Y0.9443
N34790X6.0177Y0.9307
N34800X5.9935Y0.9182
N34810X5.9686Y0.9069
N34820X5.9430Y0.8968
N34830X5.9169Y0.8879
N34840X5.8902Y0.8803
N34850X5.8630Y0.8740
N34860X5.8354Y0.8690
N34870X5.8073Y0.8654
N34880X5.7788Y0.8632
N34890X5.7508Y0.8625
N34900X5.2492
N34910X5.2212Y0.8632
N34920X5.1927Y0.8654
N34930X5.1646Y0.8690
N34940X5.1370Y0.8740
N34950X5.1098Y0.8803
N34960X5.0831Y0.8879
N34970X5.0570Y0.8968
N34980X5.0314Y0.9069
N34990X5.0065Y0.9182
N35000X4.9823Y0.9307
N35010X4.9587Y0.9443
N35020X4.9359Y0.9589
N35030X4.9139Y0.9746
N35040X4.8926Y0.9913
N35050X4.8722Y1.0090
N35060X4.8527Y1.0277
N35070X4.8340Y1.0472
N35080X4.8163Y1.0676
N35090X4.7996Y1.0889
N35100X4.7839Y1.1109
N35110X4.7693Y1.1337
N35120X4.7557Y1.1573
N35130X4.7432Y1.1815
N35140X4.7319Y1.2064
N35150X4.7218Y1.2320
N35160X4.7129Y1.2581
N35170X4.7053Y1.2848
N35180X4.6990Y1.3120
N35190X4.6940Y1.3396
N35200X4.6904Y1.3677
N35210X4.6889Y1.3874
N35220Z-0.0750
N35230X4.6882Y1.3962
N35240X4.6875Y1.4242
N35250Y1.5758
N35260X4.6882Y1.6038
N35270X4.6889Y1.6123
N35280G01Z-0.1500F15.0
N35290G01X4.6904Y1.6323F25.0
N35300X4.6940Y1.6604
N35310X4.6990Y1.6880
N35320X4.7053Y1.7152
N35330X4.7129Y1.7419
N35340X4.7218Y1.7680
N35350X4.7319Y1.7936
N35360X4.7432Y1.8185
N35370X4.7557Y1.8427
N35380X4.7693Y1.8663
N35390X4.7839Y1.8891
N35400X4.7996Y1.9111
N35410X4.8163Y1.9324
N35420X4.8340Y1.9528
N35430X4.8527Y1.9723
N35440X4.8722Y1.9910
N35450X4.8926Y2.0087
N35460X4.9139Y2.0254
N35470X4.9359Y2.0411
N35480X4.9587Y2.0557
N35490X4.9823Y2.0693
N35500X5.0065Y2.0818
N35510X5.0314Y2.0931
N35520X5.0570Y2.1032
N35530X5.0831Y2.1121
N35540X5.1098Y2.1197
N35550X5.1370Y2.1260
N35560X5.1646Y2.1310
N35570X5.1927Y2.1346
N35580X5.2212Y2.1368
N35590X5.2492Y2.1375
N35600G00Z0.2362
N35610G00X3.2492
N35620G01Z-0.0750F15.0
N35630G01X3.7508F25.0
N35640X3.7788Y2.1368
N35650X3.8073Y2.1346
N35660X3.8354Y2.1310
N35670X3.8630Y2.1260
N35680X3.8902Y2.1197
N35690X3.9169Y2.1121
N35700X3.9430Y2.1032
N35710X3.9686Y2.0931
N35720X3.9935Y2.0818
N35730X4.0177Y2.0693
N35740X4.0413Y2.0557
N35750X4.0641Y2.0411
N35760X4.0861Y2.0254
N35770X4.1074Y2.0087
N35780X4.1278Y1.9910
N35790X4.1473Y1.9723
N35800X4.1660Y1.9528
N35810X4.1837Y1.9324
N35820X4.2004Y1.9111
N35830X4.2161Y1.8891
N35840X4.2307Y1.8663
N35850X4.2443Y1.8427
N35860X4.2568Y1.8185
N35870X4.2681Y1.7936
N35880X4.2782Y1.7680
N35890X4.2871Y1.7419
N35900X4.2947Y1.7152
N35910X4.3010Y1.6880
N35920X4.3060Y1.6604
N35930X4.3095Y1.6330
N35940X4.3096Y1.6323
N35950X4.3118Y1.6038
N35960X4.3125Y1.5758
N35970Y1.4242
N35980X4.3121Y1.4081
N35990X4.3118Y1.3962
N36000X4.3096Y1.3677
N36010X4.3060Y1.3396
N36020X4.3010Y1.3120
N36030X4.2947Y1.2848
N36040X4.2871Y1.2581
N36050X4.2782Y1.2320
N36060X4.2681Y1.2064
N36070X4.2568Y1.1815
N36080X4.2443Y1.1573
N36090X4.2307Y1.1337
N36100X4.2161Y1.1109
N36110X4.2004Y1.0889
N36120X4.1837Y1.0676
N36130X4.1660Y1.0472
N36140X4.1473Y1.0277
N36150X4.1278Y1.0090
N36160X4.1074Y0.9913
N36170X4.0861Y0.9746
N36180X4.0641Y0.9589
N36190X4.0413Y0.9443
N36200X4.0177Y0.9307
N36210X3.9935Y0.9182
N36220X3.9686Y0.9069
N36230X3.9430Y0.8968
N36240X3.9169Y0.8879
N36250X3.8902Y0.8803
N36260X3.8630Y0.8740
N36270X3.8354Y0.8690
N36280X3.8073Y0.8654
N36290X3.7788Y0.8632
N36300X3.7508Y0.8625
N36310X3.2492
N36320X3.2212Y0.8632
N36330X3.1927Y0.8654
N36340X3.1646Y0.8690
N36350X3.1370Y0.8740
N36360X3.1098Y0.8803
N36370X3.0831Y0.8879
N36380X3.0570Y0.8968
N36390X3.0314Y0.9069
N36400X3.0065Y0.9182
N36410X2.9823Y0.9307
N36420X2.9587Y0.9443
N36430X2.9359Y0.9589
N36440X2.9139Y0.9746
N36450X2.8926Y0.9913
N36460X2.8722Y1.0090
N36470X2.8527Y1.0277
N36480X2.8340Y1.0472
N36490X2.8163Y1.0676
N36500X2.7996Y1.0889
N36510X2.7839Y1.1109
N36520X2.7693Y1.1337
N36530X2.7557Y1.1573
N36540X2.7432Y1.1815
N36550X2.7319Y1.2064
N36560X2.7218Y1.2320
N36570X2.7129Y1.2581
N36580X2.7053Y1.2848
N36590X2.6990Y1.3120
N36600X2.6940Y1.3396
N36610X2.6904Y1.3677
N36620X2.6882Y1.3962
N36630X2.6875Y1.4242
N36640Y1.4289
N36650Y1.5758
N36660X2.6882Y1.6038
N36670X2.6904Y1.6323
N36680X2.6931Y1.6536
N36690X2.6940Y1.6604
N36700X2.6990Y1.6880
N36710X2.7053Y1.7152
N36720X2.7129Y1.7419
N36730X2.7218Y1.7680
N36740X2.7319Y1.7936
N36750X2.7432Y1.8185
N36760X2.7557Y1.8427
N36770X2.7693Y1.8663
N36780X2.7839Y1.8891
N36790X2.7996Y1.9111
N36800X2.8163Y1.9324
N36810X2.8340Y1.9528
N36820X2.8527Y1.9723
N36830X2.8722Y1.9910
N36840X2.8926Y2.0087
N36850X2.9139Y2.0254
N36860X2.9359Y2.0411
N36870X2.9587Y2.0557
N36880X2.9823Y2.0693
N36890X3.0065Y2.0818
N36900X3.0314Y2.0931
N36910X3.0570Y2.1032
N36920X3.0831Y2.1121
N36930X3.1098Y2.1197
N36940X3.1370Y2.1260
N36950X3.1646Y2.1310
N36960X3.1927Y2.1346
N36970X3.2212Y2.1368
N36980X3.2492Y2.1375
N36990G01Z-0.1500F15.0
N37000G01X3.7508F25.0
N37010X3.7788Y2.1368
N37020X3.8073Y2.1346
N37030X3.8354Y2.1310
N37040X3.8630Y2.1260
N37050X3.8902Y2.1197
N37060X3.9169Y2.1121
N37070X3.9430Y2.1032
N37080X3.9686Y2.0931
N37090X3.9935Y2.0818
N37100X4.0177Y2.0693
N37110X4.0413Y2.0557
N37120X4.0641Y2.0411
N37130X4.0861Y2.0254
N37140X4.1074Y2.0087
N37150X4.1278Y1.9910
N37160X4.1473Y1.9723
N37170X4.1660Y1.9528
N37180X4.1837Y1.9324
N37190X4.2004Y1.9111
N37200X4.2161Y1.8891
N37210X4.2307Y1.8663
N37220X4.2443Y1.8427
N37230X4.2568Y1.8185
N37240X4.2681Y1.7936
N37250X4.2782Y1.7680
N37260X4.2871Y1.7419
N37270X4.2947Y1.7152
N37280X4.3010Y1.6880
N37290X4.3060Y1.6604
N37300X4.3095Y1.6330
N37310Z-0.0750
N37320X4.3096Y1.6323
N37330X4.3118Y1.6038
N37340X4.3125Y1.5758
N37350Y1.4242
N37360X4.3121Y1.4081
N37370G01Z-0.1500F15.0
N37380G01X4.3118Y1.3962F25.0
N37390X4.3096Y1.3677
N37400X4.3060Y1.3396
N37410X4.3010Y1.3120
N37420X4.2947Y1.2848
N37430X4.2871Y1.2581
N37440X4.2782Y1.2320
N37450X4.2681Y1.2064
N37460X4.2568Y1.1815
N37470X4.2443Y1.1573
N37480X4.2307Y1.1337
N37490X4.2161Y1.1109
N37500X4.2004Y1.0889
N37510X4.1837Y1.0676
N37520X4.1660Y1.0472
N37530X4.1473Y1.0277
N37540X4.1278Y1.0090
N37550X4.1074Y0.9913
N37560X4.0861Y0.9746
N37570X4.0641Y0.9589
N37580X4.0413Y0.9443
N37590X4.0177Y0.9307
N37600X3.9935Y0.9182
N37610X3.9686Y0.9069
N37620X3.9430Y0.8968
N37630X3.9169Y0.8879
N37640X3.8902Y0.8803
N37650X3.8630Y0.8740
N37660X3.8354Y0.8690
N37670X3.8073Y0.8654
N37680X3.7788Y0.8632
N37690X3.7508Y0.8625
N37700X3.2492
N37710X3.2212Y0.8632
N37720X3.1927Y0.8654
N37730X3.1646Y0.8690
N37740X3.1370Y0.8740
N37750X3.1098Y0.8803
N37760X3.0831Y0.8879
N37770X3.0570Y0.8968
N37780X3.0314Y0.9069
N37790X3.0065Y0.9182
N37800X2.9823Y0.9307
N37810X2.9587Y0.9443
N37820X2.9359Y0.9589
N37830X2.9139Y0.9746
N37840X2.8926Y0.9913
N37850X2.8722Y1.0090
N37860X2.8527Y1.0277
N37870X2.8340Y1.0472
N37880X2.8163Y1.0676
N37890X2.7996Y1.0889
N37900X2.7839Y1.1109
N37910X2.7693Y1.1337
N37920X2.7557Y1.1573
N37930X2.7432Y1.1815
N37940X2.7319Y1.2064
N37950X2.7218Y1.2320
N37960X2.7129Y1.2581
N37970X2.7053Y1.2848
N37980X2.6990Y1.3120
N37990X2.6940Y1.3396
N38000X2.6904Y1.3677
N38010X2.6882Y1.3962
N38020X2.6875Y1.4242
N38030Y1.4289
N38040Z-0.0750
N38050Y1.5758
N38060X2.6882Y1.6038
N38070X2.6904Y1.6323
N38080X2.6931Y1.6536
N38090G01Z-0.1500F15.0
N38100G01X2.6940Y1.6604F25.0
N38110X2.6990Y1.6880
N38120X2.7053Y1.7152
N38130X2.7129Y1.7419
N38140X2.7218Y1.7680
N38150X2.7319Y1.7936
N38160X2.7432Y1.8185
N38170X2.7557Y1.8427
N38180X2.7693Y1.8663
N38190X2.7839Y1.8891
N38200X2.7996Y1.9111
N38210X2.8163Y1.9324
N38220X2.8340Y1.9528
N38230X2.8527Y1.9723
N38240X2.8722Y1.9910
N38250X2.8926Y2.0087
N38260X2.9139Y2.0254
N38270X2.9359Y2.0411
N38280X2.9587Y2.0557
N38290X2.9823Y2.0693
N38300X3.0065Y2.0818
N38310X3.0314Y2.0931
N38320X3.0570Y2.1032
N38330X3.0831Y2.1121
N38340X3.1098Y2.1197
N38350X3.1370Y2.1260
N38360X3.1646Y2.1310
N38370X3.1927Y2.1346
N38380X3.2212Y2.1368
N38390X3.2492Y2.1375
N38400G00Z0.2362
N38410G00X1.2492
N38420G01Z-0.0750F15.0
N38430G01X1.7508F25.0
N38440X1.7788Y2.1368
N38450X1.8073Y2.1346
N38460X1.8354Y2.1310
N38470X1.8630Y2.1260
N38480X1.8902Y2.1197
N38490X1.9169Y2.1121
N38500X1.9430Y2.1032
N38510X1.9686Y2.0931
N38520X1.9935Y2.0818
N38530X2.0177Y2.0693
N38540X2.0413Y2.0557
N38550X2.0641Y2.0411
N38560X2.0861Y2.0254
N38570X2.1074Y2.0087
N38580X2.1278Y1.9910
N38590X2.1473Y1.9723
N38600X2.1660Y1.9528
N38610X2.1837Y1.9324
N38620X2.2004Y1.9111
N38630X2.2161Y1.8891
N38640X2.2307Y1.8663
N38650X2.2443Y1.8427
N38660X2.2568Y1.8185
N38670X2.2681Y1.7936
N38680X2.2782Y1.7680
N38690X2.2871Y1.7419
N38700X2.2947Y1.7152
N38710X2.3010Y1.6880
N38720X2.3060Y1.6604
N38730X2.3096Y1.6323
N38740X2.3118Y1.6038
N38750X2.3121Y1.5916
N38760X2.3125Y1.5758
N38770Y1.4242
N38780X2.3118Y1.3962
N38790X2.3096Y1.3677
N38800X2.3095Y1.3667
N38810X2.3060Y1.3396
N38820X2.3010Y1.3120
N38830X2.2947Y1.2848
N38840X2.2871Y1.2581
N38850X2.2782Y1.2320
N38860X2.2681Y1.2064
N38870X2.2568Y1.1815
N38880X2.2443Y1.1573
N38890X2.2307Y1.1337
N38900X2.2161Y1.1109
N38910X2.2004Y1.0889
N38920X2.1837Y1.0676
N38930X2.1660Y1.0472
N38940X2.1473Y1.0277
N38950X2.1278Y1.0090
N38960X2.1074Y0.9913
N38970X2.0861Y0.9746
N38980X2.0641Y0.9589
N38990X2.0413Y0.9443
N39000X2.0177Y0.9307
N39010X1.9935Y0.9182
N39020X1.9686Y0.9069
N39030X1.9430Y0.8968
N39040X1.9169Y0.8879
N39050X1.8902Y0.8803
N39060X1.8630Y0.8740
N39070X1.8354Y0.8690
N39080X1.8073Y0.8654
N39090X1.7788Y0.8632
N39100X1.7508Y0.8625
N39110X1.2492
N39120X1.2212Y0.8632
N39130X1.1927Y0.8654
N39140X1.1646Y0.8690
N39150X1.1370Y0.8740
N39160X1.1098Y0.8803
N39170X1.0831Y0.8879
N39180X1.0570Y0.8968
N39190X1.0314Y0.9069
N39200X1.0065Y0.9182
N39210X0.9823Y0.9307
N39220X0.9587Y0.9443
N39230X0.9359Y0.9589
N39240X0.9139Y0.9746
N39250X0.8926Y0.9913
N39260X0.8722Y1.0090
N39270X0.8527Y1.0277
N39280X0.8340Y1.0472
N39290X0.8163Y1.0676
N39300X0.7996Y1.0889
N39310X0.7839Y1.1109
N39320X0.7693Y1.1337
N39330X0.7557Y1.1573
N39340X0.7432Y1.1815
N39350X0.7319Y1.2064
N39360X0.7218Y1.2320
N39370X0.7129Y1.2581
N39380X0.7053Y1.2848
N39390X0.6990Y1.3120
N39400X0.6940Y1.3396
N39410X0.6904Y1.3677
N39420X0.6882Y1.3962
N39430X0.6879Y1.4081
N39440X0.6875Y1.4242
N39450Y1.5758
N39460X0.6882Y1.6038
N39470X0.6904Y1.6323
N39480X0.6905Y1.6330
N39490X0.6940Y1.6604
N39500X0.6990Y1.6880
N39510X0.7053Y1.7152
N39520X0.7129Y1.7419
N39530X0.7218Y1.7680
N39540X0.7319Y1.7936
N39550X0.7432Y1.8185
N39560X0.7557Y1.8427
N39570X0.7693Y1.8663
N39580X0.7839Y1.8891
N39590X0.7996Y1.9111
N39600X0.8163Y1.9324
N39610X0.8340Y1.9528
N39620X0.8527Y1.9723
N39630X0.8722Y1.9910
N39640X0.8926Y2.0087
N39650X0.9139Y2.0254
N39660X0.9359Y2.0411
N39670X0.9587Y2.0557
N39680X0.9823Y2.0693
N39690X1.0065Y2.0818
N39700X1.0314Y2.0931
N39710X1.0570Y2.1032
N39720X1.0831Y2.1121
N39730X1.1098Y2.1197
N39740X1.1370Y2.1260
N39750X1.1646Y2.1310
N39760X1.1927Y2.1346
N39770X1.2212Y2.1368
N39780X1.2492Y2.1375
N39790G01Z-0.1500F15.0
N39800G01X1.7508F25.0
N39810X1.7788Y2.1368
N39820X1.8073Y2.1346
N39830X1.8354Y2.1310
N39840X1.8630Y2.1260
N39850X1.8902Y2.1197
N39860X1.9169Y2.1121
N39870X1.9430Y2.1032
N39880X1.9686Y2.0931
N39890X1.9935Y2.0818
N39900X2.0177Y2.0693
N39910X2.0413Y2.0557
N39920X2.0641Y2.0411
N39930X2.0861Y2.0254
N39940X2.1074Y2.0087
N39950X2.1278Y1.9910
N39960X2.1473Y1.9723
N39970X2.1660Y1.9528
N39980X2.1837Y1.9324
N39990X2.2004Y1.9111
N40000X2.2161Y1.8891
N40010X2.2307Y1.8663
N40020X2.2443Y1.8427
N40030X2.2568Y1.8185
N40040X2.2681Y1.7936
N40050X2.2782Y1.7680
N40060X2.2871Y1.7419
N40070X2.2947Y1.7152
N40080X2.3010Y1.6880
N40090X2.3060Y1.6604
N40100X2.3096Y1.6323
N40110X2.3118Y1.6038
N40120X2.3121Y1.5916
N40130Z-0.0750
N40140X2.3125Y1.5758
N40150Y1.4242
N40160X2.3118Y1.3962
N40170X2.3096Y1.3677
N40180X2.3095Y1.3667
N40190G01Z-0.1500F15.0
N40200G01X2.3060Y1.3396F25.0
N40210X2.3010Y1.3120
N40220X2.2947Y1.2848
N40230X2.2871Y1.2581
N40240X2.2782Y1.2320
N40250X2.2681Y1.2064
N40260X2.2568Y1.1815
N40270X2.2443Y1.1573
N40280X2.2307Y1.1337
N40290X2.2161Y1.1109
N40300X2.2004Y1.0889
N40310X2.1837Y1.0676
N40320X2.1660Y1.0472
N40330X2.1473Y1.0277
N40340X2.1278Y1.0090
N40350X2.1074Y0.9913
N40360X2.0861Y0.9746
N40370X2.0641Y0.9589
N40380X2.0413Y0.9443
N40390X2.0177Y0.9307
N40400X1.9935Y0.9182
N40410X1.9686Y0.9069
N40420X1.9430Y0.8968
N40430X1.9169Y0.8879
N40440X1.8902Y0.8803
N40450X1.8630Y0.8740
N40460X1.8354Y0.8690
N40470X1.8073Y0.8654
N40480X1.7788Y0.8632
N40490X1.7508Y0.8625
N40500X1.2492
N40510X1.2212Y0.8632
N40520X1.1927Y0.8654
N40530X1.1646Y0.8690
N40540X1.1370Y0.8740
N40550X1.1098Y0.8803
N40560X1.0831Y0.8879
N40570X1.0570Y0.8968
N40580X1.0314Y0.9069
N40590X1.0065Y0.9182
N40600X0.9823Y0.9307
N40610X0.9587Y0.9443
N40620X0.9359Y0.9589
N40630X0.9139Y0.9746
N40640X0.8926Y0.9913
N40650X0.8722Y1.0090
N40660X0.8527Y1.0277
N40670X0.8340Y1.0472
N40680X0.8163Y1.0676
N40690X0.7996Y1.0889
N40700X0.7839Y1.1109
N40710X0.7693Y1.1337
N40720X0.7557Y1.1573
N40730X0.7432Y1.1815
N40740X0.7319Y1.2064
N40750X0.7218Y1.2320
N40760X0.7129Y1.2581
N40770X0.7053Y1.2848
N40780X0.6990Y1.3120
N40790X0.6940Y1.3396
N40800X0.6904Y1.3677
N40810X0.6882Y1.3962
N40820X0.6879Y1.4081
N40830Z-0.0750
N40840X0.6875Y1.4242
N40850Y1.5758
N40860X0.6882Y1.6038
N40870X0.6904Y1.6323
N40880X0.6905Y1.6330
N40890G01Z-0.1500F15.0
N40900G01X0.6940Y1.6604F25.0
N40910X0.6990Y1.6880
N40920X0.7053Y1.7152
N40930X0.7129Y1.7419
N40940X0.7218Y1.7680
N40950X0.7319Y1.7936
N40960X0.7432Y1.8185
N40970X0.7557Y1.8427
N40980X0.7693Y1.8663
N40990X0.7839Y1.8891
N41000X0.7996Y1.9111
N41010X0.8163Y1.9324
N41020X0.8340Y1.9528
N41030X0.8527Y1.9723
N41040X0.8722Y1.9910
N41050X0.8926Y2.0087
N41060X0.9139Y2.0254
N41070X0.9359Y2.0411
N41080X0.9587Y2.0557
N41090X0.9823Y2.0693
N41100X1.0065Y2.0818
N41110X1.0314Y2.0931
N41120X1.0570Y2.1032
N41130X1.0831Y2.1121
N41140X1.1098Y2.1197
N41150X1.1370Y2.1260
N41160X1.1646Y2.1310
N41170X1.1927Y2.1346
N41180X1.2212Y2.1368
N41190X1.2492Y2.1375
N41200G00Z0.2362
N41210G00Y4.1375
N41220G01Z-0.0750F15.0
N41230G01X1.7508F25.0
N41240X1.7788Y4.1368
N41250X1.8073Y4.1346
N41260X1.8354Y4.1310
N41270X1.8630Y4.1260
N41280X1.8902Y4.1197
N41290X1.9169Y4.1121
N41300X1.9430Y4.1032
N41310X1.9686Y4.0931
N41320X1.9935Y4.0818
N41330X2.0177Y4.0693
N41340X2.0413Y4.0557
N41350X2.0641Y4.0411
N41360X2.0861Y4.0254
N41370X2.1074Y4.0087
N41380X2.1278Y3.9910
N41390X2.1473Y3.9723
N41400X2.1660Y3.9528
N41410X2.1837Y3.9324
N41420X2.2004Y3.9111
N41430X2.2161Y3.8891
N41440X2.2307Y3.8663
N41450X2.2443Y3.8427
N41460X2.2568Y3.8185
N41470X2.2681Y3.7936
N41480X2.2782Y3.7680
N41490X2.2871Y3.7419
N41500X2.2947Y3.7152
N41510X2.3010Y3.6880
N41520X2.3060Y3.6604
N41530X2.3096Y3.6323
N41540X2.3118Y3.6038
N41550X2.3123Y3.5848
N41560X2.3125Y3.5758
N41570Y3.4242
N41580X2.3118Y3.3962
N41590X2.3096Y3.3677
N41600X2.3086Y3.3600
N41610X2.3060Y3.3396
N41620X2.3010Y3.3120
N41630X2.2947Y3.2848
N41640X2.2871Y3.2581
N41650X2.2782Y3.2320
N41660X2.2681Y3.2064
N41670X2.2568Y3.1815
N41680X2.2443Y3.1573
N41690X2.2307Y3.1337
N41700X2.2161Y3.1109
N41710X2.2004Y3.0889
N41720X2.1837Y3.0676
N41730X2.1660Y3.0472
N41740X2.1473Y3.0277
N41750X2.1278Y3.0090
N41760X2.1074Y2.9913
N41770X2.0861Y2.9746
N41780X2.0641Y2.9589
N41790X2.0413Y2.9443
N41800X2.0177Y2.9307
N41810X1.9935Y2.9182
N41820X1.9686Y2.9069
N41830X1.9430Y2.8968
N41840X1.9169Y2.8879
N41850X1.8902Y2.8803
N41860X1.8630Y2.8740
N41870X1.8354Y2.8690
N41880X1.8073Y2.8654
N41890X1.7788Y2.8632
N41900X1.7508Y2.8625
N41910X1.2492
N41920X1.2212Y2.8632
N41930X1.1927Y2.8654
N41940X1.1646Y2.8690
N41950X1.1370Y2.8740
N41960X1.1098Y2.8803
N41970X1.0831Y2.8879
N41980X1.0570Y2.8968
N41990X1.0314Y2.9069
N42000X1.0065Y2.9182
N42010X0.9823Y2.9307
N42020X0.9587Y2.9443
N42030X0.9359Y2.9589
N42040X0.9139Y2.9746
N42050X0.8926Y2.9913
N42060X0.8722Y3.0090
N42070X0.8527Y3.0277
N42080X0.8340Y3.0472
N42090X0.8163Y3.0676
N42100X0.7996Y3.0889
N42110X0.7839Y3.1109
N42120X0.7693Y3.1337
N42130X0.7557Y3.1573
N42140X0.7432Y3.1815
N42150X0.7319Y3.2064
N42160X0.7218Y3.2320
N42170X0.7129Y3.2581
N42180X0.7053Y3.2848
N42190X0.6990Y3.3120
N42200X0.6940Y3.3396
N42210X0.6904Y3.3677
N42220X0.6889Y3.3875
N42230X0.6882Y3.3962
N42240X0.6875Y3.4242
N42250Y3.5758
N42260X0.6882Y3.6038
N42270X0.6889Y3.6125
N42280X0.6904Y3.6323
N42290X0.6940Y3.6604
N42300X0.6990Y3.6880
N42310X0.7053Y3.7152
N42320X0.7129Y3.7419
N42330X0.7218Y3.7680
N42340X0.7319Y3.7936
N42350X0.7432Y3.8185
N42360X0.7557Y3.8427
N42370X0.7693Y3.8663
N42380X0.7839Y3.8891
N42390X0.7996Y3.9111
N42400X0.8163Y3.9324
N42410X0.8340Y3.9528
N42420X0.8527Y3.9723
N42430X0.8722Y3.9910
N42440X0.8926Y4.0087
N42450X0.9139Y4.0254
N42460X0.9359Y4.0411
N42470X0.9587Y4.0557
N42480X0.9823Y4.0693
N42490X1.0065Y4.0818
N42500X1.0314Y4.0931
N42510X1.0570Y4.1032
N42520X1.0831Y4.1121
N42530X1.1098Y4.1197
N42540X1.1370Y4.1260
N42550X1.1646Y4.1310
N42560X1.1927Y4.1346
N42570X1.2212Y4.1368
N42580X1.2492Y4.1375
N42590G01Z-0.1500F15.0
N42600G01X1.7508F25.0
N42610X1.7788Y4.1368
N42620X1.8073Y4.1346
N42630X1.8354Y4.1310
N42640X1.8630Y4.1260
N42650X1.8902Y4.1197
N42660X1.9169Y4.1121
N42670X1.9430Y4.1032
N42680X1.9686Y4.0931
N42690X1.9935Y4.0818
N42700X2.0177Y4.0693
N42710X2.0413Y4.0557
N42720X2.0641Y4.0411
N42730X2.0861Y4.0254
N42740X2.1074Y4.0087
N42750X2.1278Y3.9910
N42760X2.1473Y3.9723
N42770X2.1660Y3.9528
N42780X2.1837Y3.9324
N42790X2.2004Y3.9111
N42800X2.2161Y3.8891
N42810X2.2307Y3.8663
N42820X2.2443Y3.8427
N42830X2.2568Y3.8185
N42840X2.2681Y3.7936
N42850X2.2782Y3.7680
N42860X2.2871Y3.7419
N42870X2.2947Y3.7152
N42880X2.3010Y3.6880
N42890X2.3060Y3.6604
N42900X2.3096Y3.6323
N42910X2.3118Y3.6038
N42920X2.3123Y3.5848
N42930Z-0.0750
N42940X2.3125Y3.5758
N42950Y3.4242
N42960X2.3118Y3.3962
N42970X2.3096Y3.3677
N42980X2.3086Y3.3600
N42990G01Z-0.1500F15.0
N43000G01X2.3060Y3.3396F25.0
N43010X2.3010Y3.3120
N43020X2.2947Y3.2848
N43030X2.2871Y3.2581
N43040X2.2782Y3.2320
N43050X2.2681Y3.2064
N43060X2.2568Y3.1815
N43070X2.2443Y3.1573
N43080X2.2307Y3.1337
N43090X2.2161Y3.1109
N43100X2.2004Y3.0889
N43110X2.1837Y3.0676
N43120X2.1660Y3.0472
N43130X2.1473Y3.0277
N43140X2.1278Y3.0090
N43150X2.1074Y2.9913
N43160X2.0861Y2.9746
N43170X2.0641Y2.9589
N43180X2.0413Y2.9443
N43190X2.0177Y2.9307
N43200X1.9935Y2.9182
N43210X1.9686Y2.9069
N43220X1.9430Y2.8968
N43230X1.9169Y2.8879
N43240X1.8902Y2.8803
N43250X1.8630Y2.8740
N43260X1.8354Y2.8690
N43270X1.8073Y2.8654
N43280X1.7788Y2.8632
N43290X1.7508Y2.8625
N43300X1.2492
N43310X1.2212Y2.8632
N43320X1.1927Y2.8654
N43330X1.1646Y2.8690
N43340X1.1370Y2.8740
N43350X1.1098Y2.8803
N43360X1.0831Y2.8879
N43370X1.0570Y2.8968
N43380X1.0314Y2.9069
N43390X1.0065Y2.9182
N43400X0.9823Y2.9307
N43410X0.9587Y2.9443
N43420X0.9359Y2.9589
N43430X0.9139Y2.9746
N43440X0.8926Y2.9913
N43450X0.8722Y3.0090
N43460X0.8527Y3.0277
N43470X0.8340Y3.0472
N43480X0.8163Y3.0676
N43490X0.7996Y3.0889
N43500X0.7839Y3.1109
N43510X0.7693Y3.1337
N43520X0.7557Y3.1573
N43530X0.7432Y3.1815
N43540X0.7319Y3.2064
N43550X0.7218Y3.2320
N43560X0.7129Y3.2581
N43570X0.7053Y3.2848
N43580X0.6990Y3.3120
N43590X0.6940Y3.3396
N43600X0.6904Y3.3677
N43610X0.6889Y3.3875
N43620Z-0.0750
N43630X0.6882Y3.3962
N43640X0.6875Y3.4242
N43650Y3.5758
N43660X0.6882Y3.6038
N43670X0.6889Y3.6125
N43680G01Z-0.1500F15.0
N43690G01X0.6904Y3.6323F25.0
N43700X0.6940Y3.6604
N43710X0.6990Y3.6880
N43720X0.7053Y3.7152
N43730X0.7129Y3.7419
N43740X0.7218Y3.7680
N43750X0.7319Y3.7936
N43760X0.7432Y3.8185
N43770X0.7557Y3.8427
N43780X0.7693Y3.8663
N43790X0.7839Y3.8891
N43800X0.7996Y3.9111
N43810X0.8163Y3.9324
N43820X0.8340Y3.9528
N43830X0.8527Y3.9723
N43840X0.8722Y3.9910
N43850X0.8926Y4.0087
N43860X0.9139Y4.0254
N43870X0.9359Y4.0411
N43880X0.9587Y4.0557
N43890X0.9823Y4.0693
N43900X1.0065Y4.0818
N43910X1.0314Y4.0931
N43920X1.0570Y4.1032
N43930X1.0831Y4.1121
N43940X1.1098Y4.1197
N43950X1.1370Y4.1260
N43960X1.1646Y4.1310
N43970X1.1927Y4.1346
N43980X1.2212Y4.1368
N43990X1.2492Y4.1375
N44000G00Z0.2362
N44010G00Z3.0000
N44020G00X0.0000Y8.0000
N44030M09
N44040M30
%
