( Square Hole )
( Mach2/3 Postprocessor )
N20G00G20G17G20G90G40G49G80
N30G70
N40T4M06
N50G00G43Z3.0000H4
N60S12000M03
N70G94
N80X0.0000Y8.0000F25.0
N90G00X3.4275Y3.5725Z0.2362
N100G01Z-0.0750F15.0
N110G01Y3.4275F25.0
N120X3.5725
N130Y3.5725
N140X3.4275
N150G01Z-0.1500F15.0
N160G01Y3.4275F25.0
N170X3.5725
N180Y3.5725
N190X3.4275
N200G00Z0.2362
N210G00X3.5017Y3.4983Z0.2362
N220G01Z-0.0625F15.0
N230G01X3.5024Y3.5006F25.0
N240X3.5004Y3.5024
N250X3.4982Y3.5016
N260X3.4978Y3.4990
N270X3.4996Y3.4976
N280X3.5017Y3.4983
N290X3.5371Y3.4629
N300X3.5450Y3.4730
N310X3.5501Y3.4843
N320X3.5521Y3.4943
N330Y3.5057
N340X3.5493Y3.5180
N350X3.5436Y3.5291
N360X3.5352Y3.5389
N370X3.5248Y3.5462
N380X3.5133Y3.5508
N390X3.5029Y3.5523
N400X3.4917Y3.5518
N410X3.4797Y3.5484
N420X3.4688Y3.5421
N430X3.4594Y3.5332
N440X3.4526Y3.5226
N450X3.4487Y3.5109
N460X3.4476Y3.5000
N470X3.4487Y3.4891
N480X3.4526Y3.4774
N490X3.4594Y3.4668
N500X3.4688Y3.4579
N510X3.4797Y3.4516
N520X3.4917Y3.4482
N530X3.5029Y3.4477
N540X3.5133Y3.4492
N550X3.5248Y3.4538
N560X3.5352Y3.4611
N570X3.5371Y3.4629
N580X3.5724Y3.4276
N590X3.5822Y3.4388
N600X3.5902Y3.4513
N610X3.5963Y3.4648
N620X3.6003Y3.4791
N630X3.6023Y3.4945
N640X3.6019Y3.5107
N650X3.5992Y3.5258
N660X3.5945Y3.5398
N670X3.5877Y3.5530
N680X3.5791Y3.5651
N690X3.5688Y3.5759
N700X3.5571Y3.5851
N710X3.5443Y3.5924
N720X3.5306Y3.5979
N730X3.5159Y3.6012
N740X3.5000Y3.6024
N750X3.4841Y3.6012
N760X3.4694Y3.5979
N770X3.4557Y3.5924
N780X3.4429Y3.5851
N790X3.4312Y3.5759
N800X3.4209Y3.5651
N810X3.4123Y3.5530
N820X3.4055Y3.5398
N830X3.4008Y3.5258
N840X3.3981Y3.5107
N850X3.3977Y3.4945
N860X3.3997Y3.4791
N870X3.4037Y3.4648
N880X3.4098Y3.4513
N890X3.4178Y3.4388
N900X3.4276Y3.4276
N910X3.4388Y3.4178
N920X3.4513Y3.4098
N930X3.4648Y3.4037
N940X3.4791Y3.3997
N950X3.4945Y3.3977
N960X3.5107Y3.3981
N970X3.5258Y3.4008
N980X3.5398Y3.4055
N990X3.5530Y3.4123
N1000X3.5651Y3.4209
N1010X3.5724Y3.4276
N1020X3.6078Y3.3922
N1030X3.6222Y3.4089
N1040X3.6341Y3.4274
N1050X3.6432Y3.4476
N1060X3.6493Y3.4691
N1070X3.6522Y3.4920
N1080Y3.5080
N1090X3.6493Y3.5309
N1100X3.6432Y3.5524
N1110X3.6341Y3.5726
N1120X3.6222Y3.5911
N1130X3.6078Y3.6078
N1140X3.5911Y3.6222
N1150X3.5726Y3.6341
N1160X3.5524Y3.6432
N1170X3.5309Y3.6493
N1180X3.5080Y3.6522
N1190X3.4920
N1200X3.4691Y3.6493
N1210X3.4476Y3.6432
N1220X3.4274Y3.6341
N1230X3.4089Y3.6222
N1240X3.3922Y3.6078
N1250X3.3778Y3.5911
N1260X3.3659Y3.5726
N1270X3.3568Y3.5524
N1280X3.3507Y3.5309
N1290X3.3478Y3.5080
N1300Y3.4920
N1310X3.3507Y3.4691
N1320X3.3568Y3.4476
N1330X3.3659Y3.4274
N1340X3.3778Y3.4089
N1350X3.3922Y3.3922
N1360X3.4089Y3.3778
N1370X3.4274Y3.3659
N1380X3.4476Y3.3568
N1390X3.4691Y3.3507
N1400X3.4920Y3.3478
N1410X3.5080
N1420X3.5309Y3.3507
N1430X3.5524Y3.3568
N1440X3.5726Y3.3659
N1450X3.5911Y3.3778
N1460X3.6078Y3.3922
N1470X3.6432Y3.3568
N1480X3.6563Y3.3713
N1490X3.6680Y3.3869
N1500X3.6781Y3.4036
N1510X3.6866Y3.4212
N1520X3.6934Y3.4397
N1530X3.6983Y3.4591
N1540X3.7014Y3.4792
N1550X3.7025Y3.5000
N1560X3.7014Y3.5208
N1570X3.6983Y3.5409
N1580X3.6934Y3.5603
N1590X3.6866Y3.5788
N1600X3.6781Y3.5964
N1610X3.6680Y3.6131
N1620X3.6563Y3.6287
N1630X3.6432Y3.6432
N1640X3.6287Y3.6563
N1650X3.6131Y3.6680
N1660X3.5964Y3.6781
N1670X3.5788Y3.6866
N1680X3.5603Y3.6934
N1690X3.5409Y3.6983
N1700X3.5208Y3.7014
N1710X3.5000Y3.7025
N1720X3.4792Y3.7014
N1730X3.4591Y3.6983
N1740X3.4397Y3.6934
N1750X3.4212Y3.6866
N1760X3.4036Y3.6781
N1770X3.3869Y3.6680
N1780X3.3713Y3.6563
N1790X3.3568Y3.6432
N1800X3.3437Y3.6287
N1810X3.3320Y3.6131
N1820X3.3219Y3.5964
N1830X3.3134Y3.5788
N1840X3.3066Y3.5603
N1850X3.3017Y3.5409
N1860X3.2986Y3.5208
N1870X3.2975Y3.5000
N1880X3.2986Y3.4792
N1890X3.3017Y3.4591
N1900X3.3066Y3.4397
N1910X3.3134Y3.4212
N1920X3.3219Y3.4036
N1930X3.3320Y3.3869
N1940X3.3437Y3.3713
N1950X3.3568Y3.3568
N1960X3.3713Y3.3437
N1970X3.3869Y3.3320
N1980X3.4036Y3.3219
N1990X3.4212Y3.3134
N2000X3.4397Y3.3066
N2010X3.4591Y3.3017
N2020X3.4792Y3.2986
N2030X3.5000Y3.2975
N2040X3.5208Y3.2986
N2050X3.5409Y3.3017
N2060X3.5603Y3.3066
N2070X3.5788Y3.3134
N2080X3.5964Y3.3219
N2090X3.6131Y3.3320
N2100X3.6287Y3.3437
N2110X3.6432Y3.3568
N2120X3.6785Y3.3215
N2130X3.6949Y3.3394
N2140X3.7094Y3.3589
N2150X3.7220Y3.3797
N2160X3.7327Y3.4017
N2170X3.7411Y3.4249
N2180X3.7473Y3.4490
N2190X3.7512Y3.4741
N2200X3.7525Y3.5000
N2210X3.7512Y3.5259
N2220X3.7473Y3.5510
N2230X3.7411Y3.5751
N2240X3.7327Y3.5983
N2250X3.7220Y3.6203
N2260X3.7094Y3.6411
N2270X3.6949Y3.6606
N2280X3.6785Y3.6785
N2290X3.6606Y3.6949
N2300X3.6411Y3.7094
N2310X3.6203Y3.7220
N2320X3.5983Y3.7327
N2330X3.5751Y3.7411
N2340X3.5510Y3.7473
N2350X3.5259Y3.7512
N2360X3.5000Y3.7525
N2370X3.4741Y3.7512
N2380X3.4490Y3.7473
N2390X3.4249Y3.7411
N2400X3.4017Y3.7327
N2410X3.3797Y3.7220
N2420X3.3589Y3.7094
N2430X3.3394Y3.6949
N2440X3.3215Y3.6785
N2450X3.3051Y3.6606
N2460X3.2906Y3.6411
N2470X3.2780Y3.6203
N2480X3.2673Y3.5983
N2490X3.2589Y3.5751
N2500X3.2527Y3.5510
N2510X3.2488Y3.5259
N2520X3.2475Y3.5000
N2530X3.2488Y3.4741
N2540X3.2527Y3.4490
N2550X3.2589Y3.4249
N2560X3.2673Y3.4017
N2570X3.2780Y3.3797
N2580X3.2906Y3.3589
N2590X3.3051Y3.3394
N2600X3.3215Y3.3215
N2610X3.3394Y3.3051
N2620X3.3589Y3.2906
N2630X3.3797Y3.2780
N2640X3.4017Y3.2673
N2650X3.4249Y3.2589
N2660X3.4490Y3.2527
N2670X3.4741Y3.2488
N2680X3.5000Y3.2475
N2690X3.5259Y3.2488
N2700X3.5510Y3.2527
N2710X3.5751Y3.2589
N2720X3.5983Y3.2673
N2730X3.6203Y3.2780
N2740X3.6411Y3.2906
N2750X3.6606Y3.3051
N2760X3.6785Y3.3215
N2770G00Z0.2362
N2780G00X3.2492Y4.1375Z0.2362
N2790G01Z-0.0750F15.0
N2800G01X3.7508F25.0
N2810X3.7788Y4.1368
N2820X3.8073Y4.1346
N2830X3.8354Y4.1310
N2840X3.8630Y4.1260
N2850X3.8902Y4.1197
N2860X3.9169Y4.1121
N2870X3.9430Y4.1032
N2880X3.9686Y4.0931
N2890X3.9935Y4.0818
N2900X4.0177Y4.0693
N2910X4.0413Y4.0557
N2920X4.0641Y4.0411
N2930X4.0861Y4.0254
N2940X4.1074Y4.0087
N2950X4.1278Y3.9910
N2960X4.1473Y3.9723
N2970X4.1660Y3.9528
N2980X4.1837Y3.9324
N2990X4.2004Y3.9111
N3000X4.2161Y3.8891
N3010X4.2307Y3.8663
N3020X4.2443Y3.8427
N3030X4.2568Y3.8185
N3040X4.2681Y3.7936
N3050X4.2782Y3.7680
N3060X4.2871Y3.7419
N3070X4.2947Y3.7152
N3080X4.3010Y3.6880
N3090X4.3060Y3.6604
N3100X4.3086Y3.6400
N3110X4.3096Y3.6323
N3120X4.3118Y3.6038
N3130X4.3125Y3.5758
N3140Y3.4242
N3150X4.3123Y3.4152
N3160X4.3118Y3.3962
N3170X4.3096Y3.3677
N3180X4.3060Y3.3396
N3190X4.3010Y3.3120
N3200X4.2947Y3.2848
N3210X4.2871Y3.2581
N3220X4.2782Y3.2320
N3230X4.2681Y3.2064
N3240X4.2568Y3.1815
N3250X4.2443Y3.1573
N3260X4.2307Y3.1337
N3270X4.2161Y3.1109
N3280X4.2004Y3.0889
N3290X4.1837Y3.0676
N3300X4.1660Y3.0472
N3310X4.1473Y3.0277
N3320X4.1278Y3.0090
N3330X4.1074Y2.9913
N3340X4.0861Y2.9746
N3350X4.0641Y2.9589
N3360X4.0413Y2.9443
N3370X4.0177Y2.9307
N3380X3.9935Y2.9182
N3390X3.9686Y2.9069
N3400X3.9430Y2.8968
N3410X3.9169Y2.8879
N3420X3.8902Y2.8803
N3430X3.8630Y2.8740
N3440X3.8354Y2.8690
N3450X3.8073Y2.8654
N3460X3.7788Y2.8632
N3470X3.7508Y2.8625
N3480X3.2492
N3490X3.2212Y2.8632
N3500X3.1927Y2.8654
N3510X3.1646Y2.8690
N3520X3.1370Y2.8740
N3530X3.1098Y2.8803
N3540X3.0831Y2.8879
N3550X3.0570Y2.8968
N3560X3.0314Y2.9069
N3570X3.0065Y2.9182
N3580X2.9823Y2.9307
N3590X2.9587Y2.9443
N3600X2.9359Y2.9589
N3610X2.9139Y2.9746
N3620X2.8926Y2.9913
N3630X2.8722Y3.0090
N3640X2.8527Y3.0277
N3650X2.8340Y3.0472
N3660X2.8163Y3.0676
N3670X2.7996Y3.0889
N3680X2.7839Y3.1109
N3690X2.7693Y3.1337
N3700X2.7557Y3.1573
N3710X2.7432Y3.1815
N3720X2.7319Y3.2064
N3730X2.7218Y3.2320
N3740X2.7129Y3.2581
N3750X2.7053Y3.2848
N3760X2.6990Y3.3120
N3770X2.6940Y3.3396
N3780X2.6904Y3.3677
N3790X2.6883Y3.3944
N3800X2.6882Y3.3962
N3810X2.6875Y3.4242
N3820Y3.5758
N3830X2.6882Y3.6038
N3840X2.6894Y3.6194
N3850X2.6904Y3.6323
N3860X2.6940Y3.6604
N3870X2.6990Y3.6880
N3880X2.7053Y3.7152
N3890X2.7129Y3.7419
N3900X2.7218Y3.7680
N3910X2.7319Y3.7936
N3920X2.7432Y3.8185
N3930X2.7557Y3.8427
N3940X2.7693Y3.8663
N3950X2.7839Y3.8891
N3960X2.7996Y3.9111
N3970X2.8163Y3.9324
N3980X2.8340Y3.9528
N3990X2.8527Y3.9723
N4000X2.8722Y3.9910
N4010X2.8926Y4.0087
N4020X2.9139Y4.0254
N4030X2.9359Y4.0411
N4040X2.9587Y4.0557
N4050X2.9823Y4.0693
N4060X3.0065Y4.0818
N4070X3.0314Y4.0931
N4080X3.0570Y4.1032
N4090X3.0831Y4.1121
N4100X3.1098Y4.1197
N4110X3.1370Y4.1260
N4120X3.1646Y4.1310
N4130X3.1927Y4.1346
N4140X3.2212Y4.1368
N4150X3.2492Y4.1375
N4160G01Z-0.1500F15.0
N4170G01X3.7508F25.0
N4180X3.7788Y4.1368
N4190X3.8073Y4.1346
N4200X3.8354Y4.1310
N4210X3.8630Y4.1260
N4220X3.8902Y4.1197
N4230X3.9169Y4.1121
N4240X3.9430Y4.1032
N4250X3.9686Y4.0931
N4260X3.9935Y4.0818
N4270X4.0177Y4.0693
N4280X4.0413Y4.0557
N4290X4.0641Y4.0411
N4300X4.0861Y4.0254
N4310X4.1074Y4.0087
N4320X4.1278Y3.9910
N4330X4.1473Y3.9723
N4340X4.1660Y3.9528
N4350X4.1837Y3.9324
N4360X4.2004Y3.9111
N4370X4.2161Y3.8891
N4380X4.2307Y3.8663
N4390X4.2443Y3.8427
N4400X4.2568Y3.8185
N4410X4.2681Y3.7936
N4420X4.2782Y3.7680
N4430X4.2871Y3.7419
N4440X4.2947Y3.7152
N4450X4.3010Y3.6880
N4460X4.3060Y3.6604
N4470X4.3086Y3.6400
N4480Z-0.0750
N4490X4.3096Y3.6323
N4500X4.3118Y3.6038
N4510X4.3125Y3.5758
N4520Y3.4242
N4530X4.3123Y3.4152
N4540G01Z-0.1500F15.0
N4550G01X4.3118Y3.3962F25.0
N4560X4.3096Y3.3677
N4570X4.3060Y3.3396
N4580X4.3010Y3.3120
N4590X4.2947Y3.2848
N4600X4.2871Y3.2581
N4610X4.2782Y3.2320
N4620X4.2681Y3.2064
N4630X4.2568Y3.1815
N4640X4.2443Y3.1573
N4650X4.2307Y3.1337
N4660X4.2161Y3.1109
N4670X4.2004Y3.0889
N4680X4.1837Y3.0676
N4690X4.1660Y3.0472
N4700X4.1473Y3.0277
N4710X4.1278Y3.0090
N4720X4.1074Y2.9913
N4730X4.0861Y2.9746
N4740X4.0641Y2.9589
N4750X4.0413Y2.9443
N4760X4.0177Y2.9307
N4770X3.9935Y2.9182
N4780X3.9686Y2.9069
N4790X3.9430Y2.8968
N4800X3.9169Y2.8879
N4810X3.8902Y2.8803
N4820X3.8630Y2.8740
N4830X3.8354Y2.8690
N4840X3.8073Y2.8654
N4850X3.7788Y2.8632
N4860X3.7508Y2.8625
N4870X3.2492
N4880X3.2212Y2.8632
N4890X3.1927Y2.8654
N4900X3.1646Y2.8690
N4910X3.1370Y2.8740
N4920X3.1098Y2.8803
N4930X3.0831Y2.8879
N4940X3.0570Y2.8968
N4950X3.0314Y2.9069
N4960X3.0065Y2.9182
N4970X2.9823Y2.9307
N4980X2.9587Y2.9443
N4990X2.9359Y2.9589
N5000X2.9139Y2.9746
N5010X2.8926Y2.9913
N5020X2.8722Y3.0090
N5030X2.8527Y3.0277
N5040X2.8340Y3.0472
N5050X2.8163Y3.0676
N5060X2.7996Y3.0889
N5070X2.7839Y3.1109
N5080X2.7693Y3.1337
N5090X2.7557Y3.1573
N5100X2.7432Y3.1815
N5110X2.7319Y3.2064
N5120X2.7218Y3.2320
N5130X2.7129Y3.2581
N5140X2.7053Y3.2848
N5150X2.6990Y3.3120
N5160X2.6940Y3.3396
N5170X2.6904Y3.3677
N5180X2.6883Y3.3944
N5190Z-0.0750
N5200X2.6882Y3.3962
N5210X2.6875Y3.4242
N5220Y3.5758
N5230X2.6882Y3.6038
N5240X2.6894Y3.6194
N5250G01Z-0.1500F15.0
N5260G01X2.6904Y3.6323F25.0
N5270X2.6940Y3.6604
N5280X2.6990Y3.6880
N5290X2.7053Y3.7152
N5300X2.7129Y3.7419
N5310X2.7218Y3.7680
N5320X2.7319Y3.7936
N5330X2.7432Y3.8185
N5340X2.7557Y3.8427
N5350X2.7693Y3.8663
N5360X2.7839Y3.8891
N5370X2.7996Y3.9111
N5380X2.8163Y3.9324
N5390X2.8340Y3.9528
N5400X2.8527Y3.9723
N5410X2.8722Y3.9910
N5420X2.8926Y4.0087
N5430X2.9139Y4.0254
N5440X2.9359Y4.0411
N5450X2.9587Y4.0557
N5460X2.9823Y4.0693
N5470X3.0065Y4.0818
N5480X3.0314Y4.0931
N5490X3.0570Y4.1032
N5500X3.0831Y4.1121
N5510X3.1098Y4.1197
N5520X3.1370Y4.1260
N5530X3.1646Y4.1310
N5540X3.1927Y4.1346
N5550X3.2212Y4.1368
N5560X3.2492Y4.1375
N5570G00Z0.2362
N5580G00Z3.0000
N5590G00X0.0000Y8.0000
N5600M09
N5610M30
%
