( Holes )
( Mach2/3 Postprocessor )
N20G00G20G17G20G90G40G49G80
N30G70
N40T4M06
N50G00G43Z3.0000H4
N60S12000M03
N70G94
N80X0.0000Y8.0000F25.0
N90G00X1.4686Y6.2017Z0.2500
N100G01Z-0.0500F15.0
N110G01X1.4729Y6.2019F25.0
N120X1.4770Y6.2025
N130X1.4809Y6.2035
N140X1.4846Y6.2049
N150X1.4882Y6.2067
N160X1.4916Y6.2087
N170X1.4948Y6.2111
N180X1.4977Y6.2138
N190X1.5004Y6.2167
N200X1.5028Y6.2199
N210X1.5049Y6.2233
N220X1.5066Y6.2269
N230X1.5080Y6.2306
N240X1.5090Y6.2346
N250X1.5096Y6.2387
N260X1.5098Y6.2429
N270X1.5096Y6.2472
N280X1.5090Y6.2513
N290X1.5080Y6.2552
N300X1.5066Y6.2589
N310X1.5049Y6.2625
N320X1.5028Y6.2659
N330X1.5004Y6.2691
N340X1.4977Y6.2721
N350X1.4948Y6.2747
N360X1.4916Y6.2771
N370X1.4882Y6.2792
N380X1.4846Y6.2809
N390X1.4809Y6.2823
N400X1.4770Y6.2833
N410X1.4729Y6.2839
N420X1.4686Y6.2841
N430X1.4643Y6.2839
N440X1.4603Y6.2833
N450X1.4563Y6.2823
N460X1.4526Y6.2809
N470X1.4490Y6.2792
N480X1.4456Y6.2771
N490X1.4424Y6.2747
N500X1.4395Y6.2721
N510X1.4368Y6.2691
N520X1.4344Y6.2659
N530X1.4323Y6.2625
N540X1.4306Y6.2589
N550X1.4292Y6.2552
N560X1.4282Y6.2513
N570X1.4276Y6.2472
N580X1.4274Y6.2429
N590X1.4276Y6.2387
N600X1.4282Y6.2346
N610X1.4292Y6.2306
N620X1.4306Y6.2269
N630X1.4323Y6.2233
N640X1.4344Y6.2199
N650X1.4368Y6.2167
N660X1.4395Y6.2138
N670X1.4424Y6.2111
N680X1.4456Y6.2087
N690X1.4490Y6.2067
N700X1.4526Y6.2049
N710X1.4563Y6.2035
N720X1.4603Y6.2025
N730X1.4643Y6.2019
N740X1.4686Y6.2017
N750G01Z-0.1000F15.0
N760G01X1.4729Y6.2019F25.0
N770X1.4770Y6.2025
N780X1.4809Y6.2035
N790X1.4846Y6.2049
N800X1.4882Y6.2067
N810X1.4916Y6.2087
N820X1.4948Y6.2111
N830X1.4977Y6.2138
N840X1.5004Y6.2167
N850X1.5028Y6.2199
N860X1.5049Y6.2233
N870X1.5066Y6.2269
N880X1.5080Y6.2306
N890X1.5090Y6.2346
N900X1.5096Y6.2387
N910X1.5098Y6.2429
N920X1.5096Y6.2472
N930X1.5090Y6.2513
N940X1.5080Y6.2552
N950X1.5066Y6.2589
N960X1.5049Y6.2625
N970X1.5028Y6.2659
N980X1.5004Y6.2691
N990X1.4977Y6.2721
N1000X1.4948Y6.2747
N1010X1.4916Y6.2771
N1020X1.4882Y6.2792
N1030X1.4846Y6.2809
N1040X1.4809Y6.2823
N1050X1.4770Y6.2833
N1060X1.4729Y6.2839
N1070X1.4686Y6.2841
N1080X1.4643Y6.2839
N1090X1.4603Y6.2833
N1100X1.4563Y6.2823
N1110X1.4526Y6.2809
N1120X1.4490Y6.2792
N1130X1.4456Y6.2771
N1140X1.4424Y6.2747
N1150X1.4395Y6.2721
N1160X1.4368Y6.2691
N1170X1.4344Y6.2659
N1180X1.4323Y6.2625
N1190X1.4306Y6.2589
N1200X1.4292Y6.2552
N1210X1.4282Y6.2513
N1220X1.4276Y6.2472
N1230X1.4274Y6.2429
N1240X1.4276Y6.2387
N1250X1.4282Y6.2346
N1260X1.4292Y6.2306
N1270X1.4306Y6.2269
N1280X1.4323Y6.2233
N1290X1.4344Y6.2199
N1300X1.4368Y6.2167
N1310X1.4395Y6.2138
N1320X1.4424Y6.2111
N1330X1.4456Y6.2087
N1340X1.4490Y6.2067
N1350X1.4526Y6.2049
N1360X1.4563Y6.2035
N1370X1.4603Y6.2025
N1380X1.4643Y6.2019
N1390X1.4686Y6.2017
N1400G01Z-0.1500F15.0
N1410G01X1.4729Y6.2019F25.0
N1420X1.4770Y6.2025
N1430X1.4809Y6.2035
N1440X1.4846Y6.2049
N1450X1.4882Y6.2067
N1460X1.4916Y6.2087
N1470X1.4948Y6.2111
N1480X1.4977Y6.2138
N1490X1.5004Y6.2167
N1500X1.5028Y6.2199
N1510X1.5049Y6.2233
N1520X1.5066Y6.2269
N1530X1.5080Y6.2306
N1540X1.5090Y6.2346
N1550X1.5096Y6.2387
N1560X1.5098Y6.2429
N1570X1.5096Y6.2472
N1580X1.5090Y6.2513
N1590X1.5080Y6.2552
N1600X1.5066Y6.2589
N1610X1.5049Y6.2625
N1620X1.5028Y6.2659
N1630X1.5004Y6.2691
N1640X1.4977Y6.2721
N1650X1.4948Y6.2747
N1660X1.4916Y6.2771
N1670X1.4882Y6.2792
N1680X1.4846Y6.2809
N1690X1.4809Y6.2823
N1700X1.4770Y6.2833
N1710X1.4729Y6.2839
N1720X1.4686Y6.2841
N1730X1.4643Y6.2839
N1740X1.4603Y6.2833
N1750X1.4563Y6.2823
N1760X1.4526Y6.2809
N1770X1.4490Y6.2792
N1780X1.4456Y6.2771
N1790X1.4424Y6.2747
N1800X1.4395Y6.2721
N1810X1.4368Y6.2691
N1820X1.4344Y6.2659
N1830X1.4323Y6.2625
N1840X1.4306Y6.2589
N1850X1.4292Y6.2552
N1860X1.4282Y6.2513
N1870X1.4276Y6.2472
N1880X1.4274Y6.2429
N1890X1.4276Y6.2387
N1900X1.4282Y6.2346
N1910X1.4292Y6.2306
N1920X1.4306Y6.2269
N1930X1.4323Y6.2233
N1940X1.4344Y6.2199
N1950X1.4368Y6.2167
N1960X1.4395Y6.2138
N1970X1.4424Y6.2111
N1980X1.4456Y6.2087
N1990X1.4490Y6.2067
N2000X1.4526Y6.2049
N2010X1.4563Y6.2035
N2020X1.4603Y6.2025
N2030X1.4643Y6.2019
N2040X1.4686Y6.2017
N2050G00Z0.2500
N2060G00X2.9765
N2070G01Z-0.0500F15.0
N2080G01X2.9808Y6.2019F25.0
N2090X2.9848Y6.2025
N2100X2.9888Y6.2035
N2110X2.9925Y6.2049
N2120X2.9961Y6.2067
N2130X2.9995Y6.2087
N2140X3.0027Y6.2111
N2150X3.0056Y6.2138
N2160X3.0083Y6.2167
N2170X3.0107Y6.2199
N2180X3.0127Y6.2233
N2190X3.0145Y6.2269
N2200X3.0159Y6.2306
N2210X3.0169Y6.2346
N2220X3.0175Y6.2387
N2230X3.0177Y6.2429
N2240X3.0175Y6.2472
N2250X3.0169Y6.2513
N2260X3.0159Y6.2552
N2270X3.0145Y6.2589
N2280X3.0127Y6.2625
N2290X3.0107Y6.2659
N2300X3.0083Y6.2691
N2310X3.0056Y6.2721
N2320X3.0027Y6.2747
N2330X2.9995Y6.2771
N2340X2.9961Y6.2792
N2350X2.9925Y6.2809
N2360X2.9888Y6.2823
N2370X2.9848Y6.2833
N2380X2.9808Y6.2839
N2390X2.9765Y6.2841
N2400X2.9722Y6.2839
N2410X2.9682Y6.2833
N2420X2.9642Y6.2823
N2430X2.9605Y6.2809
N2440X2.9569Y6.2792
N2450X2.9535Y6.2771
N2460X2.9503Y6.2747
N2470X2.9474Y6.2721
N2480X2.9447Y6.2691
N2490X2.9423Y6.2659
N2500X2.9402Y6.2625
N2510X2.9385Y6.2589
N2520X2.9371Y6.2552
N2530X2.9361Y6.2513
N2540X2.9355Y6.2472
N2550X2.9353Y6.2429
N2560X2.9355Y6.2387
N2570X2.9361Y6.2346
N2580X2.9371Y6.2306
N2590X2.9385Y6.2269
N2600X2.9402Y6.2233
N2610X2.9423Y6.2199
N2620X2.9447Y6.2167
N2630X2.9474Y6.2138
N2640X2.9503Y6.2111
N2650X2.9535Y6.2087
N2660X2.9569Y6.2067
N2670X2.9605Y6.2049
N2680X2.9642Y6.2035
N2690X2.9682Y6.2025
N2700X2.9722Y6.2019
N2710X2.9765Y6.2017
N2720G01Z-0.1000F15.0
N2730G01X2.9808Y6.2019F25.0
N2740X2.9848Y6.2025
N2750X2.9888Y6.2035
N2760X2.9925Y6.2049
N2770X2.9961Y6.2067
N2780X2.9995Y6.2087
N2790X3.0027Y6.2111
N2800X3.0056Y6.2138
N2810X3.0083Y6.2167
N2820X3.0107Y6.2199
N2830X3.0127Y6.2233
N2840X3.0145Y6.2269
N2850X3.0159Y6.2306
N2860X3.0169Y6.2346
N2870X3.0175Y6.2387
N2880X3.0177Y6.2429
N2890X3.0175Y6.2472
N2900X3.0169Y6.2513
N2910X3.0159Y6.2552
N2920X3.0145Y6.2589
N2930X3.0127Y6.2625
N2940X3.0107Y6.2659
N2950X3.0083Y6.2691
N2960X3.0056Y6.2721
N2970X3.0027Y6.2747
N2980X2.9995Y6.2771
N2990X2.9961Y6.2792
N3000X2.9925Y6.2809
N3010X2.9888Y6.2823
N3020X2.9848Y6.2833
N3030X2.9808Y6.2839
N3040X2.9765Y6.2841
N3050X2.9722Y6.2839
N3060X2.9682Y6.2833
N3070X2.9642Y6.2823
N3080X2.9605Y6.2809
N3090X2.9569Y6.2792
N3100X2.9535Y6.2771
N3110X2.9503Y6.2747
N3120X2.9474Y6.2721
N3130X2.9447Y6.2691
N3140X2.9423Y6.2659
N3150X2.9402Y6.2625
N3160X2.9385Y6.2589
N3170X2.9371Y6.2552
N3180X2.9361Y6.2513
N3190X2.9355Y6.2472
N3200X2.9353Y6.2429
N3210X2.9355Y6.2387
N3220X2.9361Y6.2346
N3230X2.9371Y6.2306
N3240X2.9385Y6.2269
N3250X2.9402Y6.2233
N3260X2.9423Y6.2199
N3270X2.9447Y6.2167
N3280X2.9474Y6.2138
N3290X2.9503Y6.2111
N3300X2.9535Y6.2087
N3310X2.9569Y6.2067
N3320X2.9605Y6.2049
N3330X2.9642Y6.2035
N3340X2.9682Y6.2025
N3350X2.9722Y6.2019
N3360X2.9765Y6.2017
N3370G01Z-0.1500F15.0
N3380G01X2.9808Y6.2019F25.0
N3390X2.9848Y6.2025
N3400X2.9888Y6.2035
N3410X2.9925Y6.2049
N3420X2.9961Y6.2067
N3430X2.9995Y6.2087
N3440X3.0027Y6.2111
N3450X3.0056Y6.2138
N3460X3.0083Y6.2167
N3470X3.0107Y6.2199
N3480X3.0127Y6.2233
N3490X3.0145Y6.2269
N3500X3.0159Y6.2306
N3510X3.0169Y6.2346
N3520X3.0175Y6.2387
N3530X3.0177Y6.2429
N3540X3.0175Y6.2472
N3550X3.0169Y6.2513
N3560X3.0159Y6.2552
N3570X3.0145Y6.2589
N3580X3.0127Y6.2625
N3590X3.0107Y6.2659
N3600X3.0083Y6.2691
N3610X3.0056Y6.2721
N3620X3.0027Y6.2747
N3630X2.9995Y6.2771
N3640X2.9961Y6.2792
N3650X2.9925Y6.2809
N3660X2.9888Y6.2823
N3670X2.9848Y6.2833
N3680X2.9808Y6.2839
N3690X2.9765Y6.2841
N3700X2.9722Y6.2839
N3710X2.9682Y6.2833
N3720X2.9642Y6.2823
N3730X2.9605Y6.2809
N3740X2.9569Y6.2792
N3750X2.9535Y6.2771
N3760X2.9503Y6.2747
N3770X2.9474Y6.2721
N3780X2.9447Y6.2691
N3790X2.9423Y6.2659
N3800X2.9402Y6.2625
N3810X2.9385Y6.2589
N3820X2.9371Y6.2552
N3830X2.9361Y6.2513
N3840X2.9355Y6.2472
N3850X2.9353Y6.2429
N3860X2.9355Y6.2387
N3870X2.9361Y6.2346
N3880X2.9371Y6.2306
N3890X2.9385Y6.2269
N3900X2.9402Y6.2233
N3910X2.9423Y6.2199
N3920X2.9447Y6.2167
N3930X2.9474Y6.2138
N3940X2.9503Y6.2111
N3950X2.9535Y6.2087
N3960X2.9569Y6.2067
N3970X2.9605Y6.2049
N3980X2.9642Y6.2035
N3990X2.9682Y6.2025
N4000X2.9722Y6.2019
N4010X2.9765Y6.2017
N4020G00Z0.2500
N4030G00X3.7824Y6.4439
N4040G01Z-0.0500F15.0
N4050G01X3.7829Y6.4391F25.0
N4060X3.7843Y6.4347
N4070X3.7864Y6.4307
N4080X3.7893Y6.4272
N4090X3.7928Y6.4244
N4100X3.7968Y6.4222
N4110X3.8012Y6.4208
N4120X3.8060Y6.4203
N4130X3.8108Y6.4208
N4140X3.8152Y6.4222
N4150X3.8192Y6.4244
N4160X3.8227Y6.4272
N4170X3.8256Y6.4307
N4180X3.8278Y6.4347
N4190X3.8291Y6.4391
N4200X3.8296Y6.4439
N4210X3.8291Y6.4488
N4220X3.8278Y6.4531
N4230X3.8256Y6.4571
N4240X3.8227Y6.4606
N4250X3.8192Y6.4635
N4260X3.8152Y6.4657
N4270X3.8108Y6.4670
N4280X3.8060Y6.4675
N4290X3.8012Y6.4670
N4300X3.7968Y6.4657
N4310X3.7928Y6.4635
N4320X3.7893Y6.4606
N4330X3.7864Y6.4571
N4340X3.7843Y6.4531
N4350X3.7829Y6.4488
N4360X3.7824Y6.4439
N4370G01Z-0.1000F15.0
N4380G01X3.7829Y6.4391F25.0
N4390X3.7843Y6.4347
N4400X3.7864Y6.4307
N4410X3.7893Y6.4272
N4420X3.7928Y6.4244
N4430X3.7968Y6.4222
N4440X3.8012Y6.4208
N4450X3.8060Y6.4203
N4460X3.8108Y6.4208
N4470X3.8152Y6.4222
N4480X3.8192Y6.4244
N4490X3.8227Y6.4272
N4500X3.8256Y6.4307
N4510X3.8278Y6.4347
N4520X3.8291Y6.4391
N4530X3.8296Y6.4439
N4540X3.8291Y6.4488
N4550X3.8278Y6.4531
N4560X3.8256Y6.4571
N4570X3.8227Y6.4606
N4580X3.8192Y6.4635
N4590X3.8152Y6.4657
N4600X3.8108Y6.4670
N4610X3.8060Y6.4675
N4620X3.8012Y6.4670
N4630X3.7968Y6.4657
N4640X3.7928Y6.4635
N4650X3.7893Y6.4606
N4660X3.7864Y6.4571
N4670X3.7843Y6.4531
N4680X3.7829Y6.4488
N4690X3.7824Y6.4439
N4700G01Z-0.1500F15.0
N4710G01X3.7829Y6.4391F25.0
N4720X3.7843Y6.4347
N4730X3.7864Y6.4307
N4740X3.7893Y6.4272
N4750X3.7928Y6.4244
N4760X3.7968Y6.4222
N4770X3.8012Y6.4208
N4780X3.8060Y6.4203
N4790X3.8108Y6.4208
N4800X3.8152Y6.4222
N4810X3.8192Y6.4244
N4820X3.8227Y6.4272
N4830X3.8256Y6.4307
N4840X3.8278Y6.4347
N4850X3.8291Y6.4391
N4860X3.8296Y6.4439
N4870X3.8291Y6.4488
N4880X3.8278Y6.4531
N4890X3.8256Y6.4571
N4900X3.8227Y6.4606
N4910X3.8192Y6.4635
N4920X3.8152Y6.4657
N4930X3.8108Y6.4670
N4940X3.8060Y6.4675
N4950X3.8012Y6.4670
N4960X3.7968Y6.4657
N4970X3.7928Y6.4635
N4980X3.7893Y6.4606
N4990X3.7864Y6.4571
N5000X3.7843Y6.4531
N5010X3.7829Y6.4488
N5020X3.7824Y6.4439
N5030G00Z0.2500
N5040G00X3.8832Y4.2533
N5050G01Z-0.0500F15.0
N5060G01X3.8784Y4.2528F25.0
N5070X3.8740Y4.2515
N5080X3.8700Y4.2493
N5090X3.8665Y4.2464
N5100X3.8636Y4.2429
N5110X3.8615Y4.2389
N5120X3.8601Y4.2346
N5130X3.8596Y4.2297
N5140X3.8601Y4.2249
N5150X3.8615Y4.2205
N5160X3.8636Y4.2166
N5170X3.8665Y4.2131
N5180X3.8700Y4.2102
N5190X3.8740Y4.2080
N5200X3.8784Y4.2066
N5210X3.8832Y4.2062
N5220X3.8881Y4.2066
N5230X3.8924Y4.2080
N5240X3.8964Y4.2102
N5250X3.8999Y4.2131
N5260X3.9028Y4.2166
N5270X3.9050Y4.2205
N5280X3.9063Y4.2249
N5290X3.9068Y4.2297
N5300X3.9063Y4.2346
N5310X3.9050Y4.2389
N5320X3.9028Y4.2429
N5330X3.8999Y4.2464
N5340X3.8964Y4.2493
N5350X3.8924Y4.2515
N5360X3.8881Y4.2528
N5370X3.8832Y4.2533
N5380G01Z-0.1000F15.0
N5390G01X3.8784Y4.2528F25.0
N5400X3.8740Y4.2515
N5410X3.8700Y4.2493
N5420X3.8665Y4.2464
N5430X3.8636Y4.2429
N5440X3.8615Y4.2389
N5450X3.8601Y4.2346
N5460X3.8596Y4.2297
N5470X3.8601Y4.2249
N5480X3.8615Y4.2205
N5490X3.8636Y4.2166
N5500X3.8665Y4.2131
N5510X3.8700Y4.2102
N5520X3.8740Y4.2080
N5530X3.8784Y4.2066
N5540X3.8832Y4.2062
N5550X3.8881Y4.2066
N5560X3.8924Y4.2080
N5570X3.8964Y4.2102
N5580X3.8999Y4.2131
N5590X3.9028Y4.2166
N5600X3.9050Y4.2205
N5610X3.9063Y4.2249
N5620X3.9068Y4.2297
N5630X3.9063Y4.2346
N5640X3.9050Y4.2389
N5650X3.9028Y4.2429
N5660X3.8999Y4.2464
N5670X3.8964Y4.2493
N5680X3.8924Y4.2515
N5690X3.8881Y4.2528
N5700X3.8832Y4.2533
N5710G01Z-0.1500F15.0
N5720G01X3.8784Y4.2528F25.0
N5730X3.8740Y4.2515
N5740X3.8700Y4.2493
N5750X3.8665Y4.2464
N5760X3.8636Y4.2429
N5770X3.8615Y4.2389
N5780X3.8601Y4.2346
N5790X3.8596Y4.2297
N5800X3.8601Y4.2249
N5810X3.8615Y4.2205
N5820X3.8636Y4.2166
N5830X3.8665Y4.2131
N5840X3.8700Y4.2102
N5850X3.8740Y4.2080
N5860X3.8784Y4.2066
N5870X3.8832Y4.2062
N5880X3.8881Y4.2066
N5890X3.8924Y4.2080
N5900X3.8964Y4.2102
N5910X3.8999Y4.2131
N5920X3.9028Y4.2166
N5930X3.9050Y4.2205
N5940X3.9063Y4.2249
N5950X3.9068Y4.2297
N5960X3.9063Y4.2346
N5970X3.9050Y4.2389
N5980X3.9028Y4.2429
N5990X3.8999Y4.2464
N6000X3.8964Y4.2493
N6010X3.8924Y4.2515
N6020X3.8881Y4.2528
N6030X3.8832Y4.2533
N6040G00Z0.2500
N6050G00X3.3989Y3.5959
N6060G01Z-0.0500F15.0
N6070G01X3.4037Y3.5964F25.0
N6080X3.4081Y3.5977
N6090X3.4121Y3.5999
N6100X3.4156Y3.6028
N6110X3.4185Y3.6063
N6120X3.4207Y3.6103
N6130X3.4220Y3.6147
N6140X3.4225Y3.6195
N6150X3.4220Y3.6243
N6160X3.4207Y3.6287
N6170X3.4185Y3.6327
N6180X3.4156Y3.6362
N6190X3.4121Y3.6391
N6200X3.4081Y3.6412
N6210X3.4037Y3.6426
N6220X3.3989Y3.6431
N6230X3.3941Y3.6426
N6240X3.3897Y3.6412
N6250X3.3857Y3.6391
N6260X3.3822Y3.6362
N6270X3.3793Y3.6327
N6280X3.3772Y3.6287
N6290X3.3758Y3.6243
N6300X3.3753Y3.6195
N6310X3.3758Y3.6147
N6320X3.3772Y3.6103
N6330X3.3793Y3.6063
N6340X3.3822Y3.6028
N6350X3.3857Y3.5999
N6360X3.3897Y3.5977
N6370X3.3941Y3.5964
N6380X3.3989Y3.5959
N6390G01Z-0.1000F15.0
N6400G01X3.4037Y3.5964F25.0
N6410X3.4081Y3.5977
N6420X3.4121Y3.5999
N6430X3.4156Y3.6028
N6440X3.4185Y3.6063
N6450X3.4207Y3.6103
N6460X3.4220Y3.6147
N6470X3.4225Y3.6195
N6480X3.4220Y3.6243
N6490X3.4207Y3.6287
N6500X3.4185Y3.6327
N6510X3.4156Y3.6362
N6520X3.4121Y3.6391
N6530X3.4081Y3.6412
N6540X3.4037Y3.6426
N6550X3.3989Y3.6431
N6560X3.3941Y3.6426
N6570X3.3897Y3.6412
N6580X3.3857Y3.6391
N6590X3.3822Y3.6362
N6600X3.3793Y3.6327
N6610X3.3772Y3.6287
N6620X3.3758Y3.6243
N6630X3.3753Y3.6195
N6640X3.3758Y3.6147
N6650X3.3772Y3.6103
N6660X3.3793Y3.6063
N6670X3.3822Y3.6028
N6680X3.3857Y3.5999
N6690X3.3897Y3.5977
N6700X3.3941Y3.5964
N6710X3.3989Y3.5959
N6720G01Z-0.1500F15.0
N6730G01X3.4037Y3.5964F25.0
N6740X3.4081Y3.5977
N6750X3.4121Y3.5999
N6760X3.4156Y3.6028
N6770X3.4185Y3.6063
N6780X3.4207Y3.6103
N6790X3.4220Y3.6147
N6800X3.4225Y3.6195
N6810X3.4220Y3.6243
N6820X3.4207Y3.6287
N6830X3.4185Y3.6327
N6840X3.4156Y3.6362
N6850X3.4121Y3.6391
N6860X3.4081Y3.6412
N6870X3.4037Y3.6426
N6880X3.3989Y3.6431
N6890X3.3941Y3.6426
N6900X3.3897Y3.6412
N6910X3.3857Y3.6391
N6920X3.3822Y3.6362
N6930X3.3793Y3.6327
N6940X3.3772Y3.6287
N6950X3.3758Y3.6243
N6960X3.3753Y3.6195
N6970X3.3758Y3.6147
N6980X3.3772Y3.6103
N6990X3.3793Y3.6063
N7000X3.3822Y3.6028
N7010X3.3857Y3.5999
N7020X3.3897Y3.5977
N7030X3.3941Y3.5964
N7040X3.3989Y3.5959
N7050G00Z0.2500
N7060G00X2.4866Y3.6359
N7070G01Z-0.0500F15.0
N7080G01X2.4909Y3.6361F25.0
N7090X2.4950Y3.6368
N7100X2.4989Y3.6378
N7110X2.5027Y3.6391
N7120X2.5062Y3.6409
N7130X2.5096Y3.6429
N7140X2.5128Y3.6453
N7150X2.5158Y3.6480
N7160X2.5184Y3.6509
N7170X2.5208Y3.6541
N7180X2.5229Y3.6575
N7190X2.5246Y3.6611
N7200X2.5260Y3.6649
N7210X2.5270Y3.6688
N7220X2.5276Y3.6729
N7230X2.5278Y3.6771
N7240X2.5276Y3.6814
N7250X2.5270Y3.6855
N7260X2.5260Y3.6894
N7270X2.5246Y3.6932
N7280X2.5229Y3.6967
N7290X2.5208Y3.7001
N7300X2.5184Y3.7033
N7310X2.5158Y3.7063
N7320X2.5128Y3.7089
N7330X2.5096Y3.7113
N7340X2.5062Y3.7134
N7350X2.5027Y3.7151
N7360X2.4989Y3.7165
N7370X2.4950Y3.7175
N7380X2.4909Y3.7181
N7390X2.4866Y3.7183
N7400X2.4824Y3.7181
N7410X2.4783Y3.7175
N7420X2.4743Y3.7165
N7430X2.4706Y3.7151
N7440X2.4670Y3.7134
N7450X2.4636Y3.7113
N7460X2.4604Y3.7089
N7470X2.4575Y3.7063
N7480X2.4548Y3.7033
N7490X2.4524Y3.7001
N7500X2.4504Y3.6967
N7510X2.4486Y3.6932
N7520X2.4473Y3.6894
N7530X2.4462Y3.6855
N7540X2.4456Y3.6814
N7550X2.4454Y3.6771
N7560X2.4456Y3.6729
N7570X2.4462Y3.6688
N7580X2.4473Y3.6649
N7590X2.4486Y3.6611
N7600X2.4504Y3.6575
N7610X2.4524Y3.6541
N7620X2.4548Y3.6509
N7630X2.4575Y3.6480
N7640X2.4604Y3.6453
N7650X2.4636Y3.6429
N7660X2.4670Y3.6409
N7670X2.4706Y3.6391
N7680X2.4743Y3.6378
N7690X2.4783Y3.6368
N7700X2.4824Y3.6361
N7710X2.4866Y3.6359
N7720G01Z-0.1000F15.0
N7730G01X2.4909Y3.6361F25.0
N7740X2.4950Y3.6368
N7750X2.4989Y3.6378
N7760X2.5027Y3.6391
N7770X2.5062Y3.6409
N7780X2.5096Y3.6429
N7790X2.5128Y3.6453
N7800X2.5158Y3.6480
N7810X2.5184Y3.6509
N7820X2.5208Y3.6541
N7830X2.5229Y3.6575
N7840X2.5246Y3.6611
N7850X2.5260Y3.6649
N7860X2.5270Y3.6688
N7870X2.5276Y3.6729
N7880X2.5278Y3.6771
N7890X2.5276Y3.6814
N7900X2.5270Y3.6855
N7910X2.5260Y3.6894
N7920X2.5246Y3.6932
N7930X2.5229Y3.6967
N7940X2.5208Y3.7001
N7950X2.5184Y3.7033
N7960X2.5158Y3.7063
N7970X2.5128Y3.7089
N7980X2.5096Y3.7113
N7990X2.5062Y3.7134
N8000X2.5027Y3.7151
N8010X2.4989Y3.7165
N8020X2.4950Y3.7175
N8030X2.4909Y3.7181
N8040X2.4866Y3.7183
N8050X2.4824Y3.7181
N8060X2.4783Y3.7175
N8070X2.4743Y3.7165
N8080X2.4706Y3.7151
N8090X2.4670Y3.7134
N8100X2.4636Y3.7113
N8110X2.4604Y3.7089
N8120X2.4575Y3.7063
N8130X2.4548Y3.7033
N8140X2.4524Y3.7001
N8150X2.4504Y3.6967
N8160X2.4486Y3.6932
N8170X2.4473Y3.6894
N8180X2.4462Y3.6855
N8190X2.4456Y3.6814
N8200X2.4454Y3.6771
N8210X2.4456Y3.6729
N8220X2.4462Y3.6688
N8230X2.4473Y3.6649
N8240X2.4486Y3.6611
N8250X2.4504Y3.6575
N8260X2.4524Y3.6541
N8270X2.4548Y3.6509
N8280X2.4575Y3.6480
N8290X2.4604Y3.6453
N8300X2.4636Y3.6429
N8310X2.4670Y3.6409
N8320X2.4706Y3.6391
N8330X2.4743Y3.6378
N8340X2.4783Y3.6368
N8350X2.4824Y3.6361
N8360X2.4866Y3.6359
N8370G01Z-0.1500F15.0
N8380G01X2.4909Y3.6361F25.0
N8390X2.4950Y3.6368
N8400X2.4989Y3.6378
N8410X2.5027Y3.6391
N8420X2.5062Y3.6409
N8430X2.5096Y3.6429
N8440X2.5128Y3.6453
N8450X2.5158Y3.6480
N8460X2.5184Y3.6509
N8470X2.5208Y3.6541
N8480X2.5229Y3.6575
N8490X2.5246Y3.6611
N8500X2.5260Y3.6649
N8510X2.5270Y3.6688
N8520X2.5276Y3.6729
N8530X2.5278Y3.6771
N8540X2.5276Y3.6814
N8550X2.5270Y3.6855
N8560X2.5260Y3.6894
N8570X2.5246Y3.6932
N8580X2.5229Y3.6967
N8590X2.5208Y3.7001
N8600X2.5184Y3.7033
N8610X2.5158Y3.7063
N8620X2.5128Y3.7089
N8630X2.5096Y3.7113
N8640X2.5062Y3.7134
N8650X2.5027Y3.7151
N8660X2.4989Y3.7165
N8670X2.4950Y3.7175
N8680X2.4909Y3.7181
N8690X2.4866Y3.7183
N8700X2.4824Y3.7181
N8710X2.4783Y3.7175
N8720X2.4743Y3.7165
N8730X2.4706Y3.7151
N8740X2.4670Y3.7134
N8750X2.4636Y3.7113
N8760X2.4604Y3.7089
N8770X2.4575Y3.7063
N8780X2.4548Y3.7033
N8790X2.4524Y3.7001
N8800X2.4504Y3.6967
N8810X2.4486Y3.6932
N8820X2.4473Y3.6894
N8830X2.4462Y3.6855
N8840X2.4456Y3.6814
N8850X2.4454Y3.6771
N8860X2.4456Y3.6729
N8870X2.4462Y3.6688
N8880X2.4473Y3.6649
N8890X2.4486Y3.6611
N8900X2.4504Y3.6575
N8910X2.4524Y3.6541
N8920X2.4548Y3.6509
N8930X2.4575Y3.6480
N8940X2.4604Y3.6453
N8950X2.4636Y3.6429
N8960X2.4670Y3.6409
N8970X2.4706Y3.6391
N8980X2.4743Y3.6378
N8990X2.4783Y3.6368
N9000X2.4824Y3.6361
N9010X2.4866Y3.6359
N9020G00Z0.2500
N9030G00X3.3994Y2.6221
N9040G01Z-0.0500F15.0
N9050G01X3.3943Y2.6218F25.0
N9060X3.3895Y2.6211
N9070X3.3849Y2.6199
N9080X3.3804Y2.6183
N9090X3.3762Y2.6162
N9100X3.3721Y2.6138
N9110X3.3684Y2.6110
N9120X3.3649Y2.6078
N9130X3.3618Y2.6043
N9140X3.3589Y2.6006
N9150X3.3565Y2.5966
N9160X3.3545Y2.5923
N9170X3.3528Y2.5879
N9180X3.3516Y2.5832
N9190X3.3509Y2.5784
N9200X3.3506Y2.5734
N9210X3.3509Y2.5683
N9220X3.3516Y2.5635
N9230X3.3528Y2.5589
N9240X3.3545Y2.5544
N9250X3.3565Y2.5502
N9260X3.3589Y2.5461
N9270X3.3618Y2.5424
N9280X3.3649Y2.5389
N9290X3.3684Y2.5358
N9300X3.3721Y2.5329
N9310X3.3762Y2.5305
N9320X3.3804Y2.5285
N9330X3.3849Y2.5268
N9340X3.3895Y2.5256
N9350X3.3943Y2.5249
N9360X3.3994Y2.5246
N9370X3.4044Y2.5249
N9380X3.4092Y2.5256
N9390X3.4139Y2.5268
N9400X3.4183Y2.5285
N9410X3.4226Y2.5305
N9420X3.4266Y2.5329
N9430X3.4303Y2.5358
N9440X3.4338Y2.5389
N9450X3.4370Y2.5424
N9460X3.4398Y2.5461
N9470X3.4422Y2.5502
N9480X3.4442Y2.5544
N9490X3.4459Y2.5589
N9500X3.4471Y2.5635
N9510X3.4478Y2.5683
N9520X3.4481Y2.5734
N9530X3.4478Y2.5784
N9540X3.4471Y2.5832
N9550X3.4459Y2.5879
N9560X3.4442Y2.5923
N9570X3.4422Y2.5966
N9580X3.4398Y2.6006
N9590X3.4370Y2.6043
N9600X3.4338Y2.6078
N9610X3.4303Y2.6110
N9620X3.4266Y2.6138
N9630X3.4226Y2.6162
N9640X3.4183Y2.6183
N9650X3.4139Y2.6199
N9660X3.4092Y2.6211
N9670X3.4044Y2.6218
N9680X3.3994Y2.6221
N9690G01Z-0.1000F15.0
N9700G01X3.3943Y2.6218F25.0
N9710X3.3895Y2.6211
N9720X3.3849Y2.6199
N9730X3.3804Y2.6183
N9740X3.3762Y2.6162
N9750X3.3721Y2.6138
N9760X3.3684Y2.6110
N9770X3.3649Y2.6078
N9780X3.3618Y2.6043
N9790X3.3589Y2.6006
N9800X3.3565Y2.5966
N9810X3.3545Y2.5923
N9820X3.3528Y2.5879
N9830X3.3516Y2.5832
N9840X3.3509Y2.5784
N9850X3.3506Y2.5734
N9860X3.3509Y2.5683
N9870X3.3516Y2.5635
N9880X3.3528Y2.5589
N9890X3.3545Y2.5544
N9900X3.3565Y2.5502
N9910X3.3589Y2.5461
N9920X3.3618Y2.5424
N9930X3.3649Y2.5389
N9940X3.3684Y2.5358
N9950X3.3721Y2.5329
N9960X3.3762Y2.5305
N9970X3.3804Y2.5285
N9980X3.3849Y2.5268
N9990X3.3895Y2.5256
N10000X3.3943Y2.5249
N10010X3.3994Y2.5246
N10020X3.4044Y2.5249
N10030X3.4092Y2.5256
N10040X3.4139Y2.5268
N10050X3.4183Y2.5285
N10060X3.4226Y2.5305
N10070X3.4266Y2.5329
N10080X3.4303Y2.5358
N10090X3.4338Y2.5389
N10100X3.4370Y2.5424
N10110X3.4398Y2.5461
N10120X3.4422Y2.5502
N10130X3.4442Y2.5544
N10140X3.4459Y2.5589
N10150X3.4471Y2.5635
N10160X3.4478Y2.5683
N10170X3.4481Y2.5734
N10180X3.4478Y2.5784
N10190X3.4471Y2.5832
N10200X3.4459Y2.5879
N10210X3.4442Y2.5923
N10220X3.4422Y2.5966
N10230X3.4398Y2.6006
N10240X3.4370Y2.6043
N10250X3.4338Y2.6078
N10260X3.4303Y2.6110
N10270X3.4266Y2.6138
N10280X3.4226Y2.6162
N10290X3.4183Y2.6183
N10300X3.4139Y2.6199
N10310X3.4092Y2.6211
N10320X3.4044Y2.6218
N10330X3.3994Y2.6221
N10340G01Z-0.1500F15.0
N10350G01X3.3943Y2.6218F25.0
N10360X3.3895Y2.6211
N10370X3.3849Y2.6199
N10380X3.3804Y2.6183
N10390X3.3762Y2.6162
N10400X3.3721Y2.6138
N10410X3.3684Y2.6110
N10420X3.3649Y2.6078
N10430X3.3618Y2.6043
N10440X3.3589Y2.6006
N10450X3.3565Y2.5966
N10460X3.3545Y2.5923
N10470X3.3528Y2.5879
N10480X3.3516Y2.5832
N10490X3.3509Y2.5784
N10500X3.3506Y2.5734
N10510X3.3509Y2.5683
N10520X3.3516Y2.5635
N10530X3.3528Y2.5589
N10540X3.3545Y2.5544
N10550X3.3565Y2.5502
N10560X3.3589Y2.5461
N10570X3.3618Y2.5424
N10580X3.3649Y2.5389
N10590X3.3684Y2.5358
N10600X3.3721Y2.5329
N10610X3.3762Y2.5305
N10620X3.3804Y2.5285
N10630X3.3849Y2.5268
N10640X3.3895Y2.5256
N10650X3.3943Y2.5249
N10660X3.3994Y2.5246
N10670X3.4044Y2.5249
N10680X3.4092Y2.5256
N10690X3.4139Y2.5268
N10700X3.4183Y2.5285
N10710X3.4226Y2.5305
N10720X3.4266Y2.5329
N10730X3.4303Y2.5358
N10740X3.4338Y2.5389
N10750X3.4370Y2.5424
N10760X3.4398Y2.5461
N10770X3.4422Y2.5502
N10780X3.4442Y2.5544
N10790X3.4459Y2.5589
N10800X3.4471Y2.5635
N10810X3.4478Y2.5683
N10820X3.4481Y2.5734
N10830X3.4478Y2.5784
N10840X3.4471Y2.5832
N10850X3.4459Y2.5879
N10860X3.4442Y2.5923
N10870X3.4422Y2.5966
N10880X3.4398Y2.6006
N10890X3.4370Y2.6043
N10900X3.4338Y2.6078
N10910X3.4303Y2.6110
N10920X3.4266Y2.6138
N10930X3.4226Y2.6162
N10940X3.4183Y2.6183
N10950X3.4139Y2.6199
N10960X3.4092Y2.6211
N10970X3.4044Y2.6218
N10980X3.3994Y2.6221
N10990G00Z0.2500
N11000G00X4.1693Y1.7006
N11010G01Z-0.0500F15.0
N11020G01X4.1741Y1.7010F25.0
N11030X4.1785Y1.7024
N11040X4.1825Y1.7046
N11050X4.1860Y1.7075
N11060X4.1889Y1.7110
N11070X4.1910Y1.7149
N11080X4.1924Y1.7193
N11090X4.1929Y1.7241
N11100X4.1924Y1.7290
N11110X4.1910Y1.7334
N11120X4.1889Y1.7373
N11130X4.1860Y1.7408
N11140X4.1825Y1.7437
N11150X4.1785Y1.7459
N11160X4.1741Y1.7473
N11170X4.1693Y1.7477
N11180X4.1645Y1.7473
N11190X4.1601Y1.7459
N11200X4.1561Y1.7437
N11210X4.1526Y1.7408
N11220X4.1497Y1.7373
N11230X4.1476Y1.7334
N11240X4.1462Y1.7290
N11250X4.1457Y1.7241
N11260X4.1462Y1.7193
N11270X4.1476Y1.7149
N11280X4.1497Y1.7110
N11290X4.1526Y1.7075
N11300X4.1561Y1.7046
N11310X4.1601Y1.7024
N11320X4.1645Y1.7010
N11330X4.1693Y1.7006
N11340G01Z-0.1000F15.0
N11350G01X4.1741Y1.7010F25.0
N11360X4.1785Y1.7024
N11370X4.1825Y1.7046
N11380X4.1860Y1.7075
N11390X4.1889Y1.7110
N11400X4.1910Y1.7149
N11410X4.1924Y1.7193
N11420X4.1929Y1.7241
N11430X4.1924Y1.7290
N11440X4.1910Y1.7334
N11450X4.1889Y1.7373
N11460X4.1860Y1.7408
N11470X4.1825Y1.7437
N11480X4.1785Y1.7459
N11490X4.1741Y1.7473
N11500X4.1693Y1.7477
N11510X4.1645Y1.7473
N11520X4.1601Y1.7459
N11530X4.1561Y1.7437
N11540X4.1526Y1.7408
N11550X4.1497Y1.7373
N11560X4.1476Y1.7334
N11570X4.1462Y1.7290
N11580X4.1457Y1.7241
N11590X4.1462Y1.7193
N11600X4.1476Y1.7149
N11610X4.1497Y1.7110
N11620X4.1526Y1.7075
N11630X4.1561Y1.7046
N11640X4.1601Y1.7024
N11650X4.1645Y1.7010
N11660X4.1693Y1.7006
N11670G01Z-0.1500F15.0
N11680G01X4.1741Y1.7010F25.0
N11690X4.1785Y1.7024
N11700X4.1825Y1.7046
N11710X4.1860Y1.7075
N11720X4.1889Y1.7110
N11730X4.1910Y1.7149
N11740X4.1924Y1.7193
N11750X4.1929Y1.7241
N11760X4.1924Y1.7290
N11770X4.1910Y1.7334
N11780X4.1889Y1.7373
N11790X4.1860Y1.7408
N11800X4.1825Y1.7437
N11810X4.1785Y1.7459
N11820X4.1741Y1.7473
N11830X4.1693Y1.7477
N11840X4.1645Y1.7473
N11850X4.1601Y1.7459
N11860X4.1561Y1.7437
N11870X4.1526Y1.7408
N11880X4.1497Y1.7373
N11890X4.1476Y1.7334
N11900X4.1462Y1.7290
N11910X4.1457Y1.7241
N11920X4.1462Y1.7193
N11930X4.1476Y1.7149
N11940X4.1497Y1.7110
N11950X4.1526Y1.7075
N11960X4.1561Y1.7046
N11970X4.1601Y1.7024
N11980X4.1645Y1.7010
N11990X4.1693Y1.7006
N12000G00Z0.2500
N12010G00X3.3831Y1.4135
N12020G01Z-0.0500F15.0
N12030G01X3.3836Y1.4087F25.0
N12040X3.3849Y1.4043
N12050X3.3871Y1.4003
N12060X3.3900Y1.3968
N12070X3.3935Y1.3939
N12080X3.3975Y1.3917
N12090X3.4018Y1.3904
N12100X3.4067Y1.3899
N12110X3.4115Y1.3904
N12120X3.4159Y1.3917
N12130X3.4199Y1.3939
N12140X3.4234Y1.3968
N12150X3.4262Y1.4003
N12160X3.4284Y1.4043
N12170X3.4298Y1.4087
N12180X3.4303Y1.4135
N12190X3.4298Y1.4183
N12200X3.4284Y1.4227
N12210X3.4262Y1.4267
N12220X3.4234Y1.4302
N12230X3.4199Y1.4331
N12240X3.4159Y1.4352
N12250X3.4115Y1.4366
N12260X3.4067Y1.4371
N12270X3.4018Y1.4366
N12280X3.3975Y1.4352
N12290X3.3935Y1.4331
N12300X3.3900Y1.4302
N12310X3.3871Y1.4267
N12320X3.3849Y1.4227
N12330X3.3836Y1.4183
N12340X3.3831Y1.4135
N12350G01Z-0.1000F15.0
N12360G01X3.3836Y1.4087F25.0
N12370X3.3849Y1.4043
N12380X3.3871Y1.4003
N12390X3.3900Y1.3968
N12400X3.3935Y1.3939
N12410X3.3975Y1.3917
N12420X3.4018Y1.3904
N12430X3.4067Y1.3899
N12440X3.4115Y1.3904
N12450X3.4159Y1.3917
N12460X3.4199Y1.3939
N12470X3.4234Y1.3968
N12480X3.4262Y1.4003
N12490X3.4284Y1.4043
N12500X3.4298Y1.4087
N12510X3.4303Y1.4135
N12520X3.4298Y1.4183
N12530X3.4284Y1.4227
N12540X3.4262Y1.4267
N12550X3.4234Y1.4302
N12560X3.4199Y1.4331
N12570X3.4159Y1.4352
N12580X3.4115Y1.4366
N12590X3.4067Y1.4371
N12600X3.4018Y1.4366
N12610X3.3975Y1.4352
N12620X3.3935Y1.4331
N12630X3.3900Y1.4302
N12640X3.3871Y1.4267
N12650X3.3849Y1.4227
N12660X3.3836Y1.4183
N12670X3.3831Y1.4135
N12680G01Z-0.1500F15.0
N12690G01X3.3836Y1.4087F25.0
N12700X3.3849Y1.4043
N12710X3.3871Y1.4003
N12720X3.3900Y1.3968
N12730X3.3935Y1.3939
N12740X3.3975Y1.3917
N12750X3.4018Y1.3904
N12760X3.4067Y1.3899
N12770X3.4115Y1.3904
N12780X3.4159Y1.3917
N12790X3.4199Y1.3939
N12800X3.4234Y1.3968
N12810X3.4262Y1.4003
N12820X3.4284Y1.4043
N12830X3.4298Y1.4087
N12840X3.4303Y1.4135
N12850X3.4298Y1.4183
N12860X3.4284Y1.4227
N12870X3.4262Y1.4267
N12880X3.4234Y1.4302
N12890X3.4199Y1.4331
N12900X3.4159Y1.4352
N12910X3.4115Y1.4366
N12920X3.4067Y1.4371
N12930X3.4018Y1.4366
N12940X3.3975Y1.4352
N12950X3.3935Y1.4331
N12960X3.3900Y1.4302
N12970X3.3871Y1.4267
N12980X3.3849Y1.4227
N12990X3.3836Y1.4183
N13000X3.3831Y1.4135
N13010G00Z0.2500
N13020G00X5.6772Y1.7006
N13030G01Z-0.0500F15.0
N13040G01X5.6820Y1.7010F25.0
N13050X5.6864Y1.7024
N13060X5.6904Y1.7046
N13070X5.6939Y1.7075
N13080X5.6968Y1.7110
N13090X5.6989Y1.7149
N13100X5.7003Y1.7193
N13110X5.7008Y1.7241
N13120X5.7003Y1.7290
N13130X5.6989Y1.7334
N13140X5.6968Y1.7373
N13150X5.6939Y1.7408
N13160X5.6904Y1.7437
N13170X5.6864Y1.7459
N13180X5.6820Y1.7473
N13190X5.6772Y1.7477
N13200X5.6724Y1.7473
N13210X5.6680Y1.7459
N13220X5.6640Y1.7437
N13230X5.6605Y1.7408
N13240X5.6576Y1.7373
N13250X5.6554Y1.7334
N13260X5.6541Y1.7290
N13270X5.6536Y1.7241
N13280X5.6541Y1.7193
N13290X5.6554Y1.7149
N13300X5.6576Y1.7110
N13310X5.6605Y1.7075
N13320X5.6640Y1.7046
N13330X5.6680Y1.7024
N13340X5.6724Y1.7010
N13350X5.6772Y1.7006
N13360G01Z-0.1000F15.0
N13370G01X5.6820Y1.7010F25.0
N13380X5.6864Y1.7024
N13390X5.6904Y1.7046
N13400X5.6939Y1.7075
N13410X5.6968Y1.7110
N13420X5.6989Y1.7149
N13430X5.7003Y1.7193
N13440X5.7008Y1.7241
N13450X5.7003Y1.7290
N13460X5.6989Y1.7334
N13470X5.6968Y1.7373
N13480X5.6939Y1.7408
N13490X5.6904Y1.7437
N13500X5.6864Y1.7459
N13510X5.6820Y1.7473
N13520X5.6772Y1.7477
N13530X5.6724Y1.7473
N13540X5.6680Y1.7459
N13550X5.6640Y1.7437
N13560X5.6605Y1.7408
N13570X5.6576Y1.7373
N13580X5.6554Y1.7334
N13590X5.6541Y1.7290
N13600X5.6536Y1.7241
N13610X5.6541Y1.7193
N13620X5.6554Y1.7149
N13630X5.6576Y1.7110
N13640X5.6605Y1.7075
N13650X5.6640Y1.7046
N13660X5.6680Y1.7024
N13670X5.6724Y1.7010
N13680X5.6772Y1.7006
N13690G01Z-0.1500F15.0
N13700G01X5.6820Y1.7010F25.0
N13710X5.6864Y1.7024
N13720X5.6904Y1.7046
N13730X5.6939Y1.7075
N13740X5.6968Y1.7110
N13750X5.6989Y1.7149
N13760X5.7003Y1.7193
N13770X5.7008Y1.7241
N13780X5.7003Y1.7290
N13790X5.6989Y1.7334
N13800X5.6968Y1.7373
N13810X5.6939Y1.7408
N13820X5.6904Y1.7437
N13830X5.6864Y1.7459
N13840X5.6820Y1.7473
N13850X5.6772Y1.7477
N13860X5.6724Y1.7473
N13870X5.6680Y1.7459
N13880X5.6640Y1.7437
N13890X5.6605Y1.7408
N13900X5.6576Y1.7373
N13910X5.6554Y1.7334
N13920X5.6541Y1.7290
N13930X5.6536Y1.7241
N13940X5.6541Y1.7193
N13950X5.6554Y1.7149
N13960X5.6576Y1.7110
N13970X5.6605Y1.7075
N13980X5.6640Y1.7046
N13990X5.6680Y1.7024
N14000X5.6724Y1.7010
N14010X5.6772Y1.7006
N14020G00Z0.2500
N14030G00X6.4812Y1.9482
N14040G01Z-0.0500F15.0
N14050G01X6.4764Y1.9477F25.0
N14060X6.4720Y1.9463
N14070X6.4681Y1.9442
N14080X6.4646Y1.9413
N14090X6.4617Y1.9378
N14100X6.4595Y1.9338
N14110X6.4581Y1.9294
N14120X6.4577Y1.9246
N14130X6.4581Y1.9198
N14140X6.4595Y1.9154
N14150X6.4617Y1.9114
N14160X6.4646Y1.9079
N14170X6.4681Y1.9050
N14180X6.4720Y1.9029
N14190X6.4764Y1.9015
N14200X6.4812Y1.9010
N14210X6.4861Y1.9015
N14220X6.4904Y1.9029
N14230X6.4944Y1.9050
N14240X6.4979Y1.9079
N14250X6.5008Y1.9114
N14260X6.5030Y1.9154
N14270X6.5043Y1.9198
N14280X6.5048Y1.9246
N14290X6.5043Y1.9294
N14300X6.5030Y1.9338
N14310X6.5008Y1.9378
N14320X6.4979Y1.9413
N14330X6.4944Y1.9442
N14340X6.4904Y1.9463
N14350X6.4861Y1.9477
N14360X6.4812Y1.9482
N14370G01Z-0.1000F15.0
N14380G01X6.4764Y1.9477F25.0
N14390X6.4720Y1.9463
N14400X6.4681Y1.9442
N14410X6.4646Y1.9413
N14420X6.4617Y1.9378
N14430X6.4595Y1.9338
N14440X6.4581Y1.9294
N14450X6.4577Y1.9246
N14460X6.4581Y1.9198
N14470X6.4595Y1.9154
N14480X6.4617Y1.9114
N14490X6.4646Y1.9079
N14500X6.4681Y1.9050
N14510X6.4720Y1.9029
N14520X6.4764Y1.9015
N14530X6.4812Y1.9010
N14540X6.4861Y1.9015
N14550X6.4904Y1.9029
N14560X6.4944Y1.9050
N14570X6.4979Y1.9079
N14580X6.5008Y1.9114
N14590X6.5030Y1.9154
N14600X6.5043Y1.9198
N14610X6.5048Y1.9246
N14620X6.5043Y1.9294
N14630X6.5030Y1.9338
N14640X6.5008Y1.9378
N14650X6.4979Y1.9413
N14660X6.4944Y1.9442
N14670X6.4904Y1.9463
N14680X6.4861Y1.9477
N14690X6.4812Y1.9482
N14700G01Z-0.1500F15.0
N14710G01X6.4764Y1.9477F25.0
N14720X6.4720Y1.9463
N14730X6.4681Y1.9442
N14740X6.4646Y1.9413
N14750X6.4617Y1.9378
N14760X6.4595Y1.9338
N14770X6.4581Y1.9294
N14780X6.4577Y1.9246
N14790X6.4581Y1.9198
N14800X6.4595Y1.9154
N14810X6.4617Y1.9114
N14820X6.4646Y1.9079
N14830X6.4681Y1.9050
N14840X6.4720Y1.9029
N14850X6.4764Y1.9015
N14860X6.4812Y1.9010
N14870X6.4861Y1.9015
N14880X6.4904Y1.9029
N14890X6.4944Y1.9050
N14900X6.4979Y1.9079
N14910X6.5008Y1.9114
N14920X6.5030Y1.9154
N14930X6.5043Y1.9198
N14940X6.5048Y1.9246
N14950X6.5043Y1.9294
N14960X6.5030Y1.9338
N14970X6.5008Y1.9378
N14980X6.4979Y1.9413
N14990X6.4944Y1.9442
N15000X6.4904Y1.9463
N15010X6.4861Y1.9477
N15020X6.4812Y1.9482
N15030G00Z0.2500
N15040G00X5.3911Y4.2533
N15050G01Z-0.0500F15.0
N15060G01X5.3863Y4.2528F25.0
N15070X5.3819Y4.2515
N15080X5.3779Y4.2493
N15090X5.3744Y4.2464
N15100X5.3715Y4.2429
N15110X5.3694Y4.2389
N15120X5.3680Y4.2346
N15130X5.3675Y4.2297
N15140X5.3680Y4.2249
N15150X5.3694Y4.2205
N15160X5.3715Y4.2166
N15170X5.3744Y4.2131
N15180X5.3779Y4.2102
N15190X5.3819Y4.2080
N15200X5.3863Y4.2066
N15210X5.3911Y4.2062
N15220X5.3959Y4.2066
N15230X5.4003Y4.2080
N15240X5.4043Y4.2102
N15250X5.4078Y4.2131
N15260X5.4107Y4.2166
N15270X5.4129Y4.2205
N15280X5.4142Y4.2249
N15290X5.4147Y4.2297
N15300X5.4142Y4.2346
N15310X5.4129Y4.2389
N15320X5.4107Y4.2429
N15330X5.4078Y4.2464
N15340X5.4043Y4.2493
N15350X5.4003Y4.2515
N15360X5.3959Y4.2528
N15370X5.3911Y4.2533
N15380G01Z-0.1000F15.0
N15390G01X5.3863Y4.2528F25.0
N15400X5.3819Y4.2515
N15410X5.3779Y4.2493
N15420X5.3744Y4.2464
N15430X5.3715Y4.2429
N15440X5.3694Y4.2389
N15450X5.3680Y4.2346
N15460X5.3675Y4.2297
N15470X5.3680Y4.2249
N15480X5.3694Y4.2205
N15490X5.3715Y4.2166
N15500X5.3744Y4.2131
N15510X5.3779Y4.2102
N15520X5.3819Y4.2080
N15530X5.3863Y4.2066
N15540X5.3911Y4.2062
N15550X5.3959Y4.2066
N15560X5.4003Y4.2080
N15570X5.4043Y4.2102
N15580X5.4078Y4.2131
N15590X5.4107Y4.2166
N15600X5.4129Y4.2205
N15610X5.4142Y4.2249
N15620X5.4147Y4.2297
N15630X5.4142Y4.2346
N15640X5.4129Y4.2389
N15650X5.4107Y4.2429
N15660X5.4078Y4.2464
N15670X5.4043Y4.2493
N15680X5.4003Y4.2515
N15690X5.3959Y4.2528
N15700X5.3911Y4.2533
N15710G01Z-0.1500F15.0
N15720G01X5.3863Y4.2528F25.0
N15730X5.3819Y4.2515
N15740X5.3779Y4.2493
N15750X5.3744Y4.2464
N15760X5.3715Y4.2429
N15770X5.3694Y4.2389
N15780X5.3680Y4.2346
N15790X5.3675Y4.2297
N15800X5.3680Y4.2249
N15810X5.3694Y4.2205
N15820X5.3715Y4.2166
N15830X5.3744Y4.2131
N15840X5.3779Y4.2102
N15850X5.3819Y4.2080
N15860X5.3863Y4.2066
N15870X5.3911Y4.2062
N15880X5.3959Y4.2066
N15890X5.4003Y4.2080
N15900X5.4043Y4.2102
N15910X5.4078Y4.2131
N15920X5.4107Y4.2166
N15930X5.4129Y4.2205
N15940X5.4142Y4.2249
N15950X5.4147Y4.2297
N15960X5.4142Y4.2346
N15970X5.4129Y4.2389
N15980X5.4107Y4.2429
N15990X5.4078Y4.2464
N16000X5.4043Y4.2493
N16010X5.4003Y4.2515
N16020X5.3959Y4.2528
N16030X5.3911Y4.2533
N16040G00Z0.2500
N16050G00X6.4812Y5.3173
N16060G01Z-0.0500F15.0
N16070G01X6.4764Y5.3169F25.0
N16080X6.4720Y5.3155
N16090X6.4681Y5.3133
N16100X6.4646Y5.3104
N16110X6.4617Y5.3069
N16120X6.4595Y5.3030
N16130X6.4581Y5.2986
N16140X6.4577Y5.2938
N16150X6.4581Y5.2889
N16160X6.4595Y5.2846
N16170X6.4617Y5.2806
N16180X6.4646Y5.2771
N16190X6.4681Y5.2742
N16200X6.4720Y5.2720
N16210X6.4764Y5.2707
N16220X6.4812Y5.2702
N16230X6.4861Y5.2707
N16240X6.4904Y5.2720
N16250X6.4944Y5.2742
N16260X6.4979Y5.2771
N16270X6.5008Y5.2806
N16280X6.5030Y5.2846
N16290X6.5043Y5.2889
N16300X6.5048Y5.2938
N16310X6.5043Y5.2986
N16320X6.5030Y5.3030
N16330X6.5008Y5.3069
N16340X6.4979Y5.3104
N16350X6.4944Y5.3133
N16360X6.4904Y5.3155
N16370X6.4861Y5.3169
N16380X6.4812Y5.3173
N16390G01Z-0.1000F15.0
N16400G01X6.4764Y5.3169F25.0
N16410X6.4720Y5.3155
N16420X6.4681Y5.3133
N16430X6.4646Y5.3104
N16440X6.4617Y5.3069
N16450X6.4595Y5.3030
N16460X6.4581Y5.2986
N16470X6.4577Y5.2938
N16480X6.4581Y5.2889
N16490X6.4595Y5.2846
N16500X6.4617Y5.2806
N16510X6.4646Y5.2771
N16520X6.4681Y5.2742
N16530X6.4720Y5.2720
N16540X6.4764Y5.2707
N16550X6.4812Y5.2702
N16560X6.4861Y5.2707
N16570X6.4904Y5.2720
N16580X6.4944Y5.2742
N16590X6.4979Y5.2771
N16600X6.5008Y5.2806
N16610X6.5030Y5.2846
N16620X6.5043Y5.2889
N16630X6.5048Y5.2938
N16640X6.5043Y5.2986
N16650X6.5030Y5.3030
N16660X6.5008Y5.3069
N16670X6.4979Y5.3104
N16680X6.4944Y5.3133
N16690X6.4904Y5.3155
N16700X6.4861Y5.3169
N16710X6.4812Y5.3173
N16720G01Z-0.1500F15.0
N16730G01X6.4764Y5.3169F25.0
N16740X6.4720Y5.3155
N16750X6.4681Y5.3133
N16760X6.4646Y5.3104
N16770X6.4617Y5.3069
N16780X6.4595Y5.3030
N16790X6.4581Y5.2986
N16800X6.4577Y5.2938
N16810X6.4581Y5.2889
N16820X6.4595Y5.2846
N16830X6.4617Y5.2806
N16840X6.4646Y5.2771
N16850X6.4681Y5.2742
N16860X6.4720Y5.2720
N16870X6.4764Y5.2707
N16880X6.4812Y5.2702
N16890X6.4861Y5.2707
N16900X6.4904Y5.2720
N16910X6.4944Y5.2742
N16920X6.4979Y5.2771
N16930X6.5008Y5.2806
N16940X6.5030Y5.2846
N16950X6.5043Y5.2889
N16960X6.5048Y5.2938
N16970X6.5043Y5.2986
N16980X6.5030Y5.3030
N16990X6.5008Y5.3069
N17000X6.4979Y5.3104
N17010X6.4944Y5.3133
N17020X6.4904Y5.3155
N17030X6.4861Y5.3169
N17040X6.4812Y5.3173
N17050G00Z0.2500
N17060G00X6.8966Y6.4439
N17070G01Z-0.0500F15.0
N17080G01X6.8971Y6.4391F25.0
N17090X6.8984Y6.4347
N17100X6.9006Y6.4308
N17110X6.9035Y6.4272
N17120X6.9070Y6.4244
N17130X6.9110Y6.4222
N17140X6.9153Y6.4208
N17150X6.9202Y6.4203
N17160X6.9250Y6.4208
N17170X6.9294Y6.4222
N17180X6.9334Y6.4244
N17190X6.9369Y6.4272
N17200X6.9397Y6.4307
N17210X6.9419Y6.4347
N17220X6.9433Y6.4391
N17230X6.9438Y6.4439
N17240X6.9433Y6.4488
N17250X6.9419Y6.4531
N17260X6.9397Y6.4571
N17270X6.9369Y6.4606
N17280X6.9334Y6.4635
N17290X6.9294Y6.4657
N17300X6.9250Y6.4670
N17310X6.9202Y6.4675
N17320X6.9153Y6.4670
N17330X6.9110Y6.4657
N17340X6.9070Y6.4635
N17350X6.9035Y6.4606
N17360X6.9006Y6.4571
N17370X6.8984Y6.4531
N17380X6.8971Y6.4488
N17390X6.8966Y6.4439
N17400G01Z-0.1000F15.0
N17410G01X6.8971Y6.4391F25.0
N17420X6.8984Y6.4347
N17430X6.9006Y6.4308
N17440X6.9035Y6.4272
N17450X6.9070Y6.4244
N17460X6.9110Y6.4222
N17470X6.9153Y6.4208
N17480X6.9202Y6.4203
N17490X6.9250Y6.4208
N17500X6.9294Y6.4222
N17510X6.9334Y6.4244
N17520X6.9369Y6.4272
N17530X6.9397Y6.4307
N17540X6.9419Y6.4347
N17550X6.9433Y6.4391
N17560X6.9438Y6.4439
N17570X6.9433Y6.4488
N17580X6.9419Y6.4531
N17590X6.9397Y6.4571
N17600X6.9369Y6.4606
N17610X6.9334Y6.4635
N17620X6.9294Y6.4657
N17630X6.9250Y6.4670
N17640X6.9202Y6.4675
N17650X6.9153Y6.4670
N17660X6.9110Y6.4657
N17670X6.9070Y6.4635
N17680X6.9035Y6.4606
N17690X6.9006Y6.4571
N17700X6.8984Y6.4531
N17710X6.8971Y6.4488
N17720X6.8966Y6.4439
N17730G01Z-0.1500F15.0
N17740G01X6.8971Y6.4391F25.0
N17750X6.8984Y6.4347
N17760X6.9006Y6.4308
N17770X6.9035Y6.4272
N17780X6.9070Y6.4244
N17790X6.9110Y6.4222
N17800X6.9153Y6.4208
N17810X6.9202Y6.4203
N17820X6.9250Y6.4208
N17830X6.9294Y6.4222
N17840X6.9334Y6.4244
N17850X6.9369Y6.4272
N17860X6.9397Y6.4307
N17870X6.9419Y6.4347
N17880X6.9433Y6.4391
N17890X6.9438Y6.4439
N17900X6.9433Y6.4488
N17910X6.9419Y6.4531
N17920X6.9397Y6.4571
N17930X6.9369Y6.4606
N17940X6.9334Y6.4635
N17950X6.9294Y6.4657
N17960X6.9250Y6.4670
N17970X6.9202Y6.4675
N17980X6.9153Y6.4670
N17990X6.9110Y6.4657
N18000X6.9070Y6.4635
N18010X6.9035Y6.4606
N18020X6.9006Y6.4571
N18030X6.8984Y6.4531
N18040X6.8971Y6.4488
N18050X6.8966Y6.4439
N18060G00Z0.2500
N18070G00X0.9787Y3.6359
N18080G01Z-0.0500F15.0
N18090G01X0.9830Y3.6361F25.0
N18100X0.9871Y3.6368
N18110X0.9910Y3.6378
N18120X0.9948Y3.6391
N18130X0.9984Y3.6409
N18140X1.0018Y3.6429
N18150X1.0049Y3.6453
N18160X1.0079Y3.6480
N18170X1.0105Y3.6509
N18180X1.0129Y3.6541
N18190X1.0150Y3.6575
N18200X1.0167Y3.6611
N18210X1.0181Y3.6649
N18220X1.0191Y3.6688
N18230X1.0197Y3.6729
N18240X1.0199Y3.6771
N18250X1.0197Y3.6814
N18260X1.0191Y3.6855
N18270X1.0181Y3.6894
N18280X1.0167Y3.6932
N18290X1.0150Y3.6967
N18300X1.0129Y3.7001
N18310X1.0105Y3.7033
N18320X1.0079Y3.7063
N18330X1.0049Y3.7089
N18340X1.0018Y3.7113
N18350X0.9984Y3.7134
N18360X0.9948Y3.7151
N18370X0.9910Y3.7165
N18380X0.9871Y3.7175
N18390X0.9830Y3.7181
N18400X0.9787Y3.7183
N18410X0.9745Y3.7181
N18420X0.9704Y3.7175
N18430X0.9665Y3.7165
N18440X0.9627Y3.7151
N18450X0.9591Y3.7134
N18460X0.9557Y3.7113
N18470X0.9525Y3.7089
N18480X0.9496Y3.7063
N18490X0.9469Y3.7033
N18500X0.9445Y3.7001
N18510X0.9425Y3.6967
N18520X0.9407Y3.6932
N18530X0.9394Y3.6894
N18540X0.9384Y3.6855
N18550X0.9377Y3.6814
N18560X0.9375Y3.6771
N18570X0.9377Y3.6729
N18580X0.9384Y3.6688
N18590X0.9394Y3.6649
N18600X0.9407Y3.6611
N18610X0.9425Y3.6575
N18620X0.9445Y3.6541
N18630X0.9469Y3.6509
N18640X0.9496Y3.6480
N18650X0.9525Y3.6453
N18660X0.9557Y3.6429
N18670X0.9591Y3.6409
N18680X0.9627Y3.6391
N18690X0.9665Y3.6378
N18700X0.9704Y3.6368
N18710X0.9745Y3.6361
N18720X0.9787Y3.6359
N18730G01Z-0.1000F15.0
N18740G01X0.9830Y3.6361F25.0
N18750X0.9871Y3.6368
N18760X0.9910Y3.6378
N18770X0.9948Y3.6391
N18780X0.9984Y3.6409
N18790X1.0018Y3.6429
N18800X1.0049Y3.6453
N18810X1.0079Y3.6480
N18820X1.0105Y3.6509
N18830X1.0129Y3.6541
N18840X1.0150Y3.6575
N18850X1.0167Y3.6611
N18860X1.0181Y3.6649
N18870X1.0191Y3.6688
N18880X1.0197Y3.6729
N18890X1.0199Y3.6771
N18900X1.0197Y3.6814
N18910X1.0191Y3.6855
N18920X1.0181Y3.6894
N18930X1.0167Y3.6932
N18940X1.0150Y3.6967
N18950X1.0129Y3.7001
N18960X1.0105Y3.7033
N18970X1.0079Y3.7063
N18980X1.0049Y3.7089
N18990X1.0018Y3.7113
N19000X0.9984Y3.7134
N19010X0.9948Y3.7151
N19020X0.9910Y3.7165
N19030X0.9871Y3.7175
N19040X0.9830Y3.7181
N19050X0.9787Y3.7183
N19060X0.9745Y3.7181
N19070X0.9704Y3.7175
N19080X0.9665Y3.7165
N19090X0.9627Y3.7151
N19100X0.9591Y3.7134
N19110X0.9557Y3.7113
N19120X0.9525Y3.7089
N19130X0.9496Y3.7063
N19140X0.9469Y3.7033
N19150X0.9445Y3.7001
N19160X0.9425Y3.6967
N19170X0.9407Y3.6932
N19180X0.9394Y3.6894
N19190X0.9384Y3.6855
N19200X0.9377Y3.6814
N19210X0.9375Y3.6771
N19220X0.9377Y3.6729
N19230X0.9384Y3.6688
N19240X0.9394Y3.6649
N19250X0.9407Y3.6611
N19260X0.9425Y3.6575
N19270X0.9445Y3.6541
N19280X0.9469Y3.6509
N19290X0.9496Y3.6480
N19300X0.9525Y3.6453
N19310X0.9557Y3.6429
N19320X0.9591Y3.6409
N19330X0.9627Y3.6391
N19340X0.9665Y3.6378
N19350X0.9704Y3.6368
N19360X0.9745Y3.6361
N19370X0.9787Y3.6359
N19380G01Z-0.1500F15.0
N19390G01X0.9830Y3.6361F25.0
N19400X0.9871Y3.6368
N19410X0.9910Y3.6378
N19420X0.9948Y3.6391
N19430X0.9984Y3.6409
N19440X1.0018Y3.6429
N19450X1.0049Y3.6453
N19460X1.0079Y3.6480
N19470X1.0105Y3.6509
N19480X1.0129Y3.6541
N19490X1.0150Y3.6575
N19500X1.0167Y3.6611
N19510X1.0181Y3.6649
N19520X1.0191Y3.6688
N19530X1.0197Y3.6729
N19540X1.0199Y3.6771
N19550X1.0197Y3.6814
N19560X1.0191Y3.6855
N19570X1.0181Y3.6894
N19580X1.0167Y3.6932
N19590X1.0150Y3.6967
N19600X1.0129Y3.7001
N19610X1.0105Y3.7033
N19620X1.0079Y3.7063
N19630X1.0049Y3.7089
N19640X1.0018Y3.7113
N19650X0.9984Y3.7134
N19660X0.9948Y3.7151
N19670X0.9910Y3.7165
N19680X0.9871Y3.7175
N19690X0.9830Y3.7181
N19700X0.9787Y3.7183
N19710X0.9745Y3.7181
N19720X0.9704Y3.7175
N19730X0.9665Y3.7165
N19740X0.9627Y3.7151
N19750X0.9591Y3.7134
N19760X0.9557Y3.7113
N19770X0.9525Y3.7089
N19780X0.9496Y3.7063
N19790X0.9469Y3.7033
N19800X0.9445Y3.7001
N19810X0.9425Y3.6967
N19820X0.9407Y3.6932
N19830X0.9394Y3.6894
N19840X0.9384Y3.6855
N19850X0.9377Y3.6814
N19860X0.9375Y3.6771
N19870X0.9377Y3.6729
N19880X0.9384Y3.6688
N19890X0.9394Y3.6649
N19900X0.9407Y3.6611
N19910X0.9425Y3.6575
N19920X0.9445Y3.6541
N19930X0.9469Y3.6509
N19940X0.9496Y3.6480
N19950X0.9525Y3.6453
N19960X0.9557Y3.6429
N19970X0.9591Y3.6409
N19980X0.9627Y3.6391
N19990X0.9665Y3.6378
N20000X0.9704Y3.6368
N20010X0.9745Y3.6361
N20020X0.9787Y3.6359
N20030G00Z0.2500
N20040G00X1.0616Y1.4139
N20050G01Z-0.0500F15.0
N20060G01X1.0621Y1.4091F25.0
N20070X1.0635Y1.4047
N20080X1.0656Y1.4007
N20090X1.0685Y1.3972
N20100X1.0720Y1.3943
N20110X1.0760Y1.3922
N20120X1.0804Y1.3908
N20130X1.0852Y1.3903
N20140X1.0900Y1.3908
N20150X1.0944Y1.3922
N20160X1.0984Y1.3943
N20170X1.1019Y1.3972
N20180X1.1048Y1.4007
N20190X1.1070Y1.4047
N20200X1.1083Y1.4091
N20210X1.1088Y1.4139
N20220X1.1083Y1.4187
N20230X1.1070Y1.4231
N20240X1.1048Y1.4271
N20250X1.1019Y1.4306
N20260X1.0984Y1.4335
N20270X1.0944Y1.4357
N20280X1.0900Y1.4370
N20290X1.0852Y1.4375
N20300X1.0804Y1.4370
N20310X1.0760Y1.4357
N20320X1.0720Y1.4335
N20330X1.0685Y1.4306
N20340X1.0656Y1.4271
N20350X1.0635Y1.4231
N20360X1.0621Y1.4187
N20370X1.0616Y1.4139
N20380G01Z-0.1000F15.0
N20390G01X1.0621Y1.4091F25.0
N20400X1.0635Y1.4047
N20410X1.0656Y1.4007
N20420X1.0685Y1.3972
N20430X1.0720Y1.3943
N20440X1.0760Y1.3922
N20450X1.0804Y1.3908
N20460X1.0852Y1.3903
N20470X1.0900Y1.3908
N20480X1.0944Y1.3922
N20490X1.0984Y1.3943
N20500X1.1019Y1.3972
N20510X1.1048Y1.4007
N20520X1.1070Y1.4047
N20530X1.1083Y1.4091
N20540X1.1088Y1.4139
N20550X1.1083Y1.4187
N20560X1.1070Y1.4231
N20570X1.1048Y1.4271
N20580X1.1019Y1.4306
N20590X1.0984Y1.4335
N20600X1.0944Y1.4357
N20610X1.0900Y1.4370
N20620X1.0852Y1.4375
N20630X1.0804Y1.4370
N20640X1.0760Y1.4357
N20650X1.0720Y1.4335
N20660X1.0685Y1.4306
N20670X1.0656Y1.4271
N20680X1.0635Y1.4231
N20690X1.0621Y1.4187
N20700X1.0616Y1.4139
N20710G01Z-0.1500F15.0
N20720G01X1.0621Y1.4091F25.0
N20730X1.0635Y1.4047
N20740X1.0656Y1.4007
N20750X1.0685Y1.3972
N20760X1.0720Y1.3943
N20770X1.0760Y1.3922
N20780X1.0804Y1.3908
N20790X1.0852Y1.3903
N20800X1.0900Y1.3908
N20810X1.0944Y1.3922
N20820X1.0984Y1.3943
N20830X1.1019Y1.3972
N20840X1.1048Y1.4007
N20850X1.1070Y1.4047
N20860X1.1083Y1.4091
N20870X1.1088Y1.4139
N20880X1.1083Y1.4187
N20890X1.1070Y1.4231
N20900X1.1048Y1.4271
N20910X1.1019Y1.4306
N20920X1.0984Y1.4335
N20930X1.0944Y1.4357
N20940X1.0900Y1.4370
N20950X1.0852Y1.4375
N20960X1.0804Y1.4370
N20970X1.0760Y1.4357
N20980X1.0720Y1.4335
N20990X1.0685Y1.4306
N21000X1.0656Y1.4271
N21010X1.0635Y1.4231
N21020X1.0621Y1.4187
N21030X1.0616Y1.4139
N21040G00Z0.2500
N21050G00X1.7308Y6.8983Z0.2500
N21060G01Z-0.0500F15.0
N21070G01X1.7313Y6.9004F25.0
N21080X1.7363Y6.9166
N21090X1.7424Y6.9325
N21100X1.7494Y6.9480
N21110X1.7574Y6.9631
N21120X1.7663Y6.9778
N21130X1.7760Y6.9921
N21140X1.7866Y7.0060
N21150X1.7980Y7.0195
N21160X1.8101Y7.0325
N21170X1.8230Y7.0451
N21180X1.8366Y7.0572
N21190X1.8509Y7.0689
N21200X1.8659Y7.0800
N21210X1.8815Y7.0907
N21220X1.8977Y7.1008
N21230X1.9145Y7.1105
N21240X1.9319Y7.1196
N21250X1.9498Y7.1282
N21260X1.9682Y7.1362
N21270X1.9872Y7.1437
N21280X2.0066Y7.1505
N21290X2.0265Y7.1568
N21300X2.0468Y7.1625
N21310X2.0676Y7.1676
N21320X2.0887Y7.1721
N21330X2.1102Y7.1759
N21340X2.1321Y7.1790
N21350X2.1542Y7.1815
N21360X2.1767Y7.1833
N21370X2.1995Y7.1844
N21380X2.2225Y7.1847
N21390X2.2456Y7.1844
N21400X2.2684Y7.1833
N21410X2.2909Y7.1815
N21420X2.3130Y7.1790
N21430X2.3349Y7.1759
N21440X2.3564Y7.1721
N21450X2.3775Y7.1676
N21460X2.3983Y7.1625
N21470X2.4186Y7.1568
N21480X2.4385Y7.1505
N21490X2.4579Y7.1437
N21500X2.4769Y7.1362
N21510X2.4953Y7.1282
N21520X2.5132Y7.1196
N21530X2.5306Y7.1105
N21540X2.5474Y7.1008
N21550X2.5636Y7.0907
N21560X2.5792Y7.0800
N21570X2.5942Y7.0689
N21580X2.6085Y7.0572
N21590X2.6221Y7.0451
N21600X2.6350Y7.0325
N21610X2.6472Y7.0195
N21620X2.6585Y7.0060
N21630X2.6691Y6.9921
N21640X2.6788Y6.9778
N21650X2.6877Y6.9631
N21660X2.6957Y6.9480
N21670X2.7027Y6.9325
N21680X2.7088Y6.9166
N21690X2.7138Y6.9004
N21700X2.7144Y6.8983
N21710X2.7323Y6.8884
N21720X2.7620Y6.8707
N21730X2.7911Y6.8520
N21740X2.8196Y6.8324
N21750X2.8394Y6.8178
N21760X2.8474Y6.8119
N21770X2.8744Y6.7905
N21780X2.9007Y6.7682
N21790X2.9262Y6.7450
N21800X2.9510Y6.7211
N21810X2.9612Y6.7105
N21820X2.9749Y6.6963
N21830X2.9981Y6.6708
N21840X3.0204Y6.6445
N21850X3.0418Y6.6174
N21860X3.0623Y6.5897
N21870X3.0819Y6.5612
N21880X3.1006Y6.5321
N21890X3.1183Y6.5023
N21900X3.1350Y6.4719
N21910X3.1508Y6.4409
N21920X3.1655Y6.4093
N21930X3.1791Y6.3772
N21940X3.1917Y6.3445
N21950X3.2032Y6.3113
N21960X3.2136Y6.2776
N21970X3.2228Y6.2434
N21980X3.2309Y6.2088
N21990X3.2378Y6.1737
N22000X3.2435Y6.1383
N22010X3.2480Y6.1024
N22020X3.2512Y6.0663
N22030X3.2531Y6.0297
N22040X3.2538Y5.9932
N22050Y5.8780
N22060Y5.7425
N22070X3.2535Y5.7310
N22080X3.2538Y5.7194
N22090X3.2536Y5.7155
N22100X3.2526Y5.6942
N22110X3.2491Y5.6689
N22120X3.2433Y5.6442
N22130X3.2353Y5.6198
N22140X3.2252Y5.5961
N22150X3.2131Y5.5728
N22160X3.1991Y5.5502
N22170X3.1832Y5.5282
N22180X3.1656Y5.5068
N22190X3.1462Y5.4860
N22200X3.1252Y5.4659
N22210X3.1026Y5.4464
N22220X3.0785Y5.4275
N22230X3.0528Y5.4093
N22240X3.0258Y5.3917
N22250X2.9973Y5.3748
N22260X2.9675Y5.3586
N22270X2.9364Y5.3430
N22280X2.9040Y5.3282
N22290X2.8704Y5.3141
N22300X2.8356Y5.3007
N22310X2.7996Y5.2880
N22320X2.7626Y5.2761
N22330X2.7246Y5.2651
N22340X2.6855Y5.2548
N22350X2.6455Y5.2453
N22360X2.6045Y5.2367
N22370X2.5627Y5.2290
N22380X2.5200Y5.2222
N22390X2.4766Y5.2163
N22400X2.4324Y5.2113
N22410X2.3879Y5.2073
N22420G2X2.3538Y5.2384I-0.0028J0.0311
N22430G01Y5.3468
N22440Y5.4800
N22450X2.2817Y5.5525
N22460G2X2.2726Y5.5745I0.0221J0.0220
N22470G01Y5.6179
N22480G2X2.3038Y5.6492I0.0313J0.0000
N22490G01X2.5138
N22500Y5.7217
N22510X1.9313
N22520Y5.6492
N22530X2.1413
N22540G2X2.1725Y5.6179I0.0000J-0.0313
N22550G01Y5.5745
N22560G2X2.1634Y5.5525I-0.0313J0.0000
N22570G01X2.0913Y5.4800
N22580Y5.3468
N22590Y5.2389
N22600G2X2.0572Y5.2078I-0.0313J0.0000
N22610G01X2.0166Y5.2116
N22620X1.9763Y5.2161
N22630X1.9367Y5.2215
N22640X1.8977Y5.2276
N22650X1.8593Y5.2344
N22660X1.8217Y5.2420
N22670X1.7849Y5.2503
N22680X1.7488Y5.2593
N22690X1.7135Y5.2690
N22700X1.6791Y5.2793
N22710X1.6456Y5.2903
N22720X1.6129Y5.3019
N22730X1.5813Y5.3142
N22740X1.5506Y5.3270
N22750X1.5209Y5.3405
N22760X1.4923Y5.3545
N22770X1.4647Y5.3692
N22780X1.4383Y5.3843
N22790X1.4130Y5.4001
N22800X1.3889Y5.4164
N22810X1.3660Y5.4332
N22820X1.3443Y5.4506
N22830X1.3240Y5.4685
N22840X1.3049Y5.4869
N22850X1.2873Y5.5058
N22860X1.2710Y5.5253
N22870X1.2563Y5.5452
N22880X1.2430Y5.5657
N22890X1.2313Y5.5867
N22900X1.2213Y5.6082
N22910X1.2130Y5.6301
N22920X1.2069Y5.6510
N22930X1.2004Y5.6719
N22940X1.1954Y5.6950
N22950X1.1923Y5.7187
N22960X1.1913Y5.7422
N22970Y5.7902
N22980Y5.9932
N22990X1.1919Y6.0297
N23000X1.1939Y6.0663
N23010X1.1971Y6.1024
N23020X1.2016Y6.1383
N23030X1.2073Y6.1737
N23040X1.2142Y6.2088
N23050X1.2223Y6.2434
N23060X1.2315Y6.2776
N23070X1.2419Y6.3113
N23080X1.2534Y6.3445
N23090X1.2660Y6.3772
N23100X1.2796Y6.4093
N23110X1.2943Y6.4409
N23120X1.3101Y6.4719
N23130X1.3268Y6.5023
N23140X1.3445Y6.5321
N23150X1.3632Y6.5612
N23160X1.3828Y6.5897
N23170X1.4033Y6.6174
N23180X1.4247Y6.6445
N23190X1.4470Y6.6708
N23200X1.4702Y6.6963
N23210X1.4941Y6.7211
N23220X1.5073Y6.7339
N23230X1.5189Y6.7451
N23240X1.5444Y6.7682
N23250X1.5707Y6.7905
N23260X1.5978Y6.8119
N23270X1.6255Y6.8324
N23280X1.6325Y6.8372
N23290X1.6540Y6.8520
N23300X1.6831Y6.8707
N23310X1.7129Y6.8884
N23320X1.7308Y6.8983
N23330G01Z-0.1000F15.0
N23340G01X1.7313Y6.9004F25.0
N23350X1.7363Y6.9166
N23360X1.7424Y6.9325
N23370X1.7494Y6.9480
N23380X1.7574Y6.9631
N23390X1.7663Y6.9778
N23400X1.7760Y6.9921
N23410X1.7866Y7.0060
N23420X1.7980Y7.0195
N23430X1.8101Y7.0325
N23440X1.8230Y7.0451
N23450X1.8366Y7.0572
N23460X1.8509Y7.0689
N23470X1.8659Y7.0800
N23480X1.8815Y7.0907
N23490X1.8977Y7.1008
N23500X1.9145Y7.1105
N23510X1.9319Y7.1196
N23520X1.9498Y7.1282
N23530X1.9682Y7.1362
N23540X1.9872Y7.1437
N23550X2.0066Y7.1505
N23560X2.0265Y7.1568
N23570X2.0468Y7.1625
N23580X2.0676Y7.1676
N23590X2.0887Y7.1721
N23600X2.1102Y7.1759
N23610X2.1321Y7.1790
N23620X2.1542Y7.1815
N23630X2.1767Y7.1833
N23640X2.1995Y7.1844
N23650X2.2225Y7.1847
N23660X2.2456Y7.1844
N23670X2.2684Y7.1833
N23680X2.2909Y7.1815
N23690X2.3130Y7.1790
N23700X2.3349Y7.1759
N23710X2.3564Y7.1721
N23720X2.3775Y7.1676
N23730X2.3983Y7.1625
N23740X2.4186Y7.1568
N23750X2.4385Y7.1505
N23760X2.4579Y7.1437
N23770X2.4769Y7.1362
N23780X2.4953Y7.1282
N23790X2.5132Y7.1196
N23800X2.5306Y7.1105
N23810X2.5474Y7.1008
N23820X2.5636Y7.0907
N23830X2.5792Y7.0800
N23840X2.5942Y7.0689
N23850X2.6085Y7.0572
N23860X2.6221Y7.0451
N23870X2.6350Y7.0325
N23880X2.6472Y7.0195
N23890X2.6585Y7.0060
N23900X2.6691Y6.9921
N23910X2.6788Y6.9778
N23920X2.6877Y6.9631
N23930X2.6957Y6.9480
N23940X2.7027Y6.9325
N23950X2.7088Y6.9166
N23960X2.7138Y6.9004
N23970X2.7144Y6.8983
N23980X2.7323Y6.8884
N23990X2.7620Y6.8707
N24000X2.7911Y6.8520
N24010X2.8196Y6.8324
N24020X2.8394Y6.8178
N24030Z-0.0750
N24040X2.8474Y6.8119
N24050X2.8744Y6.7905
N24060X2.9007Y6.7682
N24070X2.9262Y6.7450
N24080X2.9510Y6.7211
N24090X2.9612Y6.7105
N24100G01Z-0.1000F15.0
N24110G01X2.9749Y6.6963F25.0
N24120X2.9981Y6.6708
N24130X3.0204Y6.6445
N24140X3.0418Y6.6174
N24150X3.0623Y6.5897
N24160X3.0819Y6.5612
N24170X3.1006Y6.5321
N24180X3.1183Y6.5023
N24190X3.1350Y6.4719
N24200X3.1508Y6.4409
N24210X3.1655Y6.4093
N24220X3.1791Y6.3772
N24230X3.1917Y6.3445
N24240X3.2032Y6.3113
N24250X3.2136Y6.2776
N24260X3.2228Y6.2434
N24270X3.2309Y6.2088
N24280X3.2378Y6.1737
N24290X3.2435Y6.1383
N24300X3.2480Y6.1024
N24310X3.2512Y6.0663
N24320X3.2531Y6.0297
N24330X3.2538Y5.9932
N24340Y5.8780
N24350Z-0.0750
N24360Y5.7425
N24370X3.2535Y5.7310
N24380X3.2538Y5.7194
N24390X3.2536Y5.7155
N24400G01Z-0.1000F15.0
N24410G01X3.2526Y5.6942F25.0
N24420X3.2491Y5.6689
N24430X3.2433Y5.6442
N24440X3.2353Y5.6198
N24450X3.2252Y5.5961
N24460X3.2131Y5.5728
N24470X3.1991Y5.5502
N24480X3.1832Y5.5282
N24490X3.1656Y5.5068
N24500X3.1462Y5.4860
N24510X3.1252Y5.4659
N24520X3.1026Y5.4464
N24530X3.0785Y5.4275
N24540X3.0528Y5.4093
N24550X3.0258Y5.3917
N24560X2.9973Y5.3748
N24570X2.9675Y5.3586
N24580X2.9364Y5.3430
N24590X2.9040Y5.3282
N24600X2.8704Y5.3141
N24610X2.8356Y5.3007
N24620X2.7996Y5.2880
N24630X2.7626Y5.2761
N24640X2.7246Y5.2651
N24650X2.6855Y5.2548
N24660X2.6455Y5.2453
N24670X2.6045Y5.2367
N24680X2.5627Y5.2290
N24690X2.5200Y5.2222
N24700X2.4766Y5.2163
N24710X2.4324Y5.2113
N24720X2.3879Y5.2073
N24730G2X2.3538Y5.2384I-0.0028J0.0311
N24740G01Y5.3468
N24750Y5.4800
N24760X2.2817Y5.5525
N24770G2X2.2726Y5.5745I0.0221J0.0220
N24780G01Y5.6179
N24790G2X2.3038Y5.6492I0.0313J0.0000
N24800G01X2.5138
N24810Y5.7217
N24820X1.9313
N24830Y5.6492
N24840X2.1413
N24850G2X2.1725Y5.6179I0.0000J-0.0313
N24860G01Y5.5745
N24870G2X2.1634Y5.5525I-0.0313J0.0000
N24880G01X2.0913Y5.4800
N24890Y5.3468
N24900Y5.2389
N24910G2X2.0572Y5.2078I-0.0313J0.0000
N24920G01X2.0166Y5.2116
N24930X1.9763Y5.2161
N24940X1.9367Y5.2215
N24950X1.8977Y5.2276
N24960X1.8593Y5.2344
N24970X1.8217Y5.2420
N24980X1.7849Y5.2503
N24990X1.7488Y5.2593
N25000X1.7135Y5.2690
N25010X1.6791Y5.2793
N25020X1.6456Y5.2903
N25030X1.6129Y5.3019
N25040X1.5813Y5.3142
N25050X1.5506Y5.3270
N25060X1.5209Y5.3405
N25070X1.4923Y5.3545
N25080X1.4647Y5.3692
N25090X1.4383Y5.3843
N25100X1.4130Y5.4001
N25110X1.3889Y5.4164
N25120X1.3660Y5.4332
N25130X1.3443Y5.4506
N25140X1.3240Y5.4685
N25150X1.3049Y5.4869
N25160X1.2873Y5.5058
N25170X1.2710Y5.5253
N25180X1.2563Y5.5452
N25190X1.2430Y5.5657
N25200X1.2313Y5.5867
N25210X1.2213Y5.6082
N25220X1.2130Y5.6301
N25230Z-0.0750
N25240X1.2069Y5.6510
N25250X1.2004Y5.6719
N25260X1.1954Y5.6950
N25270X1.1923Y5.7187
N25280X1.1913Y5.7422
N25290Y5.7902
N25300G01Z-0.1000F15.0
N25310G01Y5.9932F25.0
N25320X1.1919Y6.0297
N25330X1.1939Y6.0663
N25340X1.1971Y6.1024
N25350X1.2016Y6.1383
N25360X1.2073Y6.1737
N25370X1.2142Y6.2088
N25380X1.2223Y6.2434
N25390X1.2315Y6.2776
N25400X1.2419Y6.3113
N25410X1.2534Y6.3445
N25420X1.2660Y6.3772
N25430X1.2796Y6.4093
N25440X1.2943Y6.4409
N25450X1.3101Y6.4719
N25460X1.3268Y6.5023
N25470X1.3445Y6.5321
N25480X1.3632Y6.5612
N25490X1.3828Y6.5897
N25500X1.4033Y6.6174
N25510X1.4247Y6.6445
N25520X1.4470Y6.6708
N25530X1.4702Y6.6963
N25540X1.4941Y6.7211
N25550X1.5073Y6.7339
N25560Z-0.0750
N25570X1.5189Y6.7451
N25580X1.5444Y6.7682
N25590X1.5707Y6.7905
N25600X1.5978Y6.8119
N25610X1.6255Y6.8324
N25620X1.6325Y6.8372
N25630G01Z-0.1000F15.0
N25640G01X1.6540Y6.8520F25.0
N25650X1.6831Y6.8707
N25660X1.7129Y6.8884
N25670X1.7308Y6.8983
N25680G01Z-0.1500F15.0
N25690G01X1.7313Y6.9004F25.0
N25700X1.7363Y6.9166
N25710X1.7424Y6.9325
N25720X1.7494Y6.9480
N25730X1.7574Y6.9631
N25740X1.7663Y6.9778
N25750X1.7760Y6.9921
N25760X1.7866Y7.0060
N25770X1.7980Y7.0195
N25780X1.8101Y7.0325
N25790X1.8230Y7.0451
N25800X1.8366Y7.0572
N25810X1.8509Y7.0689
N25820X1.8659Y7.0800
N25830X1.8815Y7.0907
N25840X1.8977Y7.1008
N25850X1.9145Y7.1105
N25860X1.9319Y7.1196
N25870X1.9498Y7.1282
N25880X1.9682Y7.1362
N25890X1.9872Y7.1437
N25900X2.0066Y7.1505
N25910X2.0265Y7.1568
N25920X2.0468Y7.1625
N25930X2.0676Y7.1676
N25940X2.0887Y7.1721
N25950X2.1102Y7.1759
N25960X2.1321Y7.1790
N25970X2.1542Y7.1815
N25980X2.1767Y7.1833
N25990X2.1995Y7.1844
N26000X2.2225Y7.1847
N26010X2.2456Y7.1844
N26020X2.2684Y7.1833
N26030X2.2909Y7.1815
N26040X2.3130Y7.1790
N26050X2.3349Y7.1759
N26060X2.3564Y7.1721
N26070X2.3775Y7.1676
N26080X2.3983Y7.1625
N26090X2.4186Y7.1568
N26100X2.4385Y7.1505
N26110X2.4579Y7.1437
N26120X2.4769Y7.1362
N26130X2.4953Y7.1282
N26140X2.5132Y7.1196
N26150X2.5306Y7.1105
N26160X2.5474Y7.1008
N26170X2.5636Y7.0907
N26180X2.5792Y7.0800
N26190X2.5942Y7.0689
N26200X2.6085Y7.0572
N26210X2.6221Y7.0451
N26220X2.6350Y7.0325
N26230X2.6472Y7.0195
N26240X2.6585Y7.0060
N26250X2.6691Y6.9921
N26260X2.6788Y6.9778
N26270X2.6877Y6.9631
N26280X2.6957Y6.9480
N26290X2.7027Y6.9325
N26300X2.7088Y6.9166
N26310X2.7138Y6.9004
N26320X2.7144Y6.8983
N26330X2.7323Y6.8884
N26340X2.7620Y6.8707
N26350X2.7911Y6.8520
N26360X2.8196Y6.8324
N26370X2.8394Y6.8178
N26380Z-0.0750
N26390X2.8474Y6.8119
N26400X2.8744Y6.7905
N26410X2.9007Y6.7682
N26420X2.9262Y6.7450
N26430X2.9510Y6.7211
N26440X2.9612Y6.7105
N26450G01Z-0.1500F15.0
N26460G01X2.9749Y6.6963F25.0
N26470X2.9981Y6.6708
N26480X3.0204Y6.6445
N26490X3.0418Y6.6174
N26500X3.0623Y6.5897
N26510X3.0819Y6.5612
N26520X3.1006Y6.5321
N26530X3.1183Y6.5023
N26540X3.1350Y6.4719
N26550X3.1508Y6.4409
N26560X3.1655Y6.4093
N26570X3.1791Y6.3772
N26580X3.1917Y6.3445
N26590X3.2032Y6.3113
N26600X3.2136Y6.2776
N26610X3.2228Y6.2434
N26620X3.2309Y6.2088
N26630X3.2378Y6.1737
N26640X3.2435Y6.1383
N26650X3.2480Y6.1024
N26660X3.2512Y6.0663
N26670X3.2531Y6.0297
N26680X3.2538Y5.9932
N26690Y5.8780
N26700Z-0.0750
N26710Y5.7425
N26720X3.2535Y5.7310
N26730X3.2538Y5.7194
N26740X3.2536Y5.7155
N26750G01Z-0.1500F15.0
N26760G01X3.2526Y5.6942F25.0
N26770X3.2491Y5.6689
N26780X3.2433Y5.6442
N26790X3.2353Y5.6198
N26800X3.2252Y5.5961
N26810X3.2131Y5.5728
N26820X3.1991Y5.5502
N26830X3.1832Y5.5282
N26840X3.1656Y5.5068
N26850X3.1462Y5.4860
N26860X3.1252Y5.4659
N26870X3.1026Y5.4464
N26880X3.0785Y5.4275
N26890X3.0528Y5.4093
N26900X3.0258Y5.3917
N26910X2.9973Y5.3748
N26920X2.9675Y5.3586
N26930X2.9364Y5.3430
N26940X2.9040Y5.3282
N26950X2.8704Y5.3141
N26960X2.8356Y5.3007
N26970X2.7996Y5.2880
N26980X2.7626Y5.2761
N26990X2.7246Y5.2651
N27000X2.6855Y5.2548
N27010X2.6455Y5.2453
N27020X2.6045Y5.2367
N27030X2.5627Y5.2290
N27040X2.5200Y5.2222
N27050X2.4766Y5.2163
N27060X2.4324Y5.2113
N27070X2.3879Y5.2073
N27080G2X2.3538Y5.2384I-0.0028J0.0311
N27090G01Y5.3468
N27100Y5.4800
N27110X2.2817Y5.5525
N27120G2X2.2726Y5.5745I0.0221J0.0220
N27130G01Y5.6179
N27140G2X2.3038Y5.6492I0.0313J0.0000
N27150G01X2.5138
N27160Y5.7217
N27170X1.9313
N27180Y5.6492
N27190X2.1413
N27200G2X2.1725Y5.6179I0.0000J-0.0313
N27210G01Y5.5745
N27220G2X2.1634Y5.5525I-0.0313J0.0000
N27230G01X2.0913Y5.4800
N27240Y5.3468
N27250Y5.2389
N27260G2X2.0572Y5.2078I-0.0313J0.0000
N27270G01X2.0166Y5.2116
N27280X1.9763Y5.2161
N27290X1.9367Y5.2215
N27300X1.8977Y5.2276
N27310X1.8593Y5.2344
N27320X1.8217Y5.2420
N27330X1.7849Y5.2503
N27340X1.7488Y5.2593
N27350X1.7135Y5.2690
N27360X1.6791Y5.2793
N27370X1.6456Y5.2903
N27380X1.6129Y5.3019
N27390X1.5813Y5.3142
N27400X1.5506Y5.3270
N27410X1.5209Y5.3405
N27420X1.4923Y5.3545
N27430X1.4647Y5.3692
N27440X1.4383Y5.3843
N27450X1.4130Y5.4001
N27460X1.3889Y5.4164
N27470X1.3660Y5.4332
N27480X1.3443Y5.4506
N27490X1.3240Y5.4685
N27500X1.3049Y5.4869
N27510X1.2873Y5.5058
N27520X1.2710Y5.5253
N27530X1.2563Y5.5452
N27540X1.2430Y5.5657
N27550X1.2313Y5.5867
N27560X1.2213Y5.6082
N27570X1.2130Y5.6301
N27580Z-0.0750
N27590X1.2069Y5.6510
N27600X1.2004Y5.6719
N27610X1.1954Y5.6950
N27620X1.1923Y5.7187
N27630X1.1913Y5.7422
N27640Y5.7902
N27650G01Z-0.1500F15.0
N27660G01Y5.9932F25.0
N27670X1.1919Y6.0297
N27680X1.1939Y6.0663
N27690X1.1971Y6.1024
N27700X1.2016Y6.1383
N27710X1.2073Y6.1737
N27720X1.2142Y6.2088
N27730X1.2223Y6.2434
N27740X1.2315Y6.2776
N27750X1.2419Y6.3113
N27760X1.2534Y6.3445
N27770X1.2660Y6.3772
N27780X1.2796Y6.4093
N27790X1.2943Y6.4409
N27800X1.3101Y6.4719
N27810X1.3268Y6.5023
N27820X1.3445Y6.5321
N27830X1.3632Y6.5612
N27840X1.3828Y6.5897
N27850X1.4033Y6.6174
N27860X1.4247Y6.6445
N27870X1.4470Y6.6708
N27880X1.4702Y6.6963
N27890X1.4941Y6.7211
N27900X1.5073Y6.7339
N27910Z-0.0750
N27920X1.5189Y6.7451
N27930X1.5444Y6.7682
N27940X1.5707Y6.7905
N27950X1.5978Y6.8119
N27960X1.6255Y6.8324
N27970X1.6325Y6.8372
N27980G01Z-0.1500F15.0
N27990G01X1.6540Y6.8520F25.0
N28000X1.6831Y6.8707
N28010X1.7129Y6.8884
N28020X1.7308Y6.8983
N28030G00Z0.2500
N28040G00X1.2409Y4.3325
N28050G01Z-0.0500F15.0
N28060G01X1.2414Y4.3346F25.0
N28070X1.2464Y4.3508
N28080X1.2525Y4.3667
N28090X1.2595Y4.3822
N28100X1.2675Y4.3973
N28110X1.2764Y4.4120
N28120X1.2861Y4.4264
N28130X1.2967Y4.4403
N28140X1.3081Y4.4537
N28150X1.3202Y4.4668
N28160X1.3331Y4.4793
N28170X1.3467Y4.4914
N28180X1.3610Y4.5031
N28190X1.3760Y4.5142
N28200X1.3916Y4.5249
N28210X1.4078Y4.5350
N28220X1.4246Y4.5447
N28230X1.4420Y4.5538
N28240X1.4599Y4.5624
N28250X1.4784Y4.5704
N28260X1.4973Y4.5779
N28270X1.5167Y4.5848
N28280X1.5366Y4.5911
N28290X1.5570Y4.5968
N28300X1.5777Y4.6018
N28310X1.5988Y4.6063
N28320X1.6203Y4.6101
N28330X1.6422Y4.6132
N28340X1.6644Y4.6157
N28350X1.6869Y4.6175
N28360X1.7096Y4.6186
N28370X1.7327Y4.6190
N28380X1.7557Y4.6186
N28390X1.7785Y4.6175
N28400X1.8010Y4.6157
N28410X1.8232Y4.6132
N28420X1.8450Y4.6101
N28430X1.8665Y4.6063
N28440X1.8877Y4.6018
N28450X1.9084Y4.5968
N28460X1.9287Y4.5911
N28470X1.9486Y4.5848
N28480X1.9680Y4.5779
N28490X1.9870Y4.5704
N28500X2.0054Y4.5624
N28510X2.0234Y4.5538
N28520X2.0407Y4.5447
N28530X2.0575Y4.5350
N28540X2.0738Y4.5249
N28550X2.0894Y4.5142
N28560X2.1043Y4.5031
N28570X2.1186Y4.4914
N28580X2.1322Y4.4793
N28590X2.1451Y4.4668
N28600X2.1573Y4.4537
N28610X2.1686Y4.4403
N28620X2.1792Y4.4264
N28630X2.1890Y4.4120
N28640X2.1978Y4.3973
N28650X2.2058Y4.3822
N28660X2.2128Y4.3667
N28670X2.2189Y4.3508
N28680X2.2240Y4.3346
N28690X2.2245Y4.3325
N28700X2.2424Y4.3227
N28710X2.2721Y4.3049
N28720X2.3013Y4.2863
N28730X2.3297Y4.2666
N28740X2.3538Y4.2488
N28750X2.3575Y4.2461
N28760X2.3845Y4.2247
N28770X2.4108Y4.2024
N28780X2.4363Y4.1793
N28790X2.4611Y4.1553
N28800X2.4750Y4.1409
N28810X2.4851Y4.1305
N28820X2.5082Y4.1050
N28830X2.5305Y4.0787
N28840X2.5519Y4.0516
N28850X2.5724Y4.0239
N28860X2.5920Y3.9954
N28870X2.6107Y3.9663
N28880X2.6284Y3.9365
N28890X2.6452Y3.9061
N28900X2.6609Y3.8751
N28910X2.6756Y3.8435
N28920X2.6893Y3.8114
N28930X2.7018Y3.7787
N28940X2.7133Y3.7455
N28950X2.7237Y3.7118
N28960X2.7330Y3.6776
N28970X2.7410Y3.6430
N28980X2.7479Y3.6079
N28990X2.7536Y3.5725
N29000X2.7581Y3.5367
N29010X2.7613Y3.5005
N29020X2.7633Y3.4640
N29030X2.7639Y3.4274
N29040Y3.2465
N29050Y3.1768
N29060X2.7636Y3.1652
N29070X2.7639Y3.1536
N29080X2.7628Y3.1284
N29090X2.7592Y3.1032
N29100X2.7549Y3.0847
N29110X2.7534Y3.0784
N29120X2.7454Y3.0540
N29130X2.7353Y3.0303
N29140X2.7232Y3.0071
N29150X2.7092Y2.9844
N29160X2.6933Y2.9624
N29170X2.6757Y2.9410
N29180X2.6563Y2.9203
N29190X2.6353Y2.9001
N29200X2.6127Y2.8806
N29210X2.5886Y2.8618
N29220X2.5630Y2.8435
N29230X2.5359Y2.8260
N29240X2.5074Y2.8090
N29250X2.4776Y2.7928
N29260X2.4465Y2.7773
N29270X2.4141Y2.7624
N29280X2.3805Y2.7483
N29290X2.3457Y2.7349
N29300X2.3098Y2.7222
N29310X2.2727Y2.7104
N29320X2.2347Y2.6993
N29330X2.1956Y2.6890
N29340X2.1556Y2.6796
N29350X2.1146Y2.6710
N29360X2.0728Y2.6632
N29370X2.0301Y2.6564
N29380X1.9867Y2.6505
N29390X1.9425Y2.6455
N29400X1.8980Y2.6415
N29410G2X1.8639Y2.6726I-0.0028J0.0311
N29420G01Y2.7810
N29430Y2.9142
N29440X1.7918Y2.9867
N29450G2X1.7827Y3.0088I0.0221J0.0220
N29460G01Y3.0521
N29470G2X1.8139Y3.0834I0.0313J0.0000
N29480G01X2.0239
N29490Y3.1559
N29500X1.4414
N29510Y3.0834
N29520X1.6514
N29530G2X1.6827Y3.0521I0.0000J-0.0313
N29540G01Y3.0088
N29550G2X1.6736Y2.9867I-0.0313J0.0000
N29560G01X1.6014Y2.9142
N29570Y2.7810
N29580Y2.6731
N29590G2X1.5673Y2.6420I-0.0313J0.0000
N29600G01X1.5267Y2.6458
N29610X1.4865Y2.6503
N29620X1.4468Y2.6557
N29630X1.4078Y2.6618
N29640X1.3694Y2.6686
N29650X1.3318Y2.6762
N29660X1.2950Y2.6845
N29670X1.2589Y2.6935
N29680X1.2236Y2.7032
N29690X1.1892Y2.7135
N29700X1.1557Y2.7245
N29710X1.1231Y2.7361
N29720X1.0914Y2.7484
N29730X1.0607Y2.7612
N29740X1.0310Y2.7747
N29750X1.0024Y2.7887
N29760X0.9748Y2.8034
N29770X0.9484Y2.8186
N29780X0.9231Y2.8343
N29790X0.8990Y2.8506
N29800X0.8761Y2.8674
N29810X0.8544Y2.8848
N29820X0.8341Y2.9027
N29830X0.8151Y2.9211
N29840X0.7974Y2.9400
N29850X0.7812Y2.9595
N29860X0.7664Y2.9794
N29870X0.7531Y2.9999
N29880X0.7415Y3.0209
N29890X0.7314Y3.0424
N29900X0.7231Y3.0643
N29910X0.7183Y3.0808
N29920X0.7170Y3.0852
N29930X0.7105Y3.1061
N29940X0.7055Y3.1292
N29950X0.7024Y3.1529
N29960X0.7014Y3.1765
N29970Y3.2414
N29980Y3.4274
N29990X0.7021Y3.4640
N30000X0.7040Y3.5005
N30010X0.7072Y3.5367
N30020X0.7117Y3.5725
N30030X0.7174Y3.6079
N30040X0.7243Y3.6430
N30050X0.7324Y3.6776
N30060X0.7416Y3.7118
N30070X0.7520Y3.7455
N30080X0.7635Y3.7787
N30090X0.7761Y3.8114
N30100X0.7898Y3.8435
N30110X0.8045Y3.8751
N30120X0.8202Y3.9061
N30130X0.8369Y3.9365
N30140X0.8546Y3.9663
N30150X0.8733Y3.9954
N30160X0.8929Y4.0239
N30170X0.9134Y4.0516
N30180X0.9349Y4.0787
N30190X0.9571Y4.1050
N30200X0.9803Y4.1305
N30210X1.0042Y4.1553
N30220X1.0290Y4.1793
N30230X1.0515Y4.1997
N30240X1.0545Y4.2024
N30250X1.0808Y4.2247
N30260X1.1079Y4.2461
N30270X1.1356Y4.2666
N30280X1.1641Y4.2863
N30290X1.1812Y4.2973
N30300X1.1932Y4.3049
N30310X1.2230Y4.3227
N30320X1.2409Y4.3325
N30330G01Z-0.1000F15.0
N30340G01X1.2414Y4.3346F25.0
N30350X1.2464Y4.3508
N30360X1.2525Y4.3667
N30370X1.2595Y4.3822
N30380X1.2675Y4.3973
N30390X1.2764Y4.4120
N30400X1.2861Y4.4264
N30410X1.2967Y4.4403
N30420X1.3081Y4.4537
N30430X1.3202Y4.4668
N30440X1.3331Y4.4793
N30450X1.3467Y4.4914
N30460X1.3610Y4.5031
N30470X1.3760Y4.5142
N30480X1.3916Y4.5249
N30490X1.4078Y4.5350
N30500X1.4246Y4.5447
N30510X1.4420Y4.5538
N30520X1.4599Y4.5624
N30530X1.4784Y4.5704
N30540X1.4973Y4.5779
N30550X1.5167Y4.5848
N30560X1.5366Y4.5911
N30570X1.5570Y4.5968
N30580X1.5777Y4.6018
N30590X1.5988Y4.6063
N30600X1.6203Y4.6101
N30610X1.6422Y4.6132
N30620X1.6644Y4.6157
N30630X1.6869Y4.6175
N30640X1.7096Y4.6186
N30650X1.7327Y4.6190
N30660X1.7557Y4.6186
N30670X1.7785Y4.6175
N30680X1.8010Y4.6157
N30690X1.8232Y4.6132
N30700X1.8450Y4.6101
N30710X1.8665Y4.6063
N30720X1.8877Y4.6018
N30730X1.9084Y4.5968
N30740X1.9287Y4.5911
N30750X1.9486Y4.5848
N30760X1.9680Y4.5779
N30770X1.9870Y4.5704
N30780X2.0054Y4.5624
N30790X2.0234Y4.5538
N30800X2.0407Y4.5447
N30810X2.0575Y4.5350
N30820X2.0738Y4.5249
N30830X2.0894Y4.5142
N30840X2.1043Y4.5031
N30850X2.1186Y4.4914
N30860X2.1322Y4.4793
N30870X2.1451Y4.4668
N30880X2.1573Y4.4537
N30890X2.1686Y4.4403
N30900X2.1792Y4.4264
N30910X2.1890Y4.4120
N30920X2.1978Y4.3973
N30930X2.2058Y4.3822
N30940X2.2128Y4.3667
N30950X2.2189Y4.3508
N30960X2.2240Y4.3346
N30970X2.2245Y4.3325
N30980X2.2424Y4.3227
N30990X2.2721Y4.3049
N31000X2.3013Y4.2863
N31010X2.3297Y4.2666
N31020X2.3538Y4.2488
N31030Z-0.0750
N31040X2.3575Y4.2461
N31050X2.3845Y4.2247
N31060X2.4108Y4.2024
N31070X2.4363Y4.1793
N31080X2.4611Y4.1553
N31090X2.4750Y4.1409
N31100G01Z-0.1000F15.0
N31110G01X2.4851Y4.1305F25.0
N31120X2.5082Y4.1050
N31130X2.5305Y4.0787
N31140X2.5519Y4.0516
N31150X2.5724Y4.0239
N31160X2.5920Y3.9954
N31170X2.6107Y3.9663
N31180X2.6284Y3.9365
N31190X2.6452Y3.9061
N31200X2.6609Y3.8751
N31210X2.6756Y3.8435
N31220X2.6893Y3.8114
N31230X2.7018Y3.7787
N31240X2.7133Y3.7455
N31250X2.7237Y3.7118
N31260X2.7330Y3.6776
N31270X2.7410Y3.6430
N31280X2.7479Y3.6079
N31290X2.7536Y3.5725
N31300X2.7581Y3.5367
N31310X2.7613Y3.5005
N31320X2.7633Y3.4640
N31330X2.7639Y3.4274
N31340Y3.2465
N31350Z-0.0750
N31360Y3.1768
N31370X2.7636Y3.1652
N31380X2.7639Y3.1536
N31390X2.7628Y3.1284
N31400X2.7592Y3.1032
N31410X2.7549Y3.0847
N31420G01Z-0.1000F15.0
N31430G01X2.7534Y3.0784F25.0
N31440X2.7454Y3.0540
N31450X2.7353Y3.0303
N31460X2.7232Y3.0071
N31470X2.7092Y2.9844
N31480X2.6933Y2.9624
N31490X2.6757Y2.9410
N31500X2.6563Y2.9203
N31510X2.6353Y2.9001
N31520X2.6127Y2.8806
N31530X2.5886Y2.8618
N31540X2.5630Y2.8435
N31550X2.5359Y2.8260
N31560X2.5074Y2.8090
N31570X2.4776Y2.7928
N31580X2.4465Y2.7773
N31590X2.4141Y2.7624
N31600X2.3805Y2.7483
N31610X2.3457Y2.7349
N31620X2.3098Y2.7222
N31630X2.2727Y2.7104
N31640X2.2347Y2.6993
N31650X2.1956Y2.6890
N31660X2.1556Y2.6796
N31670X2.1146Y2.6710
N31680X2.0728Y2.6632
N31690X2.0301Y2.6564
N31700X1.9867Y2.6505
N31710X1.9425Y2.6455
N31720X1.8980Y2.6415
N31730G2X1.8639Y2.6726I-0.0028J0.0311
N31740G01Y2.7810
N31750Y2.9142
N31760X1.7918Y2.9867
N31770G2X1.7827Y3.0088I0.0221J0.0220
N31780G01Y3.0521
N31790G2X1.8139Y3.0834I0.0313J0.0000
N31800G01X2.0239
N31810Y3.1559
N31820X1.4414
N31830Y3.0834
N31840X1.6514
N31850G2X1.6827Y3.0521I0.0000J-0.0313
N31860G01Y3.0088
N31870G2X1.6736Y2.9867I-0.0313J0.0000
N31880G01X1.6014Y2.9142
N31890Y2.7810
N31900Y2.6731
N31910G2X1.5673Y2.6420I-0.0313J0.0000
N31920G01X1.5267Y2.6458
N31930X1.4865Y2.6503
N31940X1.4468Y2.6557
N31950X1.4078Y2.6618
N31960X1.3694Y2.6686
N31970X1.3318Y2.6762
N31980X1.2950Y2.6845
N31990X1.2589Y2.6935
N32000X1.2236Y2.7032
N32010X1.1892Y2.7135
N32020X1.1557Y2.7245
N32030X1.1231Y2.7361
N32040X1.0914Y2.7484
N32050X1.0607Y2.7612
N32060X1.0310Y2.7747
N32070X1.0024Y2.7887
N32080X0.9748Y2.8034
N32090X0.9484Y2.8186
N32100X0.9231Y2.8343
N32110X0.8990Y2.8506
N32120X0.8761Y2.8674
N32130X0.8544Y2.8848
N32140X0.8341Y2.9027
N32150X0.8151Y2.9211
N32160X0.7974Y2.9400
N32170X0.7812Y2.9595
N32180X0.7664Y2.9794
N32190X0.7531Y2.9999
N32200X0.7415Y3.0209
N32210X0.7314Y3.0424
N32220X0.7231Y3.0643
N32230X0.7183Y3.0808
N32240Z-0.0750
N32250X0.7170Y3.0852
N32260X0.7105Y3.1061
N32270X0.7055Y3.1292
N32280X0.7024Y3.1529
N32290X0.7014Y3.1765
N32300Y3.2414
N32310G01Z-0.1000F15.0
N32320G01Y3.4274F25.0
N32330X0.7021Y3.4640
N32340X0.7040Y3.5005
N32350X0.7072Y3.5367
N32360X0.7117Y3.5725
N32370X0.7174Y3.6079
N32380X0.7243Y3.6430
N32390X0.7324Y3.6776
N32400X0.7416Y3.7118
N32410X0.7520Y3.7455
N32420X0.7635Y3.7787
N32430X0.7761Y3.8114
N32440X0.7898Y3.8435
N32450X0.8045Y3.8751
N32460X0.8202Y3.9061
N32470X0.8369Y3.9365
N32480X0.8546Y3.9663
N32490X0.8733Y3.9954
N32500X0.8929Y4.0239
N32510X0.9134Y4.0516
N32520X0.9349Y4.0787
N32530X0.9571Y4.1050
N32540X0.9803Y4.1305
N32550X1.0042Y4.1553
N32560X1.0290Y4.1793
N32570X1.0515Y4.1997
N32580Z-0.0750
N32590X1.0545Y4.2024
N32600X1.0808Y4.2247
N32610X1.1079Y4.2461
N32620X1.1356Y4.2666
N32630X1.1641Y4.2863
N32640X1.1812Y4.2973
N32650G01Z-0.1000F15.0
N32660G01X1.1932Y4.3049F25.0
N32670X1.2230Y4.3227
N32680X1.2409Y4.3325
N32690G01Z-0.1500F15.0
N32700G01X1.2414Y4.3346F25.0
N32710X1.2464Y4.3508
N32720X1.2525Y4.3667
N32730X1.2595Y4.3822
N32740X1.2675Y4.3973
N32750X1.2764Y4.4120
N32760X1.2861Y4.4264
N32770X1.2967Y4.4403
N32780X1.3081Y4.4537
N32790X1.3202Y4.4668
N32800X1.3331Y4.4793
N32810X1.3467Y4.4914
N32820X1.3610Y4.5031
N32830X1.3760Y4.5142
N32840X1.3916Y4.5249
N32850X1.4078Y4.5350
N32860X1.4246Y4.5447
N32870X1.4420Y4.5538
N32880X1.4599Y4.5624
N32890X1.4784Y4.5704
N32900X1.4973Y4.5779
N32910X1.5167Y4.5848
N32920X1.5366Y4.5911
N32930X1.5570Y4.5968
N32940X1.5777Y4.6018
N32950X1.5988Y4.6063
N32960X1.6203Y4.6101
N32970X1.6422Y4.6132
N32980X1.6644Y4.6157
N32990X1.6869Y4.6175
N33000X1.7096Y4.6186
N33010X1.7327Y4.6190
N33020X1.7557Y4.6186
N33030X1.7785Y4.6175
N33040X1.8010Y4.6157
N33050X1.8232Y4.6132
N33060X1.8450Y4.6101
N33070X1.8665Y4.6063
N33080X1.8877Y4.6018
N33090X1.9084Y4.5968
N33100X1.9287Y4.5911
N33110X1.9486Y4.5848
N33120X1.9680Y4.5779
N33130X1.9870Y4.5704
N33140X2.0054Y4.5624
N33150X2.0234Y4.5538
N33160X2.0407Y4.5447
N33170X2.0575Y4.5350
N33180X2.0738Y4.5249
N33190X2.0894Y4.5142
N33200X2.1043Y4.5031
N33210X2.1186Y4.4914
N33220X2.1322Y4.4793
N33230X2.1451Y4.4668
N33240X2.1573Y4.4537
N33250X2.1686Y4.4403
N33260X2.1792Y4.4264
N33270X2.1890Y4.4120
N33280X2.1978Y4.3973
N33290X2.2058Y4.3822
N33300X2.2128Y4.3667
N33310X2.2189Y4.3508
N33320X2.2240Y4.3346
N33330X2.2245Y4.3325
N33340X2.2424Y4.3227
N33350X2.2721Y4.3049
N33360X2.3013Y4.2863
N33370X2.3297Y4.2666
N33380X2.3538Y4.2488
N33390Z-0.0750
N33400X2.3575Y4.2461
N33410X2.3845Y4.2247
N33420X2.4108Y4.2024
N33430X2.4363Y4.1793
N33440X2.4611Y4.1553
N33450X2.4750Y4.1409
N33460G01Z-0.1500F15.0
N33470G01X2.4851Y4.1305F25.0
N33480X2.5082Y4.1050
N33490X2.5305Y4.0787
N33500X2.5519Y4.0516
N33510X2.5724Y4.0239
N33520X2.5920Y3.9954
N33530X2.6107Y3.9663
N33540X2.6284Y3.9365
N33550X2.6452Y3.9061
N33560X2.6609Y3.8751
N33570X2.6756Y3.8435
N33580X2.6893Y3.8114
N33590X2.7018Y3.7787
N33600X2.7133Y3.7455
N33610X2.7237Y3.7118
N33620X2.7330Y3.6776
N33630X2.7410Y3.6430
N33640X2.7479Y3.6079
N33650X2.7536Y3.5725
N33660X2.7581Y3.5367
N33670X2.7613Y3.5005
N33680X2.7633Y3.4640
N33690X2.7639Y3.4274
N33700Y3.2465
N33710Z-0.0750
N33720Y3.1768
N33730X2.7636Y3.1652
N33740X2.7639Y3.1536
N33750X2.7628Y3.1284
N33760X2.7592Y3.1032
N33770X2.7549Y3.0847
N33780G01Z-0.1500F15.0
N33790G01X2.7534Y3.0784F25.0
N33800X2.7454Y3.0540
N33810X2.7353Y3.0303
N33820X2.7232Y3.0071
N33830X2.7092Y2.9844
N33840X2.6933Y2.9624
N33850X2.6757Y2.9410
N33860X2.6563Y2.9203
N33870X2.6353Y2.9001
N33880X2.6127Y2.8806
N33890X2.5886Y2.8618
N33900X2.5630Y2.8435
N33910X2.5359Y2.8260
N33920X2.5074Y2.8090
N33930X2.4776Y2.7928
N33940X2.4465Y2.7773
N33950X2.4141Y2.7624
N33960X2.3805Y2.7483
N33970X2.3457Y2.7349
N33980X2.3098Y2.7222
N33990X2.2727Y2.7104
N34000X2.2347Y2.6993
N34010X2.1956Y2.6890
N34020X2.1556Y2.6796
N34030X2.1146Y2.6710
N34040X2.0728Y2.6632
N34050X2.0301Y2.6564
N34060X1.9867Y2.6505
N34070X1.9425Y2.6455
N34080X1.8980Y2.6415
N34090G2X1.8639Y2.6726I-0.0028J0.0311
N34100G01Y2.7810
N34110Y2.9142
N34120X1.7918Y2.9867
N34130G2X1.7827Y3.0088I0.0221J0.0220
N34140G01Y3.0521
N34150G2X1.8139Y3.0834I0.0313J0.0000
N34160G01X2.0239
N34170Y3.1559
N34180X1.4414
N34190Y3.0834
N34200X1.6514
N34210G2X1.6827Y3.0521I0.0000J-0.0313
N34220G01Y3.0088
N34230G2X1.6736Y2.9867I-0.0313J0.0000
N34240G01X1.6014Y2.9142
N34250Y2.7810
N34260Y2.6731
N34270G2X1.5673Y2.6420I-0.0313J0.0000
N34280G01X1.5267Y2.6458
N34290X1.4865Y2.6503
N34300X1.4468Y2.6557
N34310X1.4078Y2.6618
N34320X1.3694Y2.6686
N34330X1.3318Y2.6762
N34340X1.2950Y2.6845
N34350X1.2589Y2.6935
N34360X1.2236Y2.7032
N34370X1.1892Y2.7135
N34380X1.1557Y2.7245
N34390X1.1231Y2.7361
N34400X1.0914Y2.7484
N34410X1.0607Y2.7612
N34420X1.0310Y2.7747
N34430X1.0024Y2.7887
N34440X0.9748Y2.8034
N34450X0.9484Y2.8186
N34460X0.9231Y2.8343
N34470X0.8990Y2.8506
N34480X0.8761Y2.8674
N34490X0.8544Y2.8848
N34500X0.8341Y2.9027
N34510X0.8151Y2.9211
N34520X0.7974Y2.9400
N34530X0.7812Y2.9595
N34540X0.7664Y2.9794
N34550X0.7531Y2.9999
N34560X0.7415Y3.0209
N34570X0.7314Y3.0424
N34580X0.7231Y3.0643
N34590X0.7183Y3.0808
N34600Z-0.0750
N34610X0.7170Y3.0852
N34620X0.7105Y3.1061
N34630X0.7055Y3.1292
N34640X0.7024Y3.1529
N34650X0.7014Y3.1765
N34660Y3.2414
N34670G01Z-0.1500F15.0
N34680G01Y3.4274F25.0
N34690X0.7021Y3.4640
N34700X0.7040Y3.5005
N34710X0.7072Y3.5367
N34720X0.7117Y3.5725
N34730X0.7174Y3.6079
N34740X0.7243Y3.6430
N34750X0.7324Y3.6776
N34760X0.7416Y3.7118
N34770X0.7520Y3.7455
N34780X0.7635Y3.7787
N34790X0.7761Y3.8114
N34800X0.7898Y3.8435
N34810X0.8045Y3.8751
N34820X0.8202Y3.9061
N34830X0.8369Y3.9365
N34840X0.8546Y3.9663
N34850X0.8733Y3.9954
N34860X0.8929Y4.0239
N34870X0.9134Y4.0516
N34880X0.9349Y4.0787
N34890X0.9571Y4.1050
N34900X0.9803Y4.1305
N34910X1.0042Y4.1553
N34920X1.0290Y4.1793
N34930X1.0515Y4.1997
N34940Z-0.0750
N34950X1.0545Y4.2024
N34960X1.0808Y4.2247
N34970X1.1079Y4.2461
N34980X1.1356Y4.2666
N34990X1.1641Y4.2863
N35000X1.1812Y4.2973
N35010G01Z-0.1500F15.0
N35020G01X1.1932Y4.3049F25.0
N35030X1.2230Y4.3227
N35040X1.2409Y4.3325
N35050G00Z0.2500
N35060G00X3.3993Y3.8729
N35070G01Z-0.0500F15.0
N35080G01X3.4175Y3.8723F25.0
N35090X3.4355Y3.8705
N35100X3.4532Y3.8676
N35110X3.4706Y3.8636
N35120X3.4877Y3.8585
N35130X3.5044Y3.8524
N35140X3.5207Y3.8452
N35150X3.5366Y3.8371
N35160X3.5521Y3.8281
N35170X3.5670Y3.8181
N35180X3.5815Y3.8073
N35190X3.5956Y3.7957
N35200X3.6090Y3.7833
N35210X3.6220Y3.7701
N35220X3.6344Y3.7562
N35230X3.6462Y3.7416
N35240X3.6575Y3.7264
N35250X3.6681Y3.7104
N35260X3.6782Y3.6939
N35270X3.6876Y3.6768
N35280X3.6963Y3.6591
N35290X3.7044Y3.6409
N35300X3.7119Y3.6222
N35310X3.7186Y3.6030
N35320X3.7246Y3.5833
N35330X3.7298Y3.5632
N35340X3.7344Y3.5427
N35350X3.7381Y3.5218
N35360X3.7410Y3.5005
N35370X3.7432Y3.4790
N35380X3.7439Y3.4662
N35390X3.8037
N35400X3.8368
N35410G2X3.8681Y3.4349I0.0000J-0.0313
N35420G01Y3.3647
N35430Y3.3195
N35440Y3.1570
N35450Y2.2187
N35460G2X3.8368Y2.1874I-0.0313J0.0000
N35470G01X3.4418
N35480X3.2793
N35490X2.9618
N35500G2X2.9306Y2.2187I0.0000J0.0313
N35510G01Y3.1570
N35520Y3.3195
N35530Y3.3647
N35540Y3.4349
N35550G2X2.9618Y3.4662I0.0313J0.0000
N35560G01X2.9950
N35570X3.0547
N35580X3.0555Y3.4790
N35590X3.0576Y3.5005
N35600X3.0606Y3.5218
N35610X3.0643Y3.5427
N35620X3.0688Y3.5632
N35630X3.0741Y3.5833
N35640X3.0801Y3.6030
N35650X3.0868Y3.6222
N35660X3.0942Y3.6409
N35670X3.1023Y3.6591
N35680X3.1111Y3.6768
N35690X3.1205Y3.6939
N35700X3.1306Y3.7104
N35710X3.1412Y3.7264
N35720X3.1525Y3.7416
N35730X3.1643Y3.7562
N35740X3.1767Y3.7701
N35750X3.1897Y3.7833
N35760X3.2031Y3.7957
N35770X3.2171Y3.8073
N35780X3.2316Y3.8181
N35790X3.2466Y3.8281
N35800X3.2621Y3.8371
N35810X3.2780Y3.8452
N35820X3.2943Y3.8524
N35830X3.3110Y3.8585
N35840X3.3280Y3.8636
N35850X3.3454Y3.8676
N35860X3.3632Y3.8705
N35870X3.3811Y3.8723
N35880X3.3993Y3.8729
N35890G01Z-0.1000F15.0
N35900G01X3.4175Y3.8723F25.0
N35910X3.4355Y3.8705
N35920X3.4532Y3.8676
N35930X3.4706Y3.8636
N35940X3.4877Y3.8585
N35950X3.5044Y3.8524
N35960X3.5207Y3.8452
N35970X3.5366Y3.8371
N35980X3.5521Y3.8281
N35990X3.5670Y3.8181
N36000X3.5815Y3.8073
N36010X3.5956Y3.7957
N36020X3.6090Y3.7833
N36030X3.6220Y3.7701
N36040X3.6344Y3.7562
N36050X3.6462Y3.7416
N36060X3.6575Y3.7264
N36070X3.6681Y3.7104
N36080X3.6782Y3.6939
N36090X3.6876Y3.6768
N36100X3.6963Y3.6591
N36110X3.7044Y3.6409
N36120X3.7119Y3.6222
N36130X3.7186Y3.6030
N36140X3.7246Y3.5833
N36150X3.7298Y3.5632
N36160X3.7344Y3.5427
N36170X3.7381Y3.5218
N36180X3.7410Y3.5005
N36190X3.7432Y3.4790
N36200X3.7439Y3.4662
N36210X3.8037
N36220X3.8368
N36230G2X3.8681Y3.4349I0.0000J-0.0313
N36240G01Y3.3647
N36250Y3.3195
N36260Z-0.0750
N36270Y3.1570
N36280G01Z-0.1000F15.0
N36290G01Y2.2187F25.0
N36300G2X3.8368Y2.1874I-0.0313J0.0000
N36310G01X3.4418
N36320Z-0.0750
N36330X3.2793
N36340G01Z-0.1000F15.0
N36350G01X2.9618F25.0
N36360G2X2.9306Y2.2187I0.0000J0.0313
N36370G01Y3.1570
N36380Z-0.0750
N36390Y3.3195
N36400G01Z-0.1000F15.0
N36410G01Y3.3647F25.0
N36420Y3.4349
N36430G2X2.9618Y3.4662I0.0313J0.0000
N36440G01X2.9950
N36450X3.0547
N36460X3.0555Y3.4790
N36470X3.0576Y3.5005
N36480X3.0606Y3.5218
N36490X3.0643Y3.5427
N36500X3.0688Y3.5632
N36510X3.0741Y3.5833
N36520X3.0801Y3.6030
N36530X3.0868Y3.6222
N36540X3.0942Y3.6409
N36550X3.1023Y3.6591
N36560X3.1111Y3.6768
N36570X3.1205Y3.6939
N36580X3.1306Y3.7104
N36590X3.1412Y3.7264
N36600X3.1525Y3.7416
N36610X3.1643Y3.7562
N36620X3.1767Y3.7701
N36630X3.1897Y3.7833
N36640X3.2031Y3.7957
N36650X3.2171Y3.8073
N36660X3.2316Y3.8181
N36670X3.2466Y3.8281
N36680X3.2621Y3.8371
N36690X3.2780Y3.8452
N36700X3.2943Y3.8524
N36710X3.3110Y3.8585
N36720X3.3280Y3.8636
N36730X3.3454Y3.8676
N36740X3.3632Y3.8705
N36750X3.3811Y3.8723
N36760X3.3993Y3.8729
N36770G01Z-0.1500F15.0
N36780G01X3.4175Y3.8723F25.0
N36790X3.4355Y3.8705
N36800X3.4532Y3.8676
N36810X3.4706Y3.8636
N36820X3.4877Y3.8585
N36830X3.5044Y3.8524
N36840X3.5207Y3.8452
N36850X3.5366Y3.8371
N36860X3.5521Y3.8281
N36870X3.5670Y3.8181
N36880X3.5815Y3.8073
N36890X3.5956Y3.7957
N36900X3.6090Y3.7833
N36910X3.6220Y3.7701
N36920X3.6344Y3.7562
N36930X3.6462Y3.7416
N36940X3.6575Y3.7264
N36950X3.6681Y3.7104
N36960X3.6782Y3.6939
N36970X3.6876Y3.6768
N36980X3.6963Y3.6591
N36990X3.7044Y3.6409
N37000X3.7119Y3.6222
N37010X3.7186Y3.6030
N37020X3.7246Y3.5833
N37030X3.7298Y3.5632
N37040X3.7344Y3.5427
N37050X3.7381Y3.5218
N37060X3.7410Y3.5005
N37070X3.7432Y3.4790
N37080X3.7439Y3.4662
N37090X3.8037
N37100X3.8368
N37110G2X3.8681Y3.4349I0.0000J-0.0313
N37120G01Y3.3647
N37130Y3.3195
N37140Z-0.0750
N37150Y3.1570
N37160G01Z-0.1500F15.0
N37170G01Y2.2187F25.0
N37180G2X3.8368Y2.1874I-0.0313J0.0000
N37190G01X3.4418
N37200Z-0.0750
N37210X3.2793
N37220G01Z-0.1500F15.0
N37230G01X2.9618F25.0
N37240G2X2.9306Y2.2187I0.0000J0.0313
N37250G01Y3.1570
N37260Z-0.0750
N37270Y3.3195
N37280G01Z-0.1500F15.0
N37290G01Y3.3647F25.0
N37300Y3.4349
N37310G2X2.9618Y3.4662I0.0313J0.0000
N37320G01X2.9950
N37330X3.0547
N37340X3.0555Y3.4790
N37350X3.0576Y3.5005
N37360X3.0606Y3.5218
N37370X3.0643Y3.5427
N37380X3.0688Y3.5632
N37390X3.0741Y3.5833
N37400X3.0801Y3.6030
N37410X3.0868Y3.6222
N37420X3.0942Y3.6409
N37430X3.1023Y3.6591
N37440X3.1111Y3.6768
N37450X3.1205Y3.6939
N37460X3.1306Y3.7104
N37470X3.1412Y3.7264
N37480X3.1525Y3.7416
N37490X3.1643Y3.7562
N37500X3.1767Y3.7701
N37510X3.1897Y3.7833
N37520X3.2031Y3.7957
N37530X3.2171Y3.8073
N37540X3.2316Y3.8181
N37550X3.2466Y3.8281
N37560X3.2621Y3.8371
N37570X3.2780Y3.8452
N37580X3.2943Y3.8524
N37590X3.3110Y3.8585
N37600X3.3280Y3.8636
N37610X3.3454Y3.8676
N37620X3.3632Y3.8705
N37630X3.3811Y3.8723
N37640X3.3993Y3.8729
N37650G00Z0.2500
N37660G00X0.8318Y1.4135
N37670G01Z-0.0500F15.0
N37680G01X0.8324Y1.4317F25.0
N37690X0.8341Y1.4497
N37700X0.8371Y1.4674
N37710X0.8411Y1.4848
N37720X0.8462Y1.5019
N37730X0.8523Y1.5186
N37740X0.8595Y1.5349
N37750X0.8676Y1.5508
N37760X0.8766Y1.5662
N37770X0.8866Y1.5812
N37780X0.8974Y1.5957
N37790X0.9090Y1.6097
N37800X0.9214Y1.6232
N37810X0.9346Y1.6361
N37820X0.9485Y1.6485
N37830X0.9631Y1.6604
N37840X0.9783Y1.6716
N37850X0.9942Y1.6823
N37860X1.0108Y1.6923
N37870X1.0279Y1.7017
N37880X1.0456Y1.7105
N37890X1.0638Y1.7186
N37900X1.0825Y1.7260
N37910X1.1017Y1.7327
N37920X1.1214Y1.7387
N37930X1.1415Y1.7440
N37940X1.1620Y1.7485
N37950X1.1829Y1.7522
N37960X1.2042Y1.7552
N37970X1.2257Y1.7573
N37980X1.2385Y1.7581
N37990Y1.8178
N38000Y1.8510
N38010G2X1.2698Y1.8822I0.0313J0.0000
N38020G01X1.3587
N38030X1.3985
N38040X1.5212
N38050X3.2187
N38060X3.3812
N38070X3.7023
N38080G2X3.7335Y1.8510I0.0000J-0.0313
N38090G01Y0.9760
N38100G2X3.7023Y0.9447I-0.0313J0.0000
N38110G01X3.3553
N38120X3.1928
N38130X1.6423
N38140X1.4798
N38150X1.3985
N38160X1.2698
N38170G2X1.2385Y0.9760I0.0000J0.0313
N38180G01Y1.0091
N38190Y1.0689
N38200X1.2257Y1.0696
N38210X1.2042Y1.0718
N38220X1.1829Y1.0747
N38230X1.1620Y1.0785
N38240X1.1415Y1.0830
N38250X1.1214Y1.0882
N38260X1.1017Y1.0942
N38270X1.0825Y1.1010
N38280X1.0638Y1.1084
N38290X1.0456Y1.1165
N38300X1.0279Y1.1253
N38310X1.0108Y1.1347
N38320X0.9942Y1.1447
N38330X0.9783Y1.1554
N38340X0.9631Y1.1666
N38350X0.9485Y1.1784
N38360X0.9346Y1.1908
N38370X0.9214Y1.2038
N38380X0.9090Y1.2173
N38390X0.8974Y1.2313
N38400X0.8866Y1.2458
N38410X0.8766Y1.2608
N38420X0.8676Y1.2762
N38430X0.8595Y1.2921
N38440X0.8523Y1.3084
N38450X0.8462Y1.3251
N38460X0.8411Y1.3422
N38470X0.8371Y1.3596
N38480X0.8341Y1.3773
N38490X0.8324Y1.3953
N38500X0.8318Y1.4135
N38510G01Z-0.1000F15.0
N38520G01X0.8324Y1.4317F25.0
N38530X0.8341Y1.4497
N38540X0.8371Y1.4674
N38550X0.8411Y1.4848
N38560X0.8462Y1.5019
N38570X0.8523Y1.5186
N38580X0.8595Y1.5349
N38590X0.8676Y1.5508
N38600X0.8766Y1.5662
N38610X0.8866Y1.5812
N38620X0.8974Y1.5957
N38630X0.9090Y1.6097
N38640X0.9214Y1.6232
N38650X0.9346Y1.6361
N38660X0.9485Y1.6485
N38670X0.9631Y1.6604
N38680X0.9783Y1.6716
N38690X0.9942Y1.6823
N38700X1.0108Y1.6923
N38710X1.0279Y1.7017
N38720X1.0456Y1.7105
N38730X1.0638Y1.7186
N38740X1.0825Y1.7260
N38750X1.1017Y1.7327
N38760X1.1214Y1.7387
N38770X1.1415Y1.7440
N38780X1.1620Y1.7485
N38790X1.1829Y1.7522
N38800X1.2042Y1.7552
N38810X1.2257Y1.7573
N38820X1.2385Y1.7581
N38830Y1.8178
N38840Y1.8510
N38850G2X1.2698Y1.8822I0.0313J0.0000
N38860G01X1.3587
N38870Z-0.0750
N38880X1.3985
N38890X1.5212
N38900G01Z-0.1000F15.0
N38910G01X3.2187F25.0
N38920Z-0.0750
N38930X3.3812
N38940G01Z-0.1000F15.0
N38950G01X3.7023F25.0
N38960G2X3.7335Y1.8510I0.0000J-0.0313
N38970G01Y0.9760
N38980G2X3.7023Y0.9447I-0.0313J0.0000
N38990G01X3.3553
N39000Z-0.0750
N39010X3.1928
N39020G01Z-0.1000F15.0
N39030G01X1.6423F25.0
N39040Z-0.0750
N39050X1.4798
N39060G01Z-0.1000F15.0
N39070G01X1.3985F25.0
N39080X1.2698
N39090G2X1.2385Y0.9760I0.0000J0.0313
N39100G01Y1.0091
N39110Y1.0689
N39120X1.2257Y1.0696
N39130X1.2042Y1.0718
N39140X1.1829Y1.0747
N39150X1.1620Y1.0785
N39160X1.1415Y1.0830
N39170X1.1214Y1.0882
N39180X1.1017Y1.0942
N39190X1.0825Y1.1010
N39200X1.0638Y1.1084
N39210X1.0456Y1.1165
N39220X1.0279Y1.1253
N39230X1.0108Y1.1347
N39240X0.9942Y1.1447
N39250X0.9783Y1.1554
N39260X0.9631Y1.1666
N39270X0.9485Y1.1784
N39280X0.9346Y1.1908
N39290X0.9214Y1.2038
N39300X0.9090Y1.2173
N39310X0.8974Y1.2313
N39320X0.8866Y1.2458
N39330X0.8766Y1.2608
N39340X0.8676Y1.2762
N39350X0.8595Y1.2921
N39360X0.8523Y1.3084
N39370X0.8462Y1.3251
N39380X0.8411Y1.3422
N39390X0.8371Y1.3596
N39400X0.8341Y1.3773
N39410X0.8324Y1.3953
N39420X0.8318Y1.4135
N39430G01Z-0.1500F15.0
N39440G01X0.8324Y1.4317F25.0
N39450X0.8341Y1.4497
N39460X0.8371Y1.4674
N39470X0.8411Y1.4848
N39480X0.8462Y1.5019
N39490X0.8523Y1.5186
N39500X0.8595Y1.5349
N39510X0.8676Y1.5508
N39520X0.8766Y1.5662
N39530X0.8866Y1.5812
N39540X0.8974Y1.5957
N39550X0.9090Y1.6097
N39560X0.9214Y1.6232
N39570X0.9346Y1.6361
N39580X0.9485Y1.6485
N39590X0.9631Y1.6604
N39600X0.9783Y1.6716
N39610X0.9942Y1.6823
N39620X1.0108Y1.6923
N39630X1.0279Y1.7017
N39640X1.0456Y1.7105
N39650X1.0638Y1.7186
N39660X1.0825Y1.7260
N39670X1.1017Y1.7327
N39680X1.1214Y1.7387
N39690X1.1415Y1.7440
N39700X1.1620Y1.7485
N39710X1.1829Y1.7522
N39720X1.2042Y1.7552
N39730X1.2257Y1.7573
N39740X1.2385Y1.7581
N39750Y1.8178
N39760Y1.8510
N39770G2X1.2698Y1.8822I0.0313J0.0000
N39780G01X1.3587
N39790Z-0.0750
N39800X1.3985
N39810X1.5212
N39820G01Z-0.1500F15.0
N39830G01X3.2187F25.0
N39840Z-0.0750
N39850X3.3812
N39860G01Z-0.1500F15.0
N39870G01X3.7023F25.0
N39880G2X3.7335Y1.8510I0.0000J-0.0313
N39890G01Y0.9760
N39900G2X3.7023Y0.9447I-0.0313J0.0000
N39910G01X3.3553
N39920Z-0.0750
N39930X3.1928
N39940G01Z-0.1500F15.0
N39950G01X1.6423F25.0
N39960Z-0.0750
N39970X1.4798
N39980G01Z-0.1500F15.0
N39990G01X1.3985F25.0
N40000X1.2698
N40010G2X1.2385Y0.9760I0.0000J0.0313
N40020G01Y1.0091
N40030Y1.0689
N40040X1.2257Y1.0696
N40050X1.2042Y1.0718
N40060X1.1829Y1.0747
N40070X1.1620Y1.0785
N40080X1.1415Y1.0830
N40090X1.1214Y1.0882
N40100X1.1017Y1.0942
N40110X1.0825Y1.1010
N40120X1.0638Y1.1084
N40130X1.0456Y1.1165
N40140X1.0279Y1.1253
N40150X1.0108Y1.1347
N40160X0.9942Y1.1447
N40170X0.9783Y1.1554
N40180X0.9631Y1.1666
N40190X0.9485Y1.1784
N40200X0.9346Y1.1908
N40210X0.9214Y1.2038
N40220X0.9090Y1.2173
N40230X0.8974Y1.2313
N40240X0.8866Y1.2458
N40250X0.8766Y1.2608
N40260X0.8676Y1.2762
N40270X0.8595Y1.2921
N40280X0.8523Y1.3084
N40290X0.8462Y1.3251
N40300X0.8411Y1.3422
N40310X0.8371Y1.3596
N40320X0.8341Y1.3773
N40330X0.8324Y1.3953
N40340X0.8318Y1.4135
N40350G00Z0.2500
N40360G00X4.1215Y2.1207
N40370G01Z-0.0500F15.0
N40380G01X4.1340Y2.1436F25.0
N40390X4.1484Y2.1684
N40400X4.1632Y2.1928
N40410X4.1785Y2.2167
N40420X4.1942Y2.2401
N40430X4.2103Y2.2630
N40440X4.2268Y2.2854
N40450X4.2419Y2.3048
N40460X4.2438Y2.3073
N40470X4.2611Y2.3286
N40480X4.2788Y2.3494
N40490X4.2969Y2.3696
N40500X4.3154Y2.3893
N40510X4.3343Y2.4084
N40520X4.3513Y2.4248
N40530X4.3535Y2.4269
N40540X4.3731Y2.4448
N40550X4.3931Y2.4621
N40560X4.4133Y2.4788
N40570X4.4340Y2.4948
N40580X4.4549Y2.5102
N40590X4.4762Y2.5249
N40600X4.4978Y2.5390
N40610X4.5197Y2.5524
N40620X4.5419Y2.5651
N40630X4.5644Y2.5772
N40640X4.5871Y2.5884
N40650X4.6102Y2.5990
N40660X4.6335Y2.6089
N40670X4.6571Y2.6180
N40680X4.6809Y2.6263
N40690X4.7050Y2.6338
N40700X4.7293Y2.6406
N40710X4.7533Y2.6465
N40720G2X4.7920Y2.6161I0.0074J-0.0304
N40730G01Y2.5214
N40740Y2.4870
N40750X4.8641Y2.4146
N40760G2X4.8732Y2.3925I-0.0221J-0.0220
N40770G01Y2.3491
N40780G2X4.8420Y2.3179I-0.0313J0.0000
N40790G01X4.6320
N40800Y2.2454
N40810X5.2145
N40820Y2.3179
N40830X5.0045
N40840G2X4.9733Y2.3491I0.0000J0.0313
N40850G01Y2.3925
N40860G2X4.9824Y2.4146I0.0313J0.0000
N40870G01X5.0545Y2.4870
N40880Y2.5214
N40890Y2.6152
N40900G2X5.0933Y2.6455I0.0313J0.0000
N40910G01X5.1167Y2.6397
N40920X5.1404Y2.6330
N40930X5.1638Y2.6255
N40940X5.1871Y2.6173
N40950X5.2100Y2.6084
N40960X5.2328Y2.5988
N40970X5.2552Y2.5884
N40980X5.2774Y2.5774
N40990X5.2994Y2.5657
N41000X5.3210Y2.5534
N41010X5.3424Y2.5404
N41020X5.3635Y2.5267
N41030X5.3843Y2.5124
N41040X5.4048Y2.4975
N41050X5.4249Y2.4819
N41060X5.4448Y2.4658
N41070X5.4478Y2.4632
N41080X5.4643Y2.4491
N41090X5.4835Y2.4317
N41100X5.5023Y2.4139
N41110X5.5208Y2.3954
N41120X5.5390Y2.3764
N41130X5.5568Y2.3569
N41140X5.5635Y2.3492
N41150X5.5742Y2.3368
N41160X5.5913Y2.3162
N41170X5.6079Y2.2951
N41180X5.6243Y2.2734
N41190X5.6556Y2.2288
N41200X5.6854Y2.1823
N41210X5.7120Y2.1365
N41220X5.7379Y2.1046
N41230X5.7643Y2.0691
N41240X5.7891Y2.0325
N41250X5.8125Y1.9948
N41260X5.8342Y1.9560
N41270X5.8543Y1.9162
N41280X5.8727Y1.8755
N41290X5.8894Y1.8339
N41300X5.9043Y1.7914
N41310X5.9173Y1.7482
N41320X5.9285Y1.7041
N41330X5.9377Y1.6594
N41340X5.9450Y1.6139
N41350X5.9502Y1.5679
N41360X5.9534Y1.5213
N41370X5.9545Y1.4745
N41380Y1.2490
N41390Y1.2237
N41400X5.9541Y1.2096
N41410X5.9530Y1.1952
N41420X5.9512Y1.1810
N41430X5.9488Y1.1681
N41440X5.9451Y1.1457
N41450X5.9391Y1.1220
N41460X5.9311Y1.0988
N41470X5.9272Y1.0901
N41480X5.9211Y1.0761
N41490X5.9094Y1.0540
N41500X5.8958Y1.0324
N41510X5.8806Y1.0113
N41520X5.8638Y0.9908
N41530X5.8454Y0.9709
N41540X5.8254Y0.9515
N41550X5.8040Y0.9327
N41560X5.7812Y0.9145
N41570X5.7571Y0.8969
N41580X5.7315Y0.8799
N41590X5.7047Y0.8635
N41600X5.6767Y0.8478
N41610X5.6474Y0.8326
N41620X5.6169Y0.8181
N41630X5.5853Y0.8042
N41640X5.5526Y0.7910
N41650X5.5189Y0.7785
N41660X5.4841Y0.7666
N41670X5.4483Y0.7555
N41680X5.4116Y0.7451
N41690X5.3740Y0.7355
N41700X5.3355Y0.7266
N41710X5.2961Y0.7185
N41720X5.2560Y0.7112
N41730X5.2151Y0.7047
N41740X5.1735Y0.6991
N41750X5.1312Y0.6943
N41760X5.0886Y0.6904
N41770G2X5.0545Y0.7215I-0.0028J0.0311
N41780G01Y0.8280
N41790Y0.9612
N41800X4.9824Y1.0337
N41810G2X4.9733Y1.0558I0.0221J0.0220
N41820G01Y1.0991
N41830G2X5.0045Y1.1304I0.0313J0.0000
N41840G01X5.2145
N41850Y1.2029
N41860X4.6320
N41870Y1.1304
N41880X4.8420
N41890G2X4.8732Y1.0991I0.0000J-0.0313
N41900G01Y1.0558
N41910G2X4.8641Y1.0337I-0.0313J0.0000
N41920G01X4.7920Y0.9612
N41930Y0.8280
N41940Y0.7215
N41950G2X4.7579Y0.6904I-0.0313J0.0000
N41960G01X4.7153Y0.6943
N41970X4.6730Y0.6991
N41980X4.6314Y0.7047
N41990X4.5905Y0.7112
N42000X4.5504Y0.7185
N42010X4.5110Y0.7266
N42020X4.4725Y0.7355
N42030X4.4349Y0.7451
N42040X4.3982Y0.7555
N42050X4.3624Y0.7666
N42060X4.3276Y0.7784
N42070X4.2939Y0.7910
N42080X4.2612Y0.8042
N42090X4.2296Y0.8181
N42100X4.1991Y0.8326
N42110X4.1699Y0.8477
N42120X4.1418Y0.8635
N42130X4.1150Y0.8799
N42140X4.0895Y0.8969
N42150X4.0653Y0.9145
N42160X4.0425Y0.9327
N42170X4.0211Y0.9515
N42180X4.0012Y0.9708
N42190X3.9827Y0.9908
N42200X3.9659Y1.0112
N42210X3.9507Y1.0323
N42220X3.9493Y1.0345
N42230X3.9371Y1.0539
N42240X3.9254Y1.0761
N42250X3.9154Y1.0988
N42260X3.9074Y1.1220
N42270X3.9014Y1.1456
N42280X3.8977Y1.1680
N42290X3.8953Y1.1810
N42300X3.8947Y1.1858
N42310X3.8935Y1.1952
N42320X3.8924Y1.2096
N42330X3.8920Y1.2237
N42340Y1.4745
N42350X3.8930Y1.5199
N42360X3.8960Y1.5652
N42370X3.9010Y1.6100
N42380X3.9078Y1.6541
N42390X3.9166Y1.6977
N42400X3.9271Y1.7406
N42410X3.9395Y1.7828
N42420X3.9535Y1.8242
N42430X3.9693Y1.8648
N42440X3.9867Y1.9046
N42450X4.0057Y1.9435
N42460X4.0263Y1.9815
N42470X4.0484Y2.0185
N42480X4.0720Y2.0544
N42490X4.0970Y2.0894
N42500X4.1215Y2.1207
N42510G01Z-0.1000F15.0
N42520G01X4.1340Y2.1436F25.0
N42530X4.1484Y2.1684
N42540X4.1632Y2.1928
N42550X4.1785Y2.2167
N42560X4.1942Y2.2401
N42570X4.2103Y2.2630
N42580X4.2268Y2.2854
N42590X4.2419Y2.3048
N42600Z-0.0750
N42610X4.2438Y2.3073
N42620X4.2611Y2.3286
N42630X4.2788Y2.3494
N42640X4.2969Y2.3696
N42650X4.3154Y2.3893
N42660X4.3343Y2.4084
N42670X4.3513Y2.4248
N42680G01Z-0.1000F15.0
N42690G01X4.3535Y2.4269F25.0
N42700X4.3731Y2.4448
N42710X4.3931Y2.4621
N42720X4.4133Y2.4788
N42730X4.4340Y2.4948
N42740X4.4549Y2.5102
N42750X4.4762Y2.5249
N42760X4.4978Y2.5390
N42770X4.5197Y2.5524
N42780X4.5419Y2.5651
N42790X4.5644Y2.5772
N42800X4.5871Y2.5884
N42810X4.6102Y2.5990
N42820X4.6335Y2.6089
N42830X4.6571Y2.6180
N42840X4.6809Y2.6263
N42850X4.7050Y2.6338
N42860X4.7293Y2.6406
N42870X4.7533Y2.6465
N42880G2X4.7920Y2.6161I0.0074J-0.0304
N42890G01Y2.5214
N42900Y2.4870
N42910X4.8641Y2.4146
N42920G2X4.8732Y2.3925I-0.0221J-0.0220
N42930G01Y2.3491
N42940G2X4.8420Y2.3179I-0.0313J0.0000
N42950G01X4.6320
N42960Y2.2454
N42970X5.2145
N42980Y2.3179
N42990X5.0045
N43000G2X4.9733Y2.3491I0.0000J0.0313
N43010G01Y2.3925
N43020G2X4.9824Y2.4146I0.0313J0.0000
N43030G01X5.0545Y2.4870
N43040Y2.5214
N43050Y2.6152
N43060G2X5.0933Y2.6455I0.0313J0.0000
N43070G01X5.1167Y2.6397
N43080X5.1404Y2.6330
N43090X5.1638Y2.6255
N43100X5.1871Y2.6173
N43110X5.2100Y2.6084
N43120X5.2328Y2.5988
N43130X5.2552Y2.5884
N43140X5.2774Y2.5774
N43150X5.2994Y2.5657
N43160X5.3210Y2.5534
N43170X5.3424Y2.5404
N43180X5.3635Y2.5267
N43190X5.3843Y2.5124
N43200X5.4048Y2.4975
N43210X5.4249Y2.4819
N43220X5.4448Y2.4658
N43230X5.4478Y2.4632
N43240Z-0.0750
N43250X5.4643Y2.4491
N43260X5.4835Y2.4317
N43270X5.5023Y2.4139
N43280X5.5208Y2.3954
N43290X5.5390Y2.3764
N43300X5.5568Y2.3569
N43310X5.5635Y2.3492
N43320G01Z-0.1000F15.0
N43330G01X5.5742Y2.3368F25.0
N43340X5.5913Y2.3162
N43350X5.6079Y2.2951
N43360X5.6243Y2.2734
N43370X5.6556Y2.2288
N43380X5.6854Y2.1823
N43390X5.7120Y2.1365
N43400X5.7379Y2.1046
N43410X5.7643Y2.0691
N43420X5.7891Y2.0325
N43430X5.8125Y1.9948
N43440X5.8342Y1.9560
N43450X5.8543Y1.9162
N43460X5.8727Y1.8755
N43470X5.8894Y1.8339
N43480X5.9043Y1.7914
N43490X5.9173Y1.7482
N43500X5.9285Y1.7041
N43510X5.9377Y1.6594
N43520X5.9450Y1.6139
N43530X5.9502Y1.5679
N43540X5.9534Y1.5213
N43550X5.9545Y1.4745
N43560Y1.2490
N43570Z-0.0750
N43580Y1.2237
N43590X5.9541Y1.2096
N43600X5.9530Y1.1952
N43610X5.9512Y1.1810
N43620X5.9488Y1.1681
N43630X5.9451Y1.1457
N43640X5.9391Y1.1220
N43650X5.9311Y1.0988
N43660X5.9272Y1.0901
N43670G01Z-0.1000F15.0
N43680G01X5.9211Y1.0761F25.0
N43690X5.9094Y1.0540
N43700X5.8958Y1.0324
N43710X5.8806Y1.0113
N43720X5.8638Y0.9908
N43730X5.8454Y0.9709
N43740X5.8254Y0.9515
N43750X5.8040Y0.9327
N43760X5.7812Y0.9145
N43770X5.7571Y0.8969
N43780X5.7315Y0.8799
N43790X5.7047Y0.8635
N43800X5.6767Y0.8478
N43810X5.6474Y0.8326
N43820X5.6169Y0.8181
N43830X5.5853Y0.8042
N43840X5.5526Y0.7910
N43850X5.5189Y0.7785
N43860X5.4841Y0.7666
N43870X5.4483Y0.7555
N43880X5.4116Y0.7451
N43890X5.3740Y0.7355
N43900X5.3355Y0.7266
N43910X5.2961Y0.7185
N43920X5.2560Y0.7112
N43930X5.2151Y0.7047
N43940X5.1735Y0.6991
N43950X5.1312Y0.6943
N43960X5.0886Y0.6904
N43970G2X5.0545Y0.7215I-0.0028J0.0311
N43980G01Y0.8280
N43990Y0.9612
N44000X4.9824Y1.0337
N44010G2X4.9733Y1.0558I0.0221J0.0220
N44020G01Y1.0991
N44030G2X5.0045Y1.1304I0.0313J0.0000
N44040G01X5.2145
N44050Y1.2029
N44060X4.6320
N44070Y1.1304
N44080X4.8420
N44090G2X4.8732Y1.0991I0.0000J-0.0313
N44100G01Y1.0558
N44110G2X4.8641Y1.0337I-0.0313J0.0000
N44120G01X4.7920Y0.9612
N44130Y0.8280
N44140Y0.7215
N44150G2X4.7579Y0.6904I-0.0313J0.0000
N44160G01X4.7153Y0.6943
N44170X4.6730Y0.6991
N44180X4.6314Y0.7047
N44190X4.5905Y0.7112
N44200X4.5504Y0.7185
N44210X4.5110Y0.7266
N44220X4.4725Y0.7355
N44230X4.4349Y0.7451
N44240X4.3982Y0.7555
N44250X4.3624Y0.7666
N44260X4.3276Y0.7784
N44270X4.2939Y0.7910
N44280X4.2612Y0.8042
N44290X4.2296Y0.8181
N44300X4.1991Y0.8326
N44310X4.1699Y0.8477
N44320X4.1418Y0.8635
N44330X4.1150Y0.8799
N44340X4.0895Y0.8969
N44350X4.0653Y0.9145
N44360X4.0425Y0.9327
N44370X4.0211Y0.9515
N44380X4.0012Y0.9708
N44390X3.9827Y0.9908
N44400X3.9659Y1.0112
N44410X3.9507Y1.0323
N44420X3.9493Y1.0345
N44430Z-0.0750
N44440X3.9371Y1.0539
N44450X3.9254Y1.0761
N44460X3.9154Y1.0988
N44470X3.9074Y1.1220
N44480X3.9014Y1.1456
N44490X3.8977Y1.1680
N44500X3.8953Y1.1810
N44510X3.8947Y1.1858
N44520G01Z-0.1000F15.0
N44530G01X3.8935Y1.1952F25.0
N44540X3.8924Y1.2096
N44550X3.8920Y1.2237
N44560Y1.4745
N44570X3.8930Y1.5199
N44580X3.8960Y1.5652
N44590X3.9010Y1.6100
N44600X3.9078Y1.6541
N44610X3.9166Y1.6977
N44620X3.9271Y1.7406
N44630X3.9395Y1.7828
N44640X3.9535Y1.8242
N44650X3.9693Y1.8648
N44660X3.9867Y1.9046
N44670X4.0057Y1.9435
N44680X4.0263Y1.9815
N44690X4.0484Y2.0185
N44700X4.0720Y2.0544
N44710X4.0970Y2.0894
N44720X4.1215Y2.1207
N44730G01Z-0.1500F15.0
N44740G01X4.1340Y2.1436F25.0
N44750X4.1484Y2.1684
N44760X4.1632Y2.1928
N44770X4.1785Y2.2167
N44780X4.1942Y2.2401
N44790X4.2103Y2.2630
N44800X4.2268Y2.2854
N44810X4.2419Y2.3048
N44820Z-0.0750
N44830X4.2438Y2.3073
N44840X4.2611Y2.3286
N44850X4.2788Y2.3494
N44860X4.2969Y2.3696
N44870X4.3154Y2.3893
N44880X4.3343Y2.4084
N44890X4.3513Y2.4248
N44900G01Z-0.1500F15.0
N44910G01X4.3535Y2.4269F25.0
N44920X4.3731Y2.4448
N44930X4.3931Y2.4621
N44940X4.4133Y2.4788
N44950X4.4340Y2.4948
N44960X4.4549Y2.5102
N44970X4.4762Y2.5249
N44980X4.4978Y2.5390
N44990X4.5197Y2.5524
N45000X4.5419Y2.5651
N45010X4.5644Y2.5772
N45020X4.5871Y2.5884
N45030X4.6102Y2.5990
N45040X4.6335Y2.6089
N45050X4.6571Y2.6180
N45060X4.6809Y2.6263
N45070X4.7050Y2.6338
N45080X4.7293Y2.6406
N45090X4.7533Y2.6465
N45100G2X4.7920Y2.6161I0.0074J-0.0304
N45110G01Y2.5214
N45120Y2.4870
N45130X4.8641Y2.4146
N45140G2X4.8732Y2.3925I-0.0221J-0.0220
N45150G01Y2.3491
N45160G2X4.8420Y2.3179I-0.0313J0.0000
N45170G01X4.6320
N45180Y2.2454
N45190X5.2145
N45200Y2.3179
N45210X5.0045
N45220G2X4.9733Y2.3491I0.0000J0.0313
N45230G01Y2.3925
N45240G2X4.9824Y2.4146I0.0313J0.0000
N45250G01X5.0545Y2.4870
N45260Y2.5214
N45270Y2.6152
N45280G2X5.0933Y2.6455I0.0313J0.0000
N45290G01X5.1167Y2.6397
N45300X5.1404Y2.6330
N45310X5.1638Y2.6255
N45320X5.1871Y2.6173
N45330X5.2100Y2.6084
N45340X5.2328Y2.5988
N45350X5.2552Y2.5884
N45360X5.2774Y2.5774
N45370X5.2994Y2.5657
N45380X5.3210Y2.5534
N45390X5.3424Y2.5404
N45400X5.3635Y2.5267
N45410X5.3843Y2.5124
N45420X5.4048Y2.4975
N45430X5.4249Y2.4819
N45440X5.4448Y2.4658
N45450X5.4478Y2.4632
N45460Z-0.0750
N45470X5.4643Y2.4491
N45480X5.4835Y2.4317
N45490X5.5023Y2.4139
N45500X5.5208Y2.3954
N45510X5.5390Y2.3764
N45520X5.5568Y2.3569
N45530X5.5635Y2.3492
N45540G01Z-0.1500F15.0
N45550G01X5.5742Y2.3368F25.0
N45560X5.5913Y2.3162
N45570X5.6079Y2.2951
N45580X5.6243Y2.2734
N45590X5.6556Y2.2288
