( Inside Cuts )
( Mach2/3 Postprocessor )
N20G00G20G17G20G90G40G49G80
N30G70
N40T4M06
N50G00G43Z3.0000H4
N60S12000M03
N70G94
N80X0.0000Y8.0000F25.0
N90G00X1.5969Y6.8166Z0.2500
N100G01Z-0.0500F15.0
N110G01Y6.7441F25.0
N120X2.1794
N130Y6.8166
N140X1.5969
N150G01Z-0.1000F15.0
N160G01Y6.7441F25.0
N170X2.1794
N180Y6.8166
N190X1.5969
N200G01Z-0.1500F15.0
N210G01Y6.7441F25.0
N220X2.1794
N230Y6.8166
N240X1.5969
N250G00Z0.2500
N260G00X0.8842Y6.1943
N270G01Z-0.0500F15.0
N280G01X0.8890Y6.1948F25.0
N290X0.8934Y6.1961
N300X0.8974Y6.1983
N310X0.9009Y6.2012
N320X0.9038Y6.2047
N330X0.9059Y6.2087
N340X0.9073Y6.2130
N350X0.9078Y6.2179
N360X0.9073Y6.2227
N370X0.9059Y6.2271
N380X0.9038Y6.2311
N390X0.9009Y6.2346
N400X0.8974Y6.2374
N410X0.8934Y6.2396
N420X0.8890Y6.2410
N430X0.8842Y6.2415
N440X0.8794Y6.2410
N450X0.8750Y6.2396
N460X0.8710Y6.2374
N470X0.8675Y6.2346
N480X0.8646Y6.2311
N490X0.8624Y6.2271
N500X0.8611Y6.2227
N510X0.8606Y6.2179
N520X0.8611Y6.2130
N530X0.8624Y6.2087
N540X0.8646Y6.2047
N550X0.8675Y6.2012
N560X0.8710Y6.1983
N570X0.8750Y6.1961
N580X0.8794Y6.1948
N590X0.8842Y6.1943
N600G01Z-0.1000F15.0
N610G01X0.8890Y6.1948F25.0
N620X0.8934Y6.1961
N630X0.8974Y6.1983
N640X0.9009Y6.2012
N650X0.9038Y6.2047
N660X0.9059Y6.2087
N670X0.9073Y6.2130
N680X0.9078Y6.2179
N690X0.9073Y6.2227
N700X0.9059Y6.2271
N710X0.9038Y6.2311
N720X0.9009Y6.2346
N730X0.8974Y6.2374
N740X0.8934Y6.2396
N750X0.8890Y6.2410
N760X0.8842Y6.2415
N770X0.8794Y6.2410
N780X0.8750Y6.2396
N790X0.8710Y6.2374
N800X0.8675Y6.2346
N810X0.8646Y6.2311
N820X0.8624Y6.2271
N830X0.8611Y6.2227
N840X0.8606Y6.2179
N850X0.8611Y6.2130
N860X0.8624Y6.2087
N870X0.8646Y6.2047
N880X0.8675Y6.2012
N890X0.8710Y6.1983
N900X0.8750Y6.1961
N910X0.8794Y6.1948
N920X0.8842Y6.1943
N930G01Z-0.1500F15.0
N940G01X0.8890Y6.1948F25.0
N950X0.8934Y6.1961
N960X0.8974Y6.1983
N970X0.9009Y6.2012
N980X0.9038Y6.2047
N990X0.9059Y6.2087
N1000X0.9073Y6.2130
N1010X0.9078Y6.2179
N1020X0.9073Y6.2227
N1030X0.9059Y6.2271
N1040X0.9038Y6.2311
N1050X0.9009Y6.2346
N1060X0.8974Y6.2374
N1070X0.8934Y6.2396
N1080X0.8890Y6.2410
N1090X0.8842Y6.2415
N1100X0.8794Y6.2410
N1110X0.8750Y6.2396
N1120X0.8710Y6.2374
N1130X0.8675Y6.2346
N1140X0.8646Y6.2311
N1150X0.8624Y6.2271
N1160X0.8611Y6.2227
N1170X0.8606Y6.2179
N1180X0.8611Y6.2130
N1190X0.8624Y6.2087
N1200X0.8646Y6.2047
N1210X0.8675Y6.2012
N1220X0.8710Y6.1983
N1230X0.8750Y6.1961
N1240X0.8794Y6.1948
N1250X0.8842Y6.1943
N1260G00Z0.2500
N1270G00X1.5969Y5.4309
N1280G01Z-0.0500F15.0
N1290G01Y5.3584F25.0
N1300X2.1794
N1310Y5.4309
N1320X1.5969
N1330G01Z-0.1000F15.0
N1340G01Y5.3584F25.0
N1350X2.1794
N1360Y5.4309
N1370X1.5969
N1380G01Z-0.1500F15.0
N1390G01Y5.3584F25.0
N1400X2.1794
N1410Y5.4309
N1420X1.5969
N1430G00Z0.2500
N1440G00X0.9560Y4.5493
N1450G01Z-0.0500F15.0
N1460G01X0.9565Y4.5445F25.0
N1470X0.9579Y4.5401
N1480X0.9600Y4.5361
N1490X0.9629Y4.5326
N1500X0.9664Y4.5297
N1510X0.9704Y4.5276
N1520X0.9748Y4.5262
N1530X0.9796Y4.5257
N1540X0.9844Y4.5262
N1550X0.9888Y4.5276
N1560X0.9928Y4.5297
N1570X0.9963Y4.5326
N1580X0.9992Y4.5361
N1590X1.0014Y4.5401
N1600X1.0027Y4.5445
N1610X1.0032Y4.5493
N1620X1.0027Y4.5541
N1630X1.0014Y4.5585
N1640X0.9992Y4.5625
N1650X0.9963Y4.5660
N1660X0.9928Y4.5689
N1670X0.9888Y4.5711
N1680X0.9844Y4.5724
N1690X0.9796Y4.5729
N1700X0.9748Y4.5724
N1710X0.9704Y4.5711
N1720X0.9664Y4.5689
N1730X0.9629Y4.5660
N1740X0.9600Y4.5625
N1750X0.9579Y4.5585
N1760X0.9565Y4.5541
N1770X0.9560Y4.5493
N1780G01Z-0.1000F15.0
N1790G01X0.9565Y4.5445F25.0
N1800X0.9579Y4.5401
N1810X0.9600Y4.5361
N1820X0.9629Y4.5326
N1830X0.9664Y4.5297
N1840X0.9704Y4.5276
N1850X0.9748Y4.5262
N1860X0.9796Y4.5257
N1870X0.9844Y4.5262
N1880X0.9888Y4.5276
N1890X0.9928Y4.5297
N1900X0.9963Y4.5326
N1910X0.9992Y4.5361
N1920X1.0014Y4.5401
N1930X1.0027Y4.5445
N1940X1.0032Y4.5493
N1950X1.0027Y4.5541
N1960X1.0014Y4.5585
N1970X0.9992Y4.5625
N1980X0.9963Y4.5660
N1990X0.9928Y4.5689
N2000X0.9888Y4.5711
N2010X0.9844Y4.5724
N2020X0.9796Y4.5729
N2030X0.9748Y4.5724
N2040X0.9704Y4.5711
N2050X0.9664Y4.5689
N2060X0.9629Y4.5660
N2070X0.9600Y4.5625
N2080X0.9579Y4.5585
N2090X0.9565Y4.5541
N2100X0.9560Y4.5493
N2110G01Z-0.1500F15.0
N2120G01X0.9565Y4.5445F25.0
N2130X0.9579Y4.5401
N2140X0.9600Y4.5361
N2150X0.9629Y4.5326
N2160X0.9664Y4.5297
N2170X0.9704Y4.5276
N2180X0.9748Y4.5262
N2190X0.9796Y4.5257
N2200X0.9844Y4.5262
N2210X0.9888Y4.5276
N2220X0.9928Y4.5297
N2230X0.9963Y4.5326
N2240X0.9992Y4.5361
N2250X1.0014Y4.5401
N2260X1.0027Y4.5445
N2270X1.0032Y4.5493
N2280X1.0027Y4.5541
N2290X1.0014Y4.5585
N2300X0.9992Y4.5625
N2310X0.9963Y4.5660
N2320X0.9928Y4.5689
N2330X0.9888Y4.5711
N2340X0.9844Y4.5724
N2350X0.9796Y4.5729
N2360X0.9748Y4.5724
N2370X0.9704Y4.5711
N2380X0.9664Y4.5689
N2390X0.9629Y4.5660
N2400X0.9600Y4.5625
N2410X0.9579Y4.5585
N2420X0.9565Y4.5541
N2430X0.9560Y4.5493
N2440G00Z0.2500
N2450G00X0.9821Y3.3462
N2460G01Z-0.0500F15.0
N2470G01X0.9826Y3.3414F25.0
N2480X0.9839Y3.3370
N2490X0.9861Y3.3330
N2500X0.9890Y3.3295
N2510X0.9925Y3.3266
N2520X0.9965Y3.3244
N2530X1.0008Y3.3231
N2540X1.0057Y3.3226
N2550X1.0105Y3.3231
N2560X1.0149Y3.3244
N2570X1.0189Y3.3266
N2580X1.0224Y3.3295
N2590X1.0252Y3.3330
N2600X1.0274Y3.3370
N2610X1.0288Y3.3414
N2620X1.0293Y3.3462
N2630X1.0288Y3.3510
N2640X1.0274Y3.3554
N2650X1.0252Y3.3594
N2660X1.0224Y3.3629
N2670X1.0189Y3.3658
N2680X1.0149Y3.3679
N2690X1.0105Y3.3693
N2700X1.0057Y3.3698
N2710X1.0008Y3.3693
N2720X0.9965Y3.3679
N2730X0.9925Y3.3658
N2740X0.9890Y3.3629
N2750X0.9861Y3.3594
N2760X0.9839Y3.3554
N2770X0.9826Y3.3510
N2780X0.9821Y3.3462
N2790G01Z-0.1000F15.0
N2800G01X0.9826Y3.3414F25.0
N2810X0.9839Y3.3370
N2820X0.9861Y3.3330
N2830X0.9890Y3.3295
N2840X0.9925Y3.3266
N2850X0.9965Y3.3244
N2860X1.0008Y3.3231
N2870X1.0057Y3.3226
N2880X1.0105Y3.3231
N2890X1.0149Y3.3244
N2900X1.0189Y3.3266
N2910X1.0224Y3.3295
N2920X1.0252Y3.3330
N2930X1.0274Y3.3370
N2940X1.0288Y3.3414
N2950X1.0293Y3.3462
N2960X1.0288Y3.3510
N2970X1.0274Y3.3554
N2980X1.0252Y3.3594
N2990X1.0224Y3.3629
N3000X1.0189Y3.3658
N3010X1.0149Y3.3679
N3020X1.0105Y3.3693
N3030X1.0057Y3.3698
N3040X1.0008Y3.3693
N3050X0.9965Y3.3679
N3060X0.9925Y3.3658
N3070X0.9890Y3.3629
N3080X0.9861Y3.3594
N3090X0.9839Y3.3554
N3100X0.9826Y3.3510
N3110X0.9821Y3.3462
N3120G01Z-0.1500F15.0
N3130G01X0.9826Y3.3414F25.0
N3140X0.9839Y3.3370
N3150X0.9861Y3.3330
N3160X0.9890Y3.3295
N3170X0.9925Y3.3266
N3180X0.9965Y3.3244
N3190X1.0008Y3.3231
N3200X1.0057Y3.3226
N3210X1.0105Y3.3231
N3220X1.0149Y3.3244
N3230X1.0189Y3.3266
N3240X1.0224Y3.3295
N3250X1.0252Y3.3330
N3260X1.0274Y3.3370
N3270X1.0288Y3.3414
N3280X1.0293Y3.3462
N3290X1.0288Y3.3510
N3300X1.0274Y3.3554
N3310X1.0252Y3.3594
N3320X1.0224Y3.3629
N3330X1.0189Y3.3658
N3340X1.0149Y3.3679
N3350X1.0105Y3.3693
N3360X1.0057Y3.3698
N3370X1.0008Y3.3693
N3380X0.9965Y3.3679
N3390X0.9925Y3.3658
N3400X0.9890Y3.3629
N3410X0.9861Y3.3594
N3420X0.9839Y3.3554
N3430X0.9826Y3.3510
N3440X0.9821Y3.3462
N3450G00Z0.2500
N3460G00X2.1794Y2.2166
N3470G01Z-0.0500F15.0
N3480G01Y2.2891F25.0
N3490X1.5969
N3500Y2.2166
N3510X2.1794
N3520G01Z-0.1000F15.0
N3530G01Y2.2891F25.0
N3540X1.5969
N3550Y2.2166
N3560X2.1794
N3570G01Z-0.1500F15.0
N3580G01Y2.2891F25.0
N3590X1.5969
N3600Y2.2166
N3610X2.1794
N3620G00Z0.2500
N3630G00Y0.8309
N3640G01Z-0.0500F15.0
N3650G01Y0.9034F25.0
N3660X1.5969
N3670Y0.8309
N3680X2.1794
N3690G01Z-0.1000F15.0
N3700G01Y0.9034F25.0
N3710X1.5969
N3720Y0.8309
N3730X2.1794
N3740G01Z-0.1500F15.0
N3750G01Y0.9034F25.0
N3760X1.5969
N3770Y0.8309
N3780X2.1794
N3790G00Z0.2500
N3800G00X0.8842Y1.4532
N3810G01Z-0.0500F15.0
N3820G01X0.8794Y1.4527F25.0
N3830X0.8750Y1.4514
N3840X0.8710Y1.4492
N3850X0.8675Y1.4463
N3860X0.8646Y1.4428
N3870X0.8624Y1.4388
N3880X0.8611Y1.4344
N3890X0.8606Y1.4296
N3900X0.8611Y1.4248
N3910X0.8624Y1.4204
N3920X0.8646Y1.4164
N3930X0.8675Y1.4129
N3940X0.8710Y1.4100
N3950X0.8750Y1.4079
N3960X0.8794Y1.4065
N3970X0.8842Y1.4060
N3980X0.8890Y1.4065
N3990X0.8934Y1.4079
N4000X0.8974Y1.4100
N4010X0.9009Y1.4129
N4020X0.9038Y1.4164
N4030X0.9059Y1.4204
N4040X0.9073Y1.4248
N4050X0.9078Y1.4296
N4060X0.9073Y1.4344
N4070X0.9059Y1.4388
N4080X0.9038Y1.4428
N4090X0.9009Y1.4463
N4100X0.8974Y1.4492
N4110X0.8934Y1.4514
N4120X0.8890Y1.4527
N4130X0.8842Y1.4532
N4140G01Z-0.1000F15.0
N4150G01X0.8794Y1.4527F25.0
N4160X0.8750Y1.4514
N4170X0.8710Y1.4492
N4180X0.8675Y1.4463
N4190X0.8646Y1.4428
N4200X0.8624Y1.4388
N4210X0.8611Y1.4344
N4220X0.8606Y1.4296
N4230X0.8611Y1.4248
N4240X0.8624Y1.4204
N4250X0.8646Y1.4164
N4260X0.8675Y1.4129
N4270X0.8710Y1.4100
N4280X0.8750Y1.4079
N4290X0.8794Y1.4065
N4300X0.8842Y1.4060
N4310X0.8890Y1.4065
N4320X0.8934Y1.4079
N4330X0.8974Y1.4100
N4340X0.9009Y1.4129
N4350X0.9038Y1.4164
N4360X0.9059Y1.4204
N4370X0.9073Y1.4248
N4380X0.9078Y1.4296
N4390X0.9073Y1.4344
N4400X0.9059Y1.4388
N4410X0.9038Y1.4428
N4420X0.9009Y1.4463
N4430X0.8974Y1.4492
N4440X0.8934Y1.4514
N4450X0.8890Y1.4527
N4460X0.8842Y1.4532
N4470G01Z-0.1500F15.0
N4480G01X0.8794Y1.4527F25.0
N4490X0.8750Y1.4514
N4500X0.8710Y1.4492
N4510X0.8675Y1.4463
N4520X0.8646Y1.4428
N4530X0.8624Y1.4388
N4540X0.8611Y1.4344
N4550X0.8606Y1.4296
N4560X0.8611Y1.4248
N4570X0.8624Y1.4204
N4580X0.8646Y1.4164
N4590X0.8675Y1.4129
N4600X0.8710Y1.4100
N4610X0.8750Y1.4079
N4620X0.8794Y1.4065
N4630X0.8842Y1.4060
N4640X0.8890Y1.4065
N4650X0.8934Y1.4079
N4660X0.8974Y1.4100
N4670X0.9009Y1.4129
N4680X0.9038Y1.4164
N4690X0.9059Y1.4204
N4700X0.9073Y1.4248
N4710X0.9078Y1.4296
N4720X0.9073Y1.4344
N4730X0.9059Y1.4388
N4740X0.9038Y1.4428
N4750X0.9009Y1.4463
N4760X0.8974Y1.4492
N4770X0.8934Y1.4514
N4780X0.8890Y1.4527
N4790X0.8842Y1.4532
N4800G00Z0.2500
N4810G00X3.3035Y3.3457
N4820G01Z-0.0500F15.0
N4830G01X3.3040Y3.3409F25.0
N4840X3.3054Y3.3365
N4850X3.3075Y3.3326
N4860X3.3104Y3.3290
N4870X3.3139Y3.3262
N4880X3.3179Y3.3240
N4890X3.3223Y3.3226
N4900X3.3271Y3.3221
N4910X3.3319Y3.3226
N4920X3.3363Y3.3240
N4930X3.3403Y3.3262
N4940X3.3438Y3.3290
N4950X3.3467Y3.3326
N4960X3.3489Y3.3365
N4970X3.3502Y3.3409
N4980X3.3507Y3.3457
N4990X3.3502Y3.3506
N5000X3.3489Y3.3549
N5010X3.3467Y3.3589
N5020X3.3438Y3.3624
N5030X3.3403Y3.3653
N5040X3.3363Y3.3675
N5050X3.3319Y3.3688
N5060X3.3271Y3.3693
N5070X3.3223Y3.3688
N5080X3.3179Y3.3675
N5090X3.3139Y3.3653
N5100X3.3104Y3.3624
N5110X3.3075Y3.3589
N5120X3.3054Y3.3549
N5130X3.3040Y3.3506
N5140X3.3035Y3.3457
N5150G01Z-0.1000F15.0
N5160G01X3.3040Y3.3409F25.0
N5170X3.3054Y3.3365
N5180X3.3075Y3.3326
N5190X3.3104Y3.3290
N5200X3.3139Y3.3262
N5210X3.3179Y3.3240
N5220X3.3223Y3.3226
N5230X3.3271Y3.3221
N5240X3.3319Y3.3226
N5250X3.3363Y3.3240
N5260X3.3403Y3.3262
N5270X3.3438Y3.3290
N5280X3.3467Y3.3326
N5290X3.3489Y3.3365
N5300X3.3502Y3.3409
N5310X3.3507Y3.3457
N5320X3.3502Y3.3506
N5330X3.3489Y3.3549
N5340X3.3467Y3.3589
N5350X3.3438Y3.3624
N5360X3.3403Y3.3653
N5370X3.3363Y3.3675
N5380X3.3319Y3.3688
N5390X3.3271Y3.3693
N5400X3.3223Y3.3688
N5410X3.3179Y3.3675
N5420X3.3139Y3.3653
N5430X3.3104Y3.3624
N5440X3.3075Y3.3589
N5450X3.3054Y3.3549
N5460X3.3040Y3.3506
N5470X3.3035Y3.3457
N5480G01Z-0.1500F15.0
N5490G01X3.3040Y3.3409F25.0
N5500X3.3054Y3.3365
N5510X3.3075Y3.3326
N5520X3.3104Y3.3290
N5530X3.3139Y3.3262
N5540X3.3179Y3.3240
N5550X3.3223Y3.3226
N5560X3.3271Y3.3221
N5570X3.3319Y3.3226
N5580X3.3363Y3.3240
N5590X3.3403Y3.3262
N5600X3.3438Y3.3290
N5610X3.3467Y3.3326
N5620X3.3489Y3.3365
N5630X3.3502Y3.3409
N5640X3.3507Y3.3457
N5650X3.3502Y3.3506
N5660X3.3489Y3.3549
N5670X3.3467Y3.3589
N5680X3.3438Y3.3624
N5690X3.3403Y3.3653
N5700X3.3363Y3.3675
N5710X3.3319Y3.3688
N5720X3.3271Y3.3693
N5730X3.3223Y3.3688
N5740X3.3179Y3.3675
N5750X3.3139Y3.3653
N5760X3.3104Y3.3624
N5770X3.3075Y3.3589
N5780X3.3054Y3.3549
N5790X3.3040Y3.3506
N5800X3.3035Y3.3457
N5810G00Z0.2500
N5820G00X3.2775Y4.5489
N5830G01Z-0.0500F15.0
N5840G01X3.2780Y4.5441F25.0
N5850X3.2793Y4.5397
N5860X3.2815Y4.5357
N5870X3.2844Y4.5322
N5880X3.2879Y4.5293
N5890X3.2919Y4.5271
N5900X3.2962Y4.5258
N5910X3.3011Y4.5253
N5920X3.3059Y4.5258
N5930X3.3103Y4.5271
N5940X3.3143Y4.5293
N5950X3.3178Y4.5322
N5960X3.3207Y4.5357
N5970X3.3228Y4.5397
N5980X3.3242Y4.5441
N5990X3.3247Y4.5489
N6000X3.3242Y4.5537
N6010X3.3228Y4.5581
N6020X3.3207Y4.5621
N6030X3.3178Y4.5656
N6040X3.3143Y4.5685
N6050X3.3103Y4.5706
N6060X3.3059Y4.5720
N6070X3.3011Y4.5725
N6080X3.2962Y4.5720
N6090X3.2919Y4.5706
N6100X3.2879Y4.5685
N6110X3.2844Y4.5656
N6120X3.2815Y4.5621
N6130X3.2793Y4.5581
N6140X3.2780Y4.5537
N6150X3.2775Y4.5489
N6160G01Z-0.1000F15.0
N6170G01X3.2780Y4.5441F25.0
N6180X3.2793Y4.5397
N6190X3.2815Y4.5357
N6200X3.2844Y4.5322
N6210X3.2879Y4.5293
N6220X3.2919Y4.5271
N6230X3.2962Y4.5258
N6240X3.3011Y4.5253
N6250X3.3059Y4.5258
N6260X3.3103Y4.5271
N6270X3.3143Y4.5293
N6280X3.3178Y4.5322
N6290X3.3207Y4.5357
N6300X3.3228Y4.5397
N6310X3.3242Y4.5441
N6320X3.3247Y4.5489
N6330X3.3242Y4.5537
N6340X3.3228Y4.5581
N6350X3.3207Y4.5621
N6360X3.3178Y4.5656
N6370X3.3143Y4.5685
N6380X3.3103Y4.5706
N6390X3.3059Y4.5720
N6400X3.3011Y4.5725
N6410X3.2962Y4.5720
N6420X3.2919Y4.5706
N6430X3.2879Y4.5685
N6440X3.2844Y4.5656
N6450X3.2815Y4.5621
N6460X3.2793Y4.5581
N6470X3.2780Y4.5537
N6480X3.2775Y4.5489
N6490G01Z-0.1500F15.0
N6500G01X3.2780Y4.5441F25.0
N6510X3.2793Y4.5397
N6520X3.2815Y4.5357
N6530X3.2844Y4.5322
N6540X3.2879Y4.5293
N6550X3.2919Y4.5271
N6560X3.2962Y4.5258
N6570X3.3011Y4.5253
N6580X3.3059Y4.5258
N6590X3.3103Y4.5271
N6600X3.3143Y4.5293
N6610X3.3178Y4.5322
N6620X3.3207Y4.5357
N6630X3.3228Y4.5397
N6640X3.3242Y4.5441
N6650X3.3247Y4.5489
N6660X3.3242Y4.5537
N6670X3.3228Y4.5581
N6680X3.3207Y4.5621
N6690X3.3178Y4.5656
N6700X3.3143Y4.5685
N6710X3.3103Y4.5706
N6720X3.3059Y4.5720
N6730X3.3011Y4.5725
N6740X3.2962Y4.5720
N6750X3.2919Y4.5706
N6760X3.2879Y4.5685
N6770X3.2844Y4.5656
N6780X3.2815Y4.5621
N6790X3.2793Y4.5581
N6800X3.2780Y4.5537
N6810X3.2775Y4.5489
N6820G00Z0.2500
N6830G00X3.5969Y5.4309
N6840G01Z-0.0500F15.0
N6850G01Y5.3584F25.0
N6860X4.1794
N6870Y5.4309
N6880X3.5969
N6890G01Z-0.1000F15.0
N6900G01Y5.3584F25.0
N6910X4.1794
N6920Y5.4309
N6930X3.5969
N6940G01Z-0.1500F15.0
N6950G01Y5.3584F25.0
N6960X4.1794
N6970Y5.4309
N6980X3.5969
N6990G00Z0.2500
N7000G00X5.1284Y4.4707
N7010G01Z-0.0500F15.0
N7020G01X5.1281Y4.4758F25.0
N7030X5.1274Y4.4806
N7040X5.1262Y4.4852
N7050X5.1245Y4.4897
N7060X5.1225Y4.4939
N7070X5.1201Y4.4980
N7080X5.1173Y4.5017
N7090X5.1141Y4.5052
N7100X5.1106Y4.5083
N7110X5.1069Y4.5111
N7120X5.1029Y4.5136
N7130X5.0986Y4.5156
N7140X5.0942Y4.5173
N7150X5.0895Y4.5185
N7160X5.0847Y4.5192
N7170X5.0797Y4.5194
N7180X5.0746Y4.5192
N7190X5.0698Y4.5185
N7200X5.0651Y4.5173
N7210X5.0607Y4.5156
N7220X5.0565Y4.5136
N7230X5.0524Y4.5111
N7240X5.0487Y4.5083
N7250X5.0452Y4.5052
N7260X5.0421Y4.5017
N7270X5.0392Y4.4980
N7280X5.0368Y4.4939
N7290X5.0348Y4.4897
N7300X5.0331Y4.4852
N7310X5.0319Y4.4806
N7320X5.0312Y4.4758
N7330X5.0309Y4.4707
N7340X5.0312Y4.4657
N7350X5.0319Y4.4609
N7360X5.0331Y4.4562
N7370X5.0348Y4.4518
N7380X5.0368Y4.4475
N7390X5.0392Y4.4435
N7400X5.0421Y4.4398
N7410X5.0452Y4.4363
N7420X5.0487Y4.4331
N7430X5.0524Y4.4303
N7440X5.0564Y4.4279
N7450X5.0607Y4.4258
N7460X5.0651Y4.4242
N7470X5.0698Y4.4230
N7480X5.0746Y4.4223
N7490X5.0797Y4.4220
N7500X5.0847Y4.4223
N7510X5.0895Y4.4230
N7520X5.0942Y4.4242
N7530X5.0986Y4.4258
N7540X5.1029Y4.4279
N7550X5.1069Y4.4303
N7560X5.1106Y4.4331
N7570X5.1141Y4.4363
N7580X5.1173Y4.4398
N7590X5.1201Y4.4435
N7600X5.1225Y4.4475
N7610X5.1245Y4.4518
N7620X5.1262Y4.4562
N7630X5.1274Y4.4609
N7640X5.1281Y4.4657
N7650X5.1284Y4.4707
N7660G01Z-0.1000F15.0
N7670G01X5.1281Y4.4758F25.0
N7680X5.1274Y4.4806
N7690X5.1262Y4.4852
N7700X5.1245Y4.4897
N7710X5.1225Y4.4939
N7720X5.1201Y4.4980
N7730X5.1173Y4.5017
N7740X5.1141Y4.5052
N7750X5.1106Y4.5083
N7760X5.1069Y4.5111
N7770X5.1029Y4.5136
N7780X5.0986Y4.5156
N7790X5.0942Y4.5173
N7800X5.0895Y4.5185
N7810X5.0847Y4.5192
N7820X5.0797Y4.5194
N7830X5.0746Y4.5192
N7840X5.0698Y4.5185
N7850X5.0651Y4.5173
N7860X5.0607Y4.5156
N7870X5.0565Y4.5136
N7880X5.0524Y4.5111
N7890X5.0487Y4.5083
N7900X5.0452Y4.5052
N7910X5.0421Y4.5017
N7920X5.0392Y4.4980
N7930X5.0368Y4.4939
N7940X5.0348Y4.4897
N7950X5.0331Y4.4852
N7960X5.0319Y4.4806
N7970X5.0312Y4.4758
N7980X5.0309Y4.4707
N7990X5.0312Y4.4657
N8000X5.0319Y4.4609
N8010X5.0331Y4.4562
N8020X5.0348Y4.4518
N8030X5.0368Y4.4475
N8040X5.0392Y4.4435
N8050X5.0421Y4.4398
N8060X5.0452Y4.4363
N8070X5.0487Y4.4331
N8080X5.0524Y4.4303
N8090X5.0564Y4.4279
N8100X5.0607Y4.4258
N8110X5.0651Y4.4242
N8120X5.0698Y4.4230
N8130X5.0746Y4.4223
N8140X5.0797Y4.4220
N8150X5.0847Y4.4223
N8160X5.0895Y4.4230
N8170X5.0942Y4.4242
N8180X5.0986Y4.4258
N8190X5.1029Y4.4279
N8200X5.1069Y4.4303
N8210X5.1106Y4.4331
N8220X5.1141Y4.4363
N8230X5.1173Y4.4398
N8240X5.1201Y4.4435
N8250X5.1225Y4.4475
N8260X5.1245Y4.4518
N8270X5.1262Y4.4562
N8280X5.1274Y4.4609
N8290X5.1281Y4.4657
N8300X5.1284Y4.4707
N8310G01Z-0.1500F15.0
N8320G01X5.1281Y4.4758F25.0
N8330X5.1274Y4.4806
N8340X5.1262Y4.4852
N8350X5.1245Y4.4897
N8360X5.1225Y4.4939
N8370X5.1201Y4.4980
N8380X5.1173Y4.5017
N8390X5.1141Y4.5052
N8400X5.1106Y4.5083
N8410X5.1069Y4.5111
N8420X5.1029Y4.5136
N8430X5.0986Y4.5156
N8440X5.0942Y4.5173
N8450X5.0895Y4.5185
N8460X5.0847Y4.5192
N8470X5.0797Y4.5194
N8480X5.0746Y4.5192
N8490X5.0698Y4.5185
N8500X5.0651Y4.5173
N8510X5.0607Y4.5156
N8520X5.0565Y4.5136
N8530X5.0524Y4.5111
N8540X5.0487Y4.5083
N8550X5.0452Y4.5052
N8560X5.0421Y4.5017
N8570X5.0392Y4.4980
N8580X5.0368Y4.4939
N8590X5.0348Y4.4897
N8600X5.0331Y4.4852
N8610X5.0319Y4.4806
N8620X5.0312Y4.4758
N8630X5.0309Y4.4707
N8640X5.0312Y4.4657
N8650X5.0319Y4.4609
N8660X5.0331Y4.4562
N8670X5.0348Y4.4518
N8680X5.0368Y4.4475
N8690X5.0392Y4.4435
N8700X5.0421Y4.4398
N8710X5.0452Y4.4363
N8720X5.0487Y4.4331
N8730X5.0524Y4.4303
N8740X5.0564Y4.4279
N8750X5.0607Y4.4258
N8760X5.0651Y4.4242
N8770X5.0698Y4.4230
N8780X5.0746Y4.4223
N8790X5.0797Y4.4220
N8800X5.0847Y4.4223
N8810X5.0895Y4.4230
N8820X5.0942Y4.4242
N8830X5.0986Y4.4258
N8840X5.1029Y4.4279
N8850X5.1069Y4.4303
N8860X5.1106Y4.4331
N8870X5.1141Y4.4363
N8880X5.1173Y4.4398
N8890X5.1201Y4.4435
N8900X5.1225Y4.4475
N8910X5.1245Y4.4518
N8920X5.1262Y4.4562
N8930X5.1274Y4.4609
N8940X5.1281Y4.4657
N8950X5.1284Y4.4707
N8960G00Z0.2500
N8970G00X6.1022Y4.4712
N8980G01Z-0.0500F15.0
N8990G01X6.1027Y4.4664F25.0
N9000X6.1040Y4.4620
N9010X6.1062Y4.4580
N9020X6.1091Y4.4545
N9030X6.1126Y4.4516
N9040X6.1166Y4.4494
N9050X6.1210Y4.4481
N9060X6.1258Y4.4476
N9070X6.1306Y4.4481
N9080X6.1350Y4.4494
N9090X6.1390Y4.4516
N9100X6.1425Y4.4545
N9110X6.1454Y4.4580
N9120X6.1475Y4.4620
N9130X6.1489Y4.4664
N9140X6.1494Y4.4712
N9150X6.1489Y4.4760
N9160X6.1475Y4.4804
N9170X6.1454Y4.4844
N9180X6.1425Y4.4879
N9190X6.1390Y4.4908
N9200X6.1350Y4.4929
N9210X6.1306Y4.4943
N9220X6.1258Y4.4948
N9230X6.1210Y4.4943
N9240X6.1166Y4.4929
N9250X6.1126Y4.4908
N9260X6.1091Y4.4879
N9270X6.1062Y4.4844
N9280X6.1040Y4.4804
N9290X6.1027Y4.4760
N9300X6.1022Y4.4712
N9310G01Z-0.1000F15.0
N9320G01X6.1027Y4.4664F25.0
N9330X6.1040Y4.4620
N9340X6.1062Y4.4580
N9350X6.1091Y4.4545
N9360X6.1126Y4.4516
N9370X6.1166Y4.4494
N9380X6.1210Y4.4481
N9390X6.1258Y4.4476
N9400X6.1306Y4.4481
N9410X6.1350Y4.4494
N9420X6.1390Y4.4516
N9430X6.1425Y4.4545
N9440X6.1454Y4.4580
N9450X6.1475Y4.4620
N9460X6.1489Y4.4664
N9470X6.1494Y4.4712
N9480X6.1489Y4.4760
N9490X6.1475Y4.4804
N9500X6.1454Y4.4844
N9510X6.1425Y4.4879
N9520X6.1390Y4.4908
N9530X6.1350Y4.4929
N9540X6.1306Y4.4943
N9550X6.1258Y4.4948
N9560X6.1210Y4.4943
N9570X6.1166Y4.4929
N9580X6.1126Y4.4908
N9590X6.1091Y4.4879
N9600X6.1062Y4.4844
N9610X6.1040Y4.4804
N9620X6.1027Y4.4760
N9630X6.1022Y4.4712
N9640G01Z-0.1500F15.0
N9650G01X6.1027Y4.4664F25.0
N9660X6.1040Y4.4620
N9670X6.1062Y4.4580
N9680X6.1091Y4.4545
N9690X6.1126Y4.4516
N9700X6.1166Y4.4494
N9710X6.1210Y4.4481
N9720X6.1258Y4.4476
N9730X6.1306Y4.4481
N9740X6.1350Y4.4494
N9750X6.1390Y4.4516
N9760X6.1425Y4.4545
N9770X6.1454Y4.4580
N9780X6.1475Y4.4620
N9790X6.1489Y4.4664
N9800X6.1494Y4.4712
N9810X6.1489Y4.4760
N9820X6.1475Y4.4804
N9830X6.1454Y4.4844
N9840X6.1425Y4.4879
N9850X6.1390Y4.4908
N9860X6.1350Y4.4929
N9870X6.1306Y4.4943
N9880X6.1258Y4.4948
N9890X6.1210Y4.4943
N9900X6.1166Y4.4929
N9910X6.1126Y4.4908
N9920X6.1091Y4.4879
N9930X6.1062Y4.4844
N9940X6.1040Y4.4804
N9950X6.1027Y4.4760
N9960X6.1022Y4.4712
N9970G00Z0.2500
N9980G00X5.5969Y5.4309
N9990G01Z-0.0500F15.0
N10000G01Y5.3584F25.0
N10010X6.1794
N10020Y5.4309
N10030X5.5969
N10040G01Z-0.1000F15.0
N10050G01Y5.3584F25.0
N10060X6.1794
N10070Y5.4309
N10080X5.5969
N10090G01Z-0.1500F15.0
N10100G01Y5.3584F25.0
N10110X6.1794
N10120Y5.4309
N10130X5.5969
N10140G00Z0.2500
N10150G00Y6.8166
N10160G01Z-0.0500F15.0
N10170G01Y6.7441F25.0
N10180X6.1794
N10190Y6.8166
N10200X5.5969
N10210G01Z-0.1000F15.0
N10220G01Y6.7441F25.0
N10230X6.1794
N10240Y6.8166
N10250X5.5969
N10260G01Z-0.1500F15.0
N10270G01Y6.7441F25.0
N10280X6.1794
N10290Y6.8166
N10300X5.5969
N10310G00Z0.2500
N10320G00X6.8921Y6.1943
N10330G01Z-0.0500F15.0
N10340G01X6.8969Y6.1948F25.0
N10350X6.9013Y6.1961
N10360X6.9053Y6.1983
N10370X6.9088Y6.2012
N10380X6.9117Y6.2047
N10390X6.9138Y6.2087
N10400X6.9152Y6.2130
N10410X6.9157Y6.2179
N10420X6.9152Y6.2227
N10430X6.9138Y6.2271
N10440X6.9117Y6.2311
N10450X6.9088Y6.2346
N10460X6.9053Y6.2374
N10470X6.9013Y6.2396
N10480X6.8969Y6.2410
N10490X6.8921Y6.2415
N10500X6.8872Y6.2410
N10510X6.8829Y6.2396
N10520X6.8789Y6.2374
N10530X6.8754Y6.2346
N10540X6.8725Y6.2311
N10550X6.8703Y6.2271
N10560X6.8690Y6.2227
N10570X6.8685Y6.2179
N10580X6.8690Y6.2130
N10590X6.8703Y6.2087
N10600X6.8725Y6.2047
N10610X6.8754Y6.2012
N10620X6.8789Y6.1983
N10630X6.8829Y6.1961
N10640X6.8872Y6.1948
N10650X6.8921Y6.1943
N10660G01Z-0.1000F15.0
N10670G01X6.8969Y6.1948F25.0
N10680X6.9013Y6.1961
N10690X6.9053Y6.1983
N10700X6.9088Y6.2012
N10710X6.9117Y6.2047
N10720X6.9138Y6.2087
N10730X6.9152Y6.2130
N10740X6.9157Y6.2179
N10750X6.9152Y6.2227
N10760X6.9138Y6.2271
N10770X6.9117Y6.2311
N10780X6.9088Y6.2346
N10790X6.9053Y6.2374
N10800X6.9013Y6.2396
N10810X6.8969Y6.2410
N10820X6.8921Y6.2415
N10830X6.8872Y6.2410
N10840X6.8829Y6.2396
N10850X6.8789Y6.2374
N10860X6.8754Y6.2346
N10870X6.8725Y6.2311
N10880X6.8703Y6.2271
N10890X6.8690Y6.2227
N10900X6.8685Y6.2179
N10910X6.8690Y6.2130
N10920X6.8703Y6.2087
N10930X6.8725Y6.2047
N10940X6.8754Y6.2012
N10950X6.8789Y6.1983
N10960X6.8829Y6.1961
N10970X6.8872Y6.1948
N10980X6.8921Y6.1943
N10990G01Z-0.1500F15.0
N11000G01X6.8969Y6.1948F25.0
N11010X6.9013Y6.1961
N11020X6.9053Y6.1983
N11030X6.9088Y6.2012
N11040X6.9117Y6.2047
N11050X6.9138Y6.2087
N11060X6.9152Y6.2130
N11070X6.9157Y6.2179
N11080X6.9152Y6.2227
N11090X6.9138Y6.2271
N11100X6.9117Y6.2311
N11110X6.9088Y6.2346
N11120X6.9053Y6.2374
N11130X6.9013Y6.2396
N11140X6.8969Y6.2410
N11150X6.8921Y6.2415
N11160X6.8872Y6.2410
N11170X6.8829Y6.2396
N11180X6.8789Y6.2374
N11190X6.8754Y6.2346
N11200X6.8725Y6.2311
N11210X6.8703Y6.2271
N11220X6.8690Y6.2227
N11230X6.8685Y6.2179
N11240X6.8690Y6.2130
N11250X6.8703Y6.2087
N11260X6.8725Y6.2047
N11270X6.8754Y6.2012
N11280X6.8789Y6.1983
N11290X6.8829Y6.1961
N11300X6.8872Y6.1948
N11310X6.8921Y6.1943
N11320G00Z0.2500
N11330G00X6.1040Y3.2628
N11340G01Z-0.0500F15.0
N11350G01X6.1045Y3.2580F25.0
N11360X6.1058Y3.2536
N11370X6.1080Y3.2497
N11380X6.1109Y3.2462
N11390X6.1144Y3.2433
N11400X6.1184Y3.2411
N11410X6.1228Y3.2397
N11420X6.1276Y3.2393
N11430X6.1324Y3.2397
N11440X6.1368Y3.2411
N11450X6.1408Y3.2433
N11460X6.1443Y3.2462
N11470X6.1472Y3.2497
N11480X6.1493Y3.2536
N11490X6.1507Y3.2580
N11500X6.1512Y3.2628
N11510X6.1507Y3.2677
N11520X6.1493Y3.2721
N11530X6.1472Y3.2760
N11540X6.1443Y3.2795
N11550X6.1408Y3.2824
N11560X6.1368Y3.2846
N11570X6.1324Y3.2860
N11580X6.1276Y3.2864
N11590X6.1228Y3.2860
N11600X6.1184Y3.2846
N11610X6.1144Y3.2824
N11620X6.1109Y3.2795
N11630X6.1080Y3.2760
N11640X6.1058Y3.2721
N11650X6.1045Y3.2677
N11660X6.1040Y3.2628
N11670G01Z-0.1000F15.0
N11680G01X6.1045Y3.2580F25.0
N11690X6.1058Y3.2536
N11700X6.1080Y3.2497
N11710X6.1109Y3.2462
N11720X6.1144Y3.2433
N11730X6.1184Y3.2411
N11740X6.1228Y3.2397
N11750X6.1276Y3.2393
N11760X6.1324Y3.2397
N11770X6.1368Y3.2411
N11780X6.1408Y3.2433
N11790X6.1443Y3.2462
N11800X6.1472Y3.2497
N11810X6.1493Y3.2536
N11820X6.1507Y3.2580
N11830X6.1512Y3.2628
N11840X6.1507Y3.2677
N11850X6.1493Y3.2721
N11860X6.1472Y3.2760
N11870X6.1443Y3.2795
N11880X6.1408Y3.2824
N11890X6.1368Y3.2846
N11900X6.1324Y3.2860
N11910X6.1276Y3.2864
N11920X6.1228Y3.2860
N11930X6.1184Y3.2846
N11940X6.1144Y3.2824
N11950X6.1109Y3.2795
N11960X6.1080Y3.2760
N11970X6.1058Y3.2721
N11980X6.1045Y3.2677
N11990X6.1040Y3.2628
N12000G01Z-0.1500F15.0
N12010G01X6.1045Y3.2580F25.0
N12020X6.1058Y3.2536
N12030X6.1080Y3.2497
N12040X6.1109Y3.2462
N12050X6.1144Y3.2433
N12060X6.1184Y3.2411
N12070X6.1228Y3.2397
N12080X6.1276Y3.2393
N12090X6.1324Y3.2397
N12100X6.1368Y3.2411
N12110X6.1408Y3.2433
N12120X6.1443Y3.2462
N12130X6.1472Y3.2497
N12140X6.1493Y3.2536
N12150X6.1507Y3.2580
N12160X6.1512Y3.2628
N12170X6.1507Y3.2677
N12180X6.1493Y3.2721
N12190X6.1472Y3.2760
N12200X6.1443Y3.2795
N12210X6.1408Y3.2824
N12220X6.1368Y3.2846
N12230X6.1324Y3.2860
N12240X6.1276Y3.2864
N12250X6.1228Y3.2860
N12260X6.1184Y3.2846
N12270X6.1144Y3.2824
N12280X6.1109Y3.2795
N12290X6.1080Y3.2760
N12300X6.1058Y3.2721
N12310X6.1045Y3.2677
N12320X6.1040Y3.2628
N12330G00Z0.2500
N12340G00X5.1302Y3.2624
N12350G01Z-0.0500F15.0
N12360G01X5.1299Y3.2674F25.0
N12370X5.1292Y3.2723
N12380X5.1280Y3.2769
N12390X5.1264Y3.2814
N12400X5.1243Y3.2856
N12410X5.1219Y3.2896
N12420X5.1191Y3.2934
N12430X5.1159Y3.2969
N12440X5.1124Y3.3000
N12450X5.1087Y3.3028
N12460X5.1047Y3.3053
N12470X5.1004Y3.3073
N12480X5.0960Y3.3089
N12490X5.0913Y3.3101
N12500X5.0865Y3.3109
N12510X5.0815Y3.3111
N12520X5.0764Y3.3109
N12530X5.0716Y3.3101
N12540X5.0670Y3.3089
N12550X5.0625Y3.3073
N12560X5.0583Y3.3053
N12570X5.0542Y3.3028
N12580X5.0505Y3.3000
N12590X5.0470Y3.2969
N12600X5.0439Y3.2934
N12610X5.0410Y3.2896
N12620X5.0386Y3.2856
N12630X5.0366Y3.2814
N12640X5.0349Y3.2769
N12650X5.0337Y3.2723
N12660X5.0330Y3.2674
N12670X5.0327Y3.2624
N12680X5.0330Y3.2574
N12690X5.0337Y3.2525
N12700X5.0349Y3.2479
N12710X5.0366Y3.2434
N12720X5.0386Y3.2392
N12730X5.0410Y3.2352
N12740X5.0439Y3.2314
N12750X5.0470Y3.2280
N12760X5.0505Y3.2248
N12770X5.0542Y3.2220
N12780X5.0583Y3.2196
N12790X5.0625Y3.2175
N12800X5.0670Y3.2159
N12810X5.0716Y3.2147
N12820X5.0764Y3.2140
N12830X5.0815Y3.2137
N12840X5.0865Y3.2140
N12850X5.0913Y3.2147
N12860X5.0960Y3.2159
N12870X5.1004Y3.2175
N12880X5.1047Y3.2196
N12890X5.1087Y3.2220
N12900X5.1124Y3.2248
N12910X5.1159Y3.2280
N12920X5.1191Y3.2314
N12930X5.1219Y3.2352
N12940X5.1243Y3.2392
N12950X5.1264Y3.2434
N12960X5.1280Y3.2479
N12970X5.1292Y3.2525
N12980X5.1299Y3.2574
N12990X5.1302Y3.2624
N13000G01Z-0.1000F15.0
N13010G01X5.1299Y3.2674F25.0
N13020X5.1292Y3.2723
N13030X5.1280Y3.2769
N13040X5.1264Y3.2814
N13050X5.1243Y3.2856
N13060X5.1219Y3.2896
N13070X5.1191Y3.2934
N13080X5.1159Y3.2969
N13090X5.1124Y3.3000
N13100X5.1087Y3.3028
N13110X5.1047Y3.3053
N13120X5.1004Y3.3073
N13130X5.0960Y3.3089
N13140X5.0913Y3.3101
N13150X5.0865Y3.3109
N13160X5.0815Y3.3111
N13170X5.0764Y3.3109
N13180X5.0716Y3.3101
N13190X5.0670Y3.3089
N13200X5.0625Y3.3073
N13210X5.0583Y3.3053
N13220X5.0542Y3.3028
N13230X5.0505Y3.3000
N13240X5.0470Y3.2969
N13250X5.0439Y3.2934
N13260X5.0410Y3.2896
N13270X5.0386Y3.2856
N13280X5.0366Y3.2814
N13290X5.0349Y3.2769
N13300X5.0337Y3.2723
N13310X5.0330Y3.2674
N13320X5.0327Y3.2624
N13330X5.0330Y3.2574
N13340X5.0337Y3.2525
N13350X5.0349Y3.2479
N13360X5.0366Y3.2434
N13370X5.0386Y3.2392
N13380X5.0410Y3.2352
N13390X5.0439Y3.2314
N13400X5.0470Y3.2280
N13410X5.0505Y3.2248
N13420X5.0542Y3.2220
N13430X5.0583Y3.2196
N13440X5.0625Y3.2175
N13450X5.0670Y3.2159
N13460X5.0716Y3.2147
N13470X5.0764Y3.2140
N13480X5.0815Y3.2137
N13490X5.0865Y3.2140
N13500X5.0913Y3.2147
N13510X5.0960Y3.2159
N13520X5.1004Y3.2175
N13530X5.1047Y3.2196
N13540X5.1087Y3.2220
N13550X5.1124Y3.2248
N13560X5.1159Y3.2280
N13570X5.1191Y3.2314
N13580X5.1219Y3.2352
N13590X5.1243Y3.2392
N13600X5.1264Y3.2434
N13610X5.1280Y3.2479
N13620X5.1292Y3.2525
N13630X5.1299Y3.2574
N13640X5.1302Y3.2624
N13650G01Z-0.1500F15.0
N13660G01X5.1299Y3.2674F25.0
N13670X5.1292Y3.2723
N13680X5.1280Y3.2769
N13690X5.1264Y3.2814
N13700X5.1243Y3.2856
N13710X5.1219Y3.2896
N13720X5.1191Y3.2934
N13730X5.1159Y3.2969
N13740X5.1124Y3.3000
N13750X5.1087Y3.3028
N13760X5.1047Y3.3053
N13770X5.1004Y3.3073
N13780X5.0960Y3.3089
N13790X5.0913Y3.3101
N13800X5.0865Y3.3109
N13810X5.0815Y3.3111
N13820X5.0764Y3.3109
N13830X5.0716Y3.3101
N13840X5.0670Y3.3089
N13850X5.0625Y3.3073
N13860X5.0583Y3.3053
N13870X5.0542Y3.3028
N13880X5.0505Y3.3000
N13890X5.0470Y3.2969
N13900X5.0439Y3.2934
N13910X5.0410Y3.2896
N13920X5.0386Y3.2856
N13930X5.0366Y3.2814
N13940X5.0349Y3.2769
N13950X5.0337Y3.2723
N13960X5.0330Y3.2674
N13970X5.0327Y3.2624
N13980X5.0330Y3.2574
N13990X5.0337Y3.2525
N14000X5.0349Y3.2479
N14010X5.0366Y3.2434
N14020X5.0386Y3.2392
N14030X5.0410Y3.2352
N14040X5.0439Y3.2314
N14050X5.0470Y3.2280
N14060X5.0505Y3.2248
N14070X5.0542Y3.2220
N14080X5.0583Y3.2196
N14090X5.0625Y3.2175
N14100X5.0670Y3.2159
N14110X5.0716Y3.2147
N14120X5.0764Y3.2140
N14130X5.0815Y3.2137
N14140X5.0865Y3.2140
N14150X5.0913Y3.2147
N14160X5.0960Y3.2159
N14170X5.1004Y3.2175
N14180X5.1047Y3.2196
N14190X5.1087Y3.2220
N14200X5.1124Y3.2248
N14210X5.1159Y3.2280
N14220X5.1191Y3.2314
N14230X5.1219Y3.2352
N14240X5.1243Y3.2392
N14250X5.1264Y3.2434
N14260X5.1280Y3.2479
N14270X5.1292Y3.2525
N14280X5.1299Y3.2574
N14290X5.1302Y3.2624
N14300G00Z0.2500
N14310G00X4.1794Y2.2166
N14320G01Z-0.0500F15.0
N14330G01Y2.2891F25.0
N14340X3.5969
N14350Y2.2166
N14360X4.1794
N14370G01Z-0.1000F15.0
N14380G01Y2.2891F25.0
N14390X3.5969
N14400Y2.2166
N14410X4.1794
N14420G01Z-0.1500F15.0
N14430G01Y2.2891F25.0
N14440X3.5969
N14450Y2.2166
N14460X4.1794
N14470G00Z0.2500
N14480G00X6.1794
N14490G01Z-0.0500F15.0
N14500G01Y2.2891F25.0
N14510X5.5969
N14520Y2.2166
N14530X6.1794
N14540G01Z-0.1000F15.0
N14550G01Y2.2891F25.0
N14560X5.5969
N14570Y2.2166
N14580X6.1794
N14590G01Z-0.1500F15.0
N14600G01Y2.2891F25.0
N14610X5.5969
N14620Y2.2166
N14630X6.1794
N14640G00Z0.2500
N14650G00X6.8921Y1.4532
N14660G01Z-0.0500F15.0
N14670G01X6.8872Y1.4527F25.0
N14680X6.8829Y1.4514
N14690X6.8789Y1.4492
N14700X6.8754Y1.4463
N14710X6.8725Y1.4428
N14720X6.8703Y1.4388
N14730X6.8690Y1.4344
N14740X6.8685Y1.4296
N14750X6.8690Y1.4248
N14760X6.8703Y1.4204
N14770X6.8725Y1.4164
N14780X6.8754Y1.4129
N14790X6.8789Y1.4100
N14800X6.8829Y1.4079
N14810X6.8872Y1.4065
N14820X6.8921Y1.4060
N14830X6.8969Y1.4065
N14840X6.9013Y1.4079
N14850X6.9053Y1.4100
N14860X6.9088Y1.4129
N14870X6.9117Y1.4164
N14880X6.9138Y1.4204
N14890X6.9152Y1.4248
N14900X6.9157Y1.4296
N14910X6.9152Y1.4344
N14920X6.9138Y1.4388
N14930X6.9117Y1.4428
N14940X6.9088Y1.4463
N14950X6.9053Y1.4492
N14960X6.9013Y1.4514
N14970X6.8969Y1.4527
N14980X6.8921Y1.4532
N14990G01Z-0.1000F15.0
N15000G01X6.8872Y1.4527F25.0
N15010X6.8829Y1.4514
N15020X6.8789Y1.4492
N15030X6.8754Y1.4463
N15040X6.8725Y1.4428
N15050X6.8703Y1.4388
N15060X6.8690Y1.4344
N15070X6.8685Y1.4296
N15080X6.8690Y1.4248
N15090X6.8703Y1.4204
N15100X6.8725Y1.4164
N15110X6.8754Y1.4129
N15120X6.8789Y1.4100
N15130X6.8829Y1.4079
N15140X6.8872Y1.4065
N15150X6.8921Y1.4060
N15160X6.8969Y1.4065
N15170X6.9013Y1.4079
N15180X6.9053Y1.4100
N15190X6.9088Y1.4129
N15200X6.9117Y1.4164
N15210X6.9138Y1.4204
N15220X6.9152Y1.4248
N15230X6.9157Y1.4296
N15240X6.9152Y1.4344
N15250X6.9138Y1.4388
N15260X6.9117Y1.4428
N15270X6.9088Y1.4463
N15280X6.9053Y1.4492
N15290X6.9013Y1.4514
N15300X6.8969Y1.4527
N15310X6.8921Y1.4532
N15320G01Z-0.1500F15.0
N15330G01X6.8872Y1.4527F25.0
N15340X6.8829Y1.4514
N15350X6.8789Y1.4492
N15360X6.8754Y1.4463
N15370X6.8725Y1.4428
N15380X6.8703Y1.4388
N15390X6.8690Y1.4344
N15400X6.8685Y1.4296
N15410X6.8690Y1.4248
N15420X6.8703Y1.4204
N15430X6.8725Y1.4164
N15440X6.8754Y1.4129
N15450X6.8789Y1.4100
N15460X6.8829Y1.4079
N15470X6.8872Y1.4065
N15480X6.8921Y1.4060
N15490X6.8969Y1.4065
N15500X6.9013Y1.4079
N15510X6.9053Y1.4100
N15520X6.9088Y1.4129
N15530X6.9117Y1.4164
N15540X6.9138Y1.4204
N15550X6.9152Y1.4248
N15560X6.9157Y1.4296
N15570X6.9152Y1.4344
N15580X6.9138Y1.4388
N15590X6.9117Y1.4428
N15600X6.9088Y1.4463
N15610X6.9053Y1.4492
N15620X6.9013Y1.4514
N15630X6.8969Y1.4527
N15640X6.8921Y1.4532
N15650G00Z0.2500
N15660G00X6.1794Y0.8309
N15670G01Z-0.0500F15.0
N15680G01Y0.9034F25.0
N15690X5.5969
N15700Y0.8309
N15710X6.1794
N15720G01Z-0.1000F15.0
N15730G01Y0.9034F25.0
N15740X5.5969
N15750Y0.8309
N15760X6.1794
N15770G01Z-0.1500F15.0
N15780G01Y0.9034F25.0
N15790X5.5969
N15800Y0.8309
N15810X6.1794
N15820G00Z0.2500
N15830G00X0.9312Y5.1759Z0.2500
N15840G01Z-0.0500F15.0
N15850G01X0.9149Y5.1763F25.0
N15860X0.8985Y5.1775
N15870X0.8823Y5.1796
N15880X0.8663Y5.1825
N15890X0.8506Y5.1861
N15900X0.8352Y5.1905
N15910X0.8202Y5.1957
N15920X0.8054Y5.2015
N15930X0.7910Y5.2080
N15940X0.7770Y5.2152
N15950X0.7634Y5.2231
N15960X0.7503Y5.2315
N15970X0.7376Y5.2406
N15980X0.7253Y5.2503
N15990X0.7135Y5.2605
N16000X0.7022Y5.2712
N16010X0.6915Y5.2825
N16020X0.6813Y5.2943
N16030X0.6716Y5.3066
N16040X0.6625Y5.3193
N16050X0.6541Y5.3324
N16060X0.6462Y5.3460
N16070X0.6390Y5.3600
N16080X0.6325Y5.3744
N16090X0.6267Y5.3892
N16100X0.6215Y5.4042
N16110X0.6171Y5.4196
N16120X0.6135Y5.4353
N16130X0.6106Y5.4513
N16140X0.6085Y5.4675
N16150X0.6073Y5.4839
N16160X0.6069Y5.5002
N16170Y5.7942
N16180X0.6072Y5.8237
N16190X0.6083Y5.8532
N16200X0.6101Y5.8825
N16210X0.6126Y5.9117
N16220X0.6158Y5.9406
N16230X0.6197Y5.9694
N16240X0.6242Y5.9979
N16250X0.6295Y6.0262
N16260X0.6354Y6.0543
N16270X0.6419Y6.0821
N16280X0.6491Y6.1097
N16290X0.6569Y6.1371
N16300X0.6654Y6.1642
N16310X0.6744Y6.1910
N16320X0.6841Y6.2175
N16330X0.6944Y6.2437
N16340X0.7053Y6.2697
N16350X0.7167Y6.2953
N16360X0.7287Y6.3206
N16370X0.7413Y6.3456
N16380X0.7545Y6.3702
N16390X0.7682Y6.3945
N16400X0.7825Y6.4185
N16410X0.7972Y6.4421
N16420X0.8125Y6.4653
N16430X0.8284Y6.4882
N16440X0.8447Y6.5107
N16450X0.8615Y6.5328
N16460X0.8788Y6.5545
N16470X0.8967Y6.5757
N16480X0.9149Y6.5966
N16490X0.9337Y6.6170
N16500X0.9529Y6.6371
N16510X0.9725Y6.6566
N16520X0.9926Y6.6757
N16530X1.0131Y6.6944
N16540X1.0341Y6.7126
N16550X1.0554Y6.7303
N16560X1.0772Y6.7475
N16570X1.0993Y6.7642
N16580X1.1219Y6.7805
N16590X1.1448Y6.7962
N16600X1.1681Y6.8114
N16610X1.1918Y6.8261
N16620X1.2158Y6.8403
N16630X1.2402Y6.8539
N16640X1.2649Y6.8669
N16650X1.2900Y6.8794
N16660X1.3154Y6.8913
N16670X1.3410Y6.9027
N16680X1.3670Y6.9134
N16690X1.3933Y6.9236
N16700X1.4199Y6.9332
N16710X1.4467Y6.9421
N16720X1.4739Y6.9505
N16730X1.5013Y6.9582
N16740X1.5289Y6.9652
N16750X1.5568Y6.9717
N16760X1.5849Y6.9774
N16770X1.6133Y6.9825
N16780X1.6418Y6.9870
N16790X1.6706Y6.9907
N16800X1.6996Y6.9938
N16810X1.7284Y6.9961
N16820G2X1.7533Y6.9869I0.0025J-0.0311
N16830G01X1.8213Y6.9175
N16840X1.9550
N16850X2.0258Y6.9897
N16860G2X2.0481Y6.9991I0.0223J-0.0219
N16870G01X2.4928
N16880X2.6553
N16890X3.6381
N16900G2X3.6694Y6.9679I0.0000J-0.0313
N16910G01Y6.6370
N16920G2X3.6457Y6.6067I-0.0313J0.0000
N16930G01X3.6191Y6.6000
N16940X3.5934Y6.5928
N16950X3.5682Y6.5850
N16960X3.5436Y6.5765
N16970X3.5195Y6.5675
N16980X3.4961Y6.5579
N16990X3.4733Y6.5478
N17000X3.4511Y6.5371
N17010X3.4297Y6.5258
N17020X3.4089Y6.5141
N17030X3.3888Y6.5019
N17040X3.3695Y6.4892
N17050X3.3510Y6.4761
N17060X3.3332Y6.4625
N17070X3.3163Y6.4486
N17080X3.3001Y6.4342
N17090X3.2849Y6.4195
N17100X3.2705Y6.4044
N17110X3.2570Y6.3890
N17120X3.2444Y6.3733
N17130X3.2327Y6.3572
N17140X3.2219Y6.3409
N17150X3.2122Y6.3244
N17160X3.2033Y6.3076
N17170X3.1955Y6.2905
N17180X3.1887Y6.2732
N17190X3.1829Y6.2558
N17200X3.1781Y6.2381
N17210X3.1743Y6.2202
N17220X3.1716Y6.2022
N17230X3.1699Y6.1839
N17240X3.1694Y6.1656
N17250X3.1703Y6.1421
N17260X3.1729Y6.1191
N17270X3.1772Y6.0963
N17280X3.1833Y6.0739
N17290X3.1909Y6.0518
N17300X3.2002Y6.0300
N17310X3.2110Y6.0086
N17320X3.2235Y5.9876
N17330X3.2374Y5.9670
N17340X3.2529Y5.9469
N17350X3.2698Y5.9273
N17360X3.2882Y5.9082
N17370X3.3079Y5.8896
N17380X3.3290Y5.8717
N17390X3.3515Y5.8545
N17400X3.3751Y5.8379
N17410X3.4000Y5.8221
N17420X3.4261Y5.8070
N17430X3.4533Y5.7928
N17440X3.4816Y5.7794
N17450X3.5110Y5.7668
N17460X3.5413Y5.7552
N17470X3.5725Y5.7445
N17480X3.6047Y5.7348
N17490X3.6377Y5.7262
N17500X3.6714Y5.7186
N17510X3.7060Y5.7120
N17520X3.7412Y5.7066
N17530X3.7771Y5.7023
N17540X3.8136Y5.6992
N17550X3.8506Y5.6974
N17560X3.8881Y5.6967
N17570X3.9257Y5.6974
N17580X3.9627Y5.6992
N17590X3.9992Y5.7023
N17600X4.0351Y5.7066
N17610X4.0703Y5.7120
N17620X4.1048Y5.7186
N17630X4.1386Y5.7262
N17640X4.1716Y5.7348
N17650X4.2037Y5.7445
N17660X4.2350Y5.7552
N17670X4.2653Y5.7668
N17680X4.2946Y5.7794
N17690X4.3229Y5.7928
N17700X4.3501Y5.8070
N17710X4.3762Y5.8221
N17720X4.4011Y5.8379
N17730X4.4248Y5.8545
N17740X4.4472Y5.8717
N17750X4.4683Y5.8896
N17760X4.4881Y5.9082
N17770X4.5064Y5.9273
N17780X4.5234Y5.9469
N17790X4.5388Y5.9670
N17800X4.5528Y5.9876
N17810X4.5652Y6.0086
N17820X4.5761Y6.0300
N17830X4.5853Y6.0518
N17840X4.5930Y6.0739
N17850X4.5990Y6.0963
N17860X4.6033Y6.1191
N17870X4.6060Y6.1421
N17880X4.6069Y6.1656
N17890X4.6063Y6.1839
N17900X4.6047Y6.2022
N17910X4.6020Y6.2202
N17920X4.5982Y6.2381
N17930X4.5934Y6.2558
N17940X4.5876Y6.2732
N17950X4.5807Y6.2905
N17960X4.5729Y6.3076
N17970X4.5641Y6.3244
N17980X4.5543Y6.3409
N17990X4.5436Y6.3572
N18000X4.5319Y6.3733
N18010X4.5193Y6.3890
N18020X4.5058Y6.4044
N18030X4.4914Y6.4195
N18040X4.4761Y6.4342
N18050X4.4600Y6.4486
N18060X4.4430Y6.4625
N18070X4.4253Y6.4761
N18080X4.4067Y6.4892
N18090X4.3874Y6.5019
N18100X4.3674Y6.5141
N18110X4.3466Y6.5258
N18120X4.3251Y6.5371
N18130X4.3030Y6.5478
N18140X4.2801Y6.5579
N18150X4.2567Y6.5675
N18160X4.2327Y6.5765
N18170X4.2081Y6.5850
N18180X4.1829Y6.5928
N18190X4.1572Y6.6000
N18200X4.1305Y6.6067
N18210G2X4.1069Y6.6370I0.0076J0.0303
N18220G01Y6.9679
N18230G2X4.1381Y6.9991I0.0313J0.0000
N18240G01X4.6660
N18250X4.8285
N18260X5.7281
N18270G2X5.7504Y6.9897I0.0000J-0.0313
N18280G01X5.8213Y6.9175
N18290X5.9550
N18300X6.0230Y6.9869
N18310G2X6.0479Y6.9961I0.0223J-0.0219
N18320G01X6.0766Y6.9938
N18330X6.1056Y6.9907
N18340X6.1344Y6.9870
N18350X6.1630Y6.9825
N18360X6.1913Y6.9774
N18370X6.2195Y6.9717
N18380X6.2474Y6.9652
N18390X6.2750Y6.9582
N18400X6.3024Y6.9505
N18410X6.3295Y6.9421
N18420X6.3564Y6.9332
N18430X6.3829Y6.9236
N18440X6.4092Y6.9134
N18450X6.4352Y6.9027
N18460X6.4609Y6.8913
N18470X6.4863Y6.8794
N18480X6.5113Y6.8669
N18490X6.5360Y6.8539
N18500X6.5604Y6.8403
N18510X6.5844Y6.8261
N18520X6.6081Y6.8114
N18530X6.6314Y6.7962
N18540X6.6544Y6.7805
N18550X6.6769Y6.7642
N18560X6.6991Y6.7475
N18570X6.7208Y6.7303
N18580X6.7422Y6.7126
N18590X6.7631Y6.6944
N18600X6.7837Y6.6757
N18610X6.8037Y6.6566
N18620X6.8234Y6.6371
N18630X6.8426Y6.6170
N18640X6.8613Y6.5966
N18650X6.8796Y6.5757
N18660X6.8974Y6.5545
N18670X6.9147Y6.5328
N18680X6.9316Y6.5107
N18690X6.9479Y6.4882
N18700X6.9637Y6.4653
N18710X6.9790Y6.4421
N18720X6.9938Y6.4185
N18730X7.0080Y6.3945
N18740X7.0217Y6.3702
N18750X7.0349Y6.3456
N18760X7.0475Y6.3206
N18770X7.0595Y6.2953
N18780X7.0710Y6.2697
N18790X7.0819Y6.2437
N18800X7.0921Y6.2175
N18810X7.1018Y6.1910
N18820X7.1109Y6.1642
N18830X7.1193Y6.1371
N18840X7.1272Y6.1097
N18850X7.1343Y6.0821
N18860X7.1409Y6.0543
N18870X7.1468Y6.0262
N18880X7.1520Y5.9979
N18890X7.1566Y5.9694
N18900X7.1604Y5.9406
N18910X7.1636Y5.9117
N18920X7.1661Y5.8825
N18930X7.1679Y5.8532
N18940X7.1690Y5.8237
N18950X7.1694Y5.7942
N18960Y5.5002
N18970X7.1690Y5.4839
N18980X7.1677Y5.4675
N18990X7.1656Y5.4513
N19000X7.1628Y5.4353
N19010X7.1591Y5.4196
N19020X7.1547Y5.4042
N19030X7.1496Y5.3892
N19040X7.1437Y5.3744
N19050X7.1372Y5.3600
N19060X7.1300Y5.3460
N19070X7.1222Y5.3324
N19080X7.1137Y5.3193
N19090X7.1047Y5.3066
N19100X7.0950Y5.2943
N19110X7.0848Y5.2825
N19120X7.0740Y5.2712
N19130X7.0628Y5.2605
N19140X7.0510Y5.2503
N19150X7.0387Y5.2406
N19160X7.0260Y5.2315
N19170X7.0128Y5.2231
N19180X6.9992Y5.2152
N19190X6.9852Y5.2080
N19200X6.9708Y5.2015
N19210X6.9561Y5.1957
N19220X6.9410Y5.1905
N19230X6.9256Y5.1861
N19240X6.9099Y5.1825
N19250X6.8940Y5.1796
N19260X6.8778Y5.1775
N19270X6.8613Y5.1763
N19280X6.8451Y5.1759
N19290X6.0481
N19300G2X6.0258Y5.1853I0.0000J0.0313
N19310G01X5.9550Y5.2575
N19320X5.8213
N19330X5.7504Y5.1853
N19340G2X5.7281Y5.1759I-0.0223J0.0219
N19350G01X5.6521
N19360X5.4896
N19370X4.0481
N19380G2X4.0258Y5.1853I0.0000J0.0313
N19390G01X3.9550Y5.2575
N19400X3.8213
N19410X3.7504Y5.1853
N19420G2X3.7281Y5.1759I-0.0223J0.0219
N19430G01X2.3785
N19440X2.2160
N19450X2.0481
N19460G2X2.0258Y5.1853I0.0000J0.0313
N19470G01X1.9550Y5.2575
N19480X1.8213
N19490X1.7504Y5.1853
N19500G2X1.7281Y5.1759I-0.0223J0.0219
N19510G01X0.9312
N19520G01Z-0.1000F15.0
N19530G01X0.9149Y5.1763F25.0
N19540X0.8985Y5.1775
N19550X0.8823Y5.1796
N19560X0.8663Y5.1825
N19570X0.8506Y5.1861
N19580X0.8352Y5.1905
N19590X0.8202Y5.1957
N19600X0.8054Y5.2015
N19610X0.7910Y5.2080
N19620X0.7770Y5.2152
N19630X0.7634Y5.2231
N19640X0.7503Y5.2315
N19650X0.7376Y5.2406
N19660X0.7253Y5.2503
N19670X0.7135Y5.2605
N19680X0.7022Y5.2712
N19690X0.6915Y5.2825
N19700X0.6813Y5.2943
N19710X0.6716Y5.3066
N19720X0.6625Y5.3193
N19730X0.6541Y5.3324
N19740X0.6462Y5.3460
N19750X0.6390Y5.3600
N19760X0.6325Y5.3744
N19770X0.6267Y5.3892
N19780X0.6215Y5.4042
N19790X0.6171Y5.4196
N19800X0.6135Y5.4353
N19810X0.6106Y5.4513
N19820X0.6085Y5.4675
N19830X0.6073Y5.4839
N19840X0.6069Y5.5002
N19850Y5.7942
N19860X0.6072Y5.8237
N19870X0.6083Y5.8532
N19880X0.6101Y5.8825
N19890X0.6126Y5.9117
N19900X0.6158Y5.9406
N19910X0.6197Y5.9694
N19920X0.6242Y5.9979
N19930X0.6295Y6.0262
N19940X0.6354Y6.0543
N19950X0.6419Y6.0821
N19960X0.6491Y6.1097
N19970X0.6569Y6.1371
N19980X0.6654Y6.1642
N19990X0.6744Y6.1910
N20000X0.6841Y6.2175
N20010X0.6944Y6.2437
N20020X0.7053Y6.2697
N20030X0.7167Y6.2953
N20040X0.7287Y6.3206
N20050X0.7413Y6.3456
N20060X0.7545Y6.3702
N20070X0.7682Y6.3945
N20080X0.7825Y6.4185
N20090X0.7972Y6.4421
N20100X0.8125Y6.4653
N20110X0.8284Y6.4882
N20120X0.8447Y6.5107
N20130X0.8615Y6.5328
N20140X0.8788Y6.5545
N20150X0.8967Y6.5757
N20160X0.9149Y6.5966
N20170X0.9337Y6.6170
N20180X0.9529Y6.6371
N20190X0.9725Y6.6566
N20200X0.9926Y6.6757
N20210X1.0131Y6.6944
N20220X1.0341Y6.7126
N20230X1.0554Y6.7303
N20240X1.0772Y6.7475
N20250X1.0993Y6.7642
N20260X1.1219Y6.7805
N20270X1.1448Y6.7962
N20280X1.1681Y6.8114
N20290X1.1918Y6.8261
N20300X1.2158Y6.8403
N20310X1.2402Y6.8539
N20320X1.2649Y6.8669
N20330X1.2900Y6.8794
N20340X1.3154Y6.8913
N20350X1.3410Y6.9027
N20360X1.3670Y6.9134
N20370X1.3933Y6.9236
N20380X1.4199Y6.9332
N20390X1.4467Y6.9421
N20400X1.4739Y6.9505
N20410X1.5013Y6.9582
N20420X1.5289Y6.9652
N20430X1.5568Y6.9717
N20440X1.5849Y6.9774
N20450X1.6133Y6.9825
N20460X1.6418Y6.9870
N20470X1.6706Y6.9907
N20480X1.6996Y6.9938
N20490X1.7284Y6.9961
N20500G2X1.7533Y6.9869I0.0025J-0.0311
N20510G01X1.8213Y6.9175
N20520X1.9550
N20530X2.0258Y6.9897
N20540G2X2.0481Y6.9991I0.0223J-0.0219
N20550G01X2.4928
N20560Z-0.0750
N20570X2.6553
N20580G01Z-0.1000F15.0
N20590G01X3.6381F25.0
N20600G2X3.6694Y6.9679I0.0000J-0.0313
N20610G01Y6.6370
N20620G2X3.6457Y6.6067I-0.0313J0.0000
N20630G01X3.6191Y6.6000
N20640X3.5934Y6.5928
N20650X3.5682Y6.5850
N20660X3.5436Y6.5765
N20670X3.5195Y6.5675
N20680X3.4961Y6.5579
N20690X3.4733Y6.5478
N20700X3.4511Y6.5371
N20710X3.4297Y6.5258
N20720X3.4089Y6.5141
N20730X3.3888Y6.5019
N20740X3.3695Y6.4892
N20750X3.3510Y6.4761
N20760X3.3332Y6.4625
N20770X3.3163Y6.4486
N20780X3.3001Y6.4342
N20790X3.2849Y6.4195
N20800X3.2705Y6.4044
N20810X3.2570Y6.3890
N20820X3.2444Y6.3733
N20830X3.2327Y6.3572
N20840X3.2219Y6.3409
N20850X3.2122Y6.3244
N20860X3.2033Y6.3076
N20870X3.1955Y6.2905
N20880X3.1887Y6.2732
N20890X3.1829Y6.2558
N20900X3.1781Y6.2381
N20910X3.1743Y6.2202
N20920X3.1716Y6.2022
N20930X3.1699Y6.1839
N20940X3.1694Y6.1656
N20950X3.1703Y6.1421
N20960X3.1729Y6.1191
N20970X3.1772Y6.0963
N20980X3.1833Y6.0739
N20990X3.1909Y6.0518
N21000X3.2002Y6.0300
N21010X3.2110Y6.0086
N21020X3.2235Y5.9876
N21030X3.2374Y5.9670
N21040X3.2529Y5.9469
N21050X3.2698Y5.9273
N21060X3.2882Y5.9082
N21070X3.3079Y5.8896
N21080X3.3290Y5.8717
N21090X3.3515Y5.8545
N21100X3.3751Y5.8379
N21110X3.4000Y5.8221
N21120X3.4261Y5.8070
N21130X3.4533Y5.7928
N21140X3.4816Y5.7794
N21150X3.5110Y5.7668
N21160X3.5413Y5.7552
N21170X3.5725Y5.7445
N21180X3.6047Y5.7348
N21190X3.6377Y5.7262
N21200X3.6714Y5.7186
N21210X3.7060Y5.7120
N21220X3.7412Y5.7066
N21230X3.7771Y5.7023
N21240X3.8136Y5.6992
N21250X3.8506Y5.6974
N21260X3.8881Y5.6967
N21270X3.9257Y5.6974
N21280X3.9627Y5.6992
N21290X3.9992Y5.7023
N21300X4.0351Y5.7066
N21310X4.0703Y5.7120
N21320X4.1048Y5.7186
N21330X4.1386Y5.7262
N21340X4.1716Y5.7348
N21350X4.2037Y5.7445
N21360X4.2350Y5.7552
N21370X4.2653Y5.7668
N21380X4.2946Y5.7794
N21390X4.3229Y5.7928
N21400X4.3501Y5.8070
N21410X4.3762Y5.8221
N21420X4.4011Y5.8379
N21430X4.4248Y5.8545
N21440X4.4472Y5.8717
N21450X4.4683Y5.8896
N21460X4.4881Y5.9082
N21470X4.5064Y5.9273
N21480X4.5234Y5.9469
N21490X4.5388Y5.9670
N21500X4.5528Y5.9876
N21510X4.5652Y6.0086
N21520X4.5761Y6.0300
N21530X4.5853Y6.0518
N21540X4.5930Y6.0739
N21550X4.5990Y6.0963
N21560X4.6033Y6.1191
N21570X4.6060Y6.1421
N21580X4.6069Y6.1656
N21590X4.6063Y6.1839
N21600X4.6047Y6.2022
N21610X4.6020Y6.2202
N21620X4.5982Y6.2381
N21630X4.5934Y6.2558
N21640X4.5876Y6.2732
N21650X4.5807Y6.2905
N21660X4.5729Y6.3076
N21670X4.5641Y6.3244
N21680X4.5543Y6.3409
N21690X4.5436Y6.3572
N21700X4.5319Y6.3733
N21710X4.5193Y6.3890
N21720X4.5058Y6.4044
N21730X4.4914Y6.4195
N21740X4.4761Y6.4342
N21750X4.4600Y6.4486
N21760X4.4430Y6.4625
N21770X4.4253Y6.4761
N21780X4.4067Y6.4892
N21790X4.3874Y6.5019
N21800X4.3674Y6.5141
N21810X4.3466Y6.5258
N21820X4.3251Y6.5371
N21830X4.3030Y6.5478
N21840X4.2801Y6.5579
N21850X4.2567Y6.5675
N21860X4.2327Y6.5765
N21870X4.2081Y6.5850
N21880X4.1829Y6.5928
N21890X4.1572Y6.6000
N21900X4.1305Y6.6067
N21910G2X4.1069Y6.6370I0.0076J0.0303
N21920G01Y6.9679
N21930G2X4.1381Y6.9991I0.0313J0.0000
N21940G01X4.6660
N21950Z-0.0750
N21960X4.8285
N21970G01Z-0.1000F15.0
N21980G01X5.7281F25.0
N21990G2X5.7504Y6.9897I0.0000J-0.0313
N22000G01X5.8213Y6.9175
N22010X5.9550
N22020X6.0230Y6.9869
N22030G2X6.0479Y6.9961I0.0223J-0.0219
N22040G01X6.0766Y6.9938
N22050X6.1056Y6.9907
N22060X6.1344Y6.9870
N22070X6.1630Y6.9825
N22080X6.1913Y6.9774
N22090X6.2195Y6.9717
N22100X6.2474Y6.9652
N22110X6.2750Y6.9582
N22120X6.3024Y6.9505
N22130X6.3295Y6.9421
N22140X6.3564Y6.9332
N22150X6.3829Y6.9236
N22160X6.4092Y6.9134
N22170X6.4352Y6.9027
N22180X6.4609Y6.8913
N22190X6.4863Y6.8794
N22200X6.5113Y6.8669
N22210X6.5360Y6.8539
N22220X6.5604Y6.8403
N22230X6.5844Y6.8261
N22240X6.6081Y6.8114
N22250X6.6314Y6.7962
N22260X6.6544Y6.7805
N22270X6.6769Y6.7642
N22280X6.6991Y6.7475
N22290X6.7208Y6.7303
N22300X6.7422Y6.7126
N22310X6.7631Y6.6944
N22320X6.7837Y6.6757
N22330X6.8037Y6.6566
N22340X6.8234Y6.6371
N22350X6.8426Y6.6170
N22360X6.8613Y6.5966
N22370X6.8796Y6.5757
N22380X6.8974Y6.5545
N22390X6.9147Y6.5328
N22400X6.9316Y6.5107
N22410X6.9479Y6.4882
N22420X6.9637Y6.4653
N22430X6.9790Y6.4421
N22440X6.9938Y6.4185
N22450X7.0080Y6.3945
N22460X7.0217Y6.3702
N22470X7.0349Y6.3456
N22480X7.0475Y6.3206
N22490X7.0595Y6.2953
N22500X7.0710Y6.2697
N22510X7.0819Y6.2437
N22520X7.0921Y6.2175
N22530X7.1018Y6.1910
N22540X7.1109Y6.1642
N22550X7.1193Y6.1371
N22560X7.1272Y6.1097
N22570X7.1343Y6.0821
N22580X7.1409Y6.0543
N22590X7.1468Y6.0262
N22600X7.1520Y5.9979
N22610X7.1566Y5.9694
N22620X7.1604Y5.9406
N22630X7.1636Y5.9117
N22640X7.1661Y5.8825
N22650X7.1679Y5.8532
N22660X7.1690Y5.8237
N22670X7.1694Y5.7942
N22680Y5.5002
N22690X7.1690Y5.4839
N22700X7.1677Y5.4675
N22710X7.1656Y5.4513
N22720X7.1628Y5.4353
N22730X7.1591Y5.4196
N22740X7.1547Y5.4042
N22750X7.1496Y5.3892
N22760X7.1437Y5.3744
N22770X7.1372Y5.3600
N22780X7.1300Y5.3460
N22790X7.1222Y5.3324
N22800X7.1137Y5.3193
N22810X7.1047Y5.3066
N22820X7.0950Y5.2943
N22830X7.0848Y5.2825
N22840X7.0740Y5.2712
N22850X7.0628Y5.2605
N22860X7.0510Y5.2503
N22870X7.0387Y5.2406
N22880X7.0260Y5.2315
N22890X7.0128Y5.2231
N22900X6.9992Y5.2152
N22910X6.9852Y5.2080
N22920X6.9708Y5.2015
N22930X6.9561Y5.1957
N22940X6.9410Y5.1905
N22950X6.9256Y5.1861
N22960X6.9099Y5.1825
N22970X6.8940Y5.1796
N22980X6.8778Y5.1775
N22990X6.8613Y5.1763
N23000X6.8451Y5.1759
N23010X6.0481
N23020G2X6.0258Y5.1853I0.0000J0.0313
N23030G01X5.9550Y5.2575
N23040X5.8213
N23050X5.7504Y5.1853
N23060G2X5.7281Y5.1759I-0.0223J0.0219
N23070G01X5.6521
N23080Z-0.0750
N23090X5.4896
N23100G01Z-0.1000F15.0
N23110G01X4.0481F25.0
N23120G2X4.0258Y5.1853I0.0000J0.0313
N23130G01X3.9550Y5.2575
N23140X3.8213
N23150X3.7504Y5.1853
N23160G2X3.7281Y5.1759I-0.0223J0.0219
N23170G01X2.3785
N23180Z-0.0750
N23190X2.2160
N23200G01Z-0.1000F15.0
N23210G01X2.0481F25.0
N23220G2X2.0258Y5.1853I0.0000J0.0313
N23230G01X1.9550Y5.2575
N23240X1.8213
N23250X1.7504Y5.1853
N23260G2X1.7281Y5.1759I-0.0223J0.0219
N23270G01X0.9312
N23280G01Z-0.1500F15.0
N23290G01X0.9149Y5.1763F25.0
N23300X0.8985Y5.1775
N23310X0.8823Y5.1796
N23320X0.8663Y5.1825
N23330X0.8506Y5.1861
N23340X0.8352Y5.1905
N23350X0.8202Y5.1957
N23360X0.8054Y5.2015
N23370X0.7910Y5.2080
N23380X0.7770Y5.2152
N23390X0.7634Y5.2231
N23400X0.7503Y5.2315
N23410X0.7376Y5.2406
N23420X0.7253Y5.2503
N23430X0.7135Y5.2605
N23440X0.7022Y5.2712
N23450X0.6915Y5.2825
N23460X0.6813Y5.2943
N23470X0.6716Y5.3066
N23480X0.6625Y5.3193
N23490X0.6541Y5.3324
N23500X0.6462Y5.3460
N23510X0.6390Y5.3600
N23520X0.6325Y5.3744
N23530X0.6267Y5.3892
N23540X0.6215Y5.4042
N23550X0.6171Y5.4196
N23560X0.6135Y5.4353
N23570X0.6106Y5.4513
N23580X0.6085Y5.4675
N23590X0.6073Y5.4839
N23600X0.6069Y5.5002
N23610Y5.7942
N23620X0.6072Y5.8237
N23630X0.6083Y5.8532
N23640X0.6101Y5.8825
N23650X0.6126Y5.9117
N23660X0.6158Y5.9406
N23670X0.6197Y5.9694
N23680X0.6242Y5.9979
N23690X0.6295Y6.0262
N23700X0.6354Y6.0543
N23710X0.6419Y6.0821
N23720X0.6491Y6.1097
N23730X0.6569Y6.1371
N23740X0.6654Y6.1642
N23750X0.6744Y6.1910
N23760X0.6841Y6.2175
N23770X0.6944Y6.2437
N23780X0.7053Y6.2697
N23790X0.7167Y6.2953
N23800X0.7287Y6.3206
N23810X0.7413Y6.3456
N23820X0.7545Y6.3702
N23830X0.7682Y6.3945
N23840X0.7825Y6.4185
N23850X0.7972Y6.4421
N23860X0.8125Y6.4653
N23870X0.8284Y6.4882
N23880X0.8447Y6.5107
N23890X0.8615Y6.5328
N23900X0.8788Y6.5545
N23910X0.8967Y6.5757
N23920X0.9149Y6.5966
N23930X0.9337Y6.6170
N23940X0.9529Y6.6371
N23950X0.9725Y6.6566
N23960X0.9926Y6.6757
N23970X1.0131Y6.6944
N23980X1.0341Y6.7126
N23990X1.0554Y6.7303
N24000X1.0772Y6.7475
N24010X1.0993Y6.7642
N24020X1.1219Y6.7805
N24030X1.1448Y6.7962
N24040X1.1681Y6.8114
N24050X1.1918Y6.8261
N24060X1.2158Y6.8403
N24070X1.2402Y6.8539
N24080X1.2649Y6.8669
N24090X1.2900Y6.8794
N24100X1.3154Y6.8913
N24110X1.3410Y6.9027
N24120X1.3670Y6.9134
N24130X1.3933Y6.9236
N24140X1.4199Y6.9332
N24150X1.4467Y6.9421
N24160X1.4739Y6.9505
N24170X1.5013Y6.9582
N24180X1.5289Y6.9652
N24190X1.5568Y6.9717
N24200X1.5849Y6.9774
N24210X1.6133Y6.9825
N24220X1.6418Y6.9870
N24230X1.6706Y6.9907
N24240X1.6996Y6.9938
N24250X1.7284Y6.9961
N24260G2X1.7533Y6.9869I0.0025J-0.0311
N24270G01X1.8213Y6.9175
N24280X1.9550
N24290X2.0258Y6.9897
N24300G2X2.0481Y6.9991I0.0223J-0.0219
N24310G01X2.4928
N24320Z-0.0750
N24330X2.6553
N24340G01Z-0.1500F15.0
N24350G01X3.6381F25.0
N24360G2X3.6694Y6.9679I0.0000J-0.0313
N24370G01Y6.6370
N24380G2X3.6457Y6.6067I-0.0313J0.0000
N24390G01X3.6191Y6.6000
N24400X3.5934Y6.5928
N24410X3.5682Y6.5850
N24420X3.5436Y6.5765
N24430X3.5195Y6.5675
N24440X3.4961Y6.5579
N24450X3.4733Y6.5478
N24460X3.4511Y6.5371
N24470X3.4297Y6.5258
N24480X3.4089Y6.5141
N24490X3.3888Y6.5019
N24500X3.3695Y6.4892
N24510X3.3510Y6.4761
N24520X3.3332Y6.4625
N24530X3.3163Y6.4486
N24540X3.3001Y6.4342
N24550X3.2849Y6.4195
N24560X3.2705Y6.4044
N24570X3.2570Y6.3890
N24580X3.2444Y6.3733
N24590X3.2327Y6.3572
N24600X3.2219Y6.3409
N24610X3.2122Y6.3244
N24620X3.2033Y6.3076
N24630X3.1955Y6.2905
N24640X3.1887Y6.2732
N24650X3.1829Y6.2558
N24660X3.1781Y6.2381
N24670X3.1743Y6.2202
N24680X3.1716Y6.2022
N24690X3.1699Y6.1839
N24700X3.1694Y6.1656
N24710X3.1703Y6.1421
N24720X3.1729Y6.1191
N24730X3.1772Y6.0963
N24740X3.1833Y6.0739
N24750X3.1909Y6.0518
N24760X3.2002Y6.0300
N24770X3.2110Y6.0086
N24780X3.2235Y5.9876
N24790X3.2374Y5.9670
N24800X3.2529Y5.9469
N24810X3.2698Y5.9273
N24820X3.2882Y5.9082
N24830X3.3079Y5.8896
N24840X3.3290Y5.8717
N24850X3.3515Y5.8545
N24860X3.3751Y5.8379
N24870X3.4000Y5.8221
N24880X3.4261Y5.8070
N24890X3.4533Y5.7928
N24900X3.4816Y5.7794
N24910X3.5110Y5.7668
N24920X3.5413Y5.7552
N24930X3.5725Y5.7445
N24940X3.6047Y5.7348
N24950X3.6377Y5.7262
N24960X3.6714Y5.7186
N24970X3.7060Y5.7120
N24980X3.7412Y5.7066
N24990X3.7771Y5.7023
N25000X3.8136Y5.6992
N25010X3.8506Y5.6974
N25020X3.8881Y5.6967
N25030X3.9257Y5.6974
N25040X3.9627Y5.6992
N25050X3.9992Y5.7023
N25060X4.0351Y5.7066
N25070X4.0703Y5.7120
N25080X4.1048Y5.7186
N25090X4.1386Y5.7262
N25100X4.1716Y5.7348
N25110X4.2037Y5.7445
N25120X4.2350Y5.7552
N25130X4.2653Y5.7668
N25140X4.2946Y5.7794
N25150X4.3229Y5.7928
N25160X4.3501Y5.8070
N25170X4.3762Y5.8221
N25180X4.4011Y5.8379
N25190X4.4248Y5.8545
N25200X4.4472Y5.8717
N25210X4.4683Y5.8896
N25220X4.4881Y5.9082
N25230X4.5064Y5.9273
N25240X4.5234Y5.9469
N25250X4.5388Y5.9670
N25260X4.5528Y5.9876
N25270X4.5652Y6.0086
N25280X4.5761Y6.0300
N25290X4.5853Y6.0518
N25300X4.5930Y6.0739
N25310X4.5990Y6.0963
N25320X4.6033Y6.1191
N25330X4.6060Y6.1421
N25340X4.6069Y6.1656
N25350X4.6063Y6.1839
N25360X4.6047Y6.2022
N25370X4.6020Y6.2202
N25380X4.5982Y6.2381
N25390X4.5934Y6.2558
N25400X4.5876Y6.2732
N25410X4.5807Y6.2905
N25420X4.5729Y6.3076
N25430X4.5641Y6.3244
N25440X4.5543Y6.3409
N25450X4.5436Y6.3572
N25460X4.5319Y6.3733
N25470X4.5193Y6.3890
N25480X4.5058Y6.4044
N25490X4.4914Y6.4195
N25500X4.4761Y6.4342
N25510X4.4600Y6.4486
N25520X4.4430Y6.4625
N25530X4.4253Y6.4761
N25540X4.4067Y6.4892
N25550X4.3874Y6.5019
N25560X4.3674Y6.5141
N25570X4.3466Y6.5258
N25580X4.3251Y6.5371
N25590X4.3030Y6.5478
N25600X4.2801Y6.5579
N25610X4.2567Y6.5675
N25620X4.2327Y6.5765
N25630X4.2081Y6.5850
N25640X4.1829Y6.5928
N25650X4.1572Y6.6000
N25660X4.1305Y6.6067
N25670G2X4.1069Y6.6370I0.0076J0.0303
N25680G01Y6.9679
N25690G2X4.1381Y6.9991I0.0313J0.0000
N25700G01X4.6660
N25710Z-0.0750
N25720X4.8285
N25730G01Z-0.1500F15.0
N25740G01X5.7281F25.0
N25750G2X5.7504Y6.9897I0.0000J-0.0313
N25760G01X5.8213Y6.9175
N25770X5.9550
N25780X6.0230Y6.9869
N25790G2X6.0479Y6.9961I0.0223J-0.0219
N25800G01X6.0766Y6.9938
N25810X6.1056Y6.9907
N25820X6.1344Y6.9870
N25830X6.1630Y6.9825
N25840X6.1913Y6.9774
N25850X6.2195Y6.9717
N25860X6.2474Y6.9652
N25870X6.2750Y6.9582
N25880X6.3024Y6.9505
N25890X6.3295Y6.9421
N25900X6.3564Y6.9332
N25910X6.3829Y6.9236
N25920X6.4092Y6.9134
N25930X6.4352Y6.9027
N25940X6.4609Y6.8913
N25950X6.4863Y6.8794
N25960X6.5113Y6.8669
N25970X6.5360Y6.8539
N25980X6.5604Y6.8403
N25990X6.5844Y6.8261
N26000X6.6081Y6.8114
N26010X6.6314Y6.7962
N26020X6.6544Y6.7805
N26030X6.6769Y6.7642
N26040X6.6991Y6.7475
N26050X6.7208Y6.7303
N26060X6.7422Y6.7126
N26070X6.7631Y6.6944
N26080X6.7837Y6.6757
N26090X6.8037Y6.6566
N26100X6.8234Y6.6371
N26110X6.8426Y6.6170
N26120X6.8613Y6.5966
N26130X6.8796Y6.5757
N26140X6.8974Y6.5545
N26150X6.9147Y6.5328
N26160X6.9316Y6.5107
N26170X6.9479Y6.4882
N26180X6.9637Y6.4653
N26190X6.9790Y6.4421
N26200X6.9938Y6.4185
N26210X7.0080Y6.3945
N26220X7.0217Y6.3702
N26230X7.0349Y6.3456
N26240X7.0475Y6.3206
N26250X7.0595Y6.2953
N26260X7.0710Y6.2697
N26270X7.0819Y6.2437
N26280X7.0921Y6.2175
N26290X7.1018Y6.1910
N26300X7.1109Y6.1642
N26310X7.1193Y6.1371
N26320X7.1272Y6.1097
N26330X7.1343Y6.0821
N26340X7.1409Y6.0543
N26350X7.1468Y6.0262
N26360X7.1520Y5.9979
N26370X7.1566Y5.9694
N26380X7.1604Y5.9406
N26390X7.1636Y5.9117
N26400X7.1661Y5.8825
N26410X7.1679Y5.8532
N26420X7.1690Y5.8237
N26430X7.1694Y5.7942
N26440Y5.5002
N26450X7.1690Y5.4839
N26460X7.1677Y5.4675
N26470X7.1656Y5.4513
N26480X7.1628Y5.4353
N26490X7.1591Y5.4196
N26500X7.1547Y5.4042
N26510X7.1496Y5.3892
N26520X7.1437Y5.3744
N26530X7.1372Y5.3600
N26540X7.1300Y5.3460
N26550X7.1222Y5.3324
N26560X7.1137Y5.3193
N26570X7.1047Y5.3066
N26580X7.0950Y5.2943
N26590X7.0848Y5.2825
N26600X7.0740Y5.2712
N26610X7.0628Y5.2605
N26620X7.0510Y5.2503
N26630X7.0387Y5.2406
N26640X7.0260Y5.2315
N26650X7.0128Y5.2231
N26660X6.9992Y5.2152
N26670X6.9852Y5.2080
N26680X6.9708Y5.2015
N26690X6.9561Y5.1957
N26700X6.9410Y5.1905
N26710X6.9256Y5.1861
N26720X6.9099Y5.1825
N26730X6.8940Y5.1796
N26740X6.8778Y5.1775
N26750X6.8613Y5.1763
N26760X6.8451Y5.1759
N26770X6.0481
N26780G2X6.0258Y5.1853I0.0000J0.0313
N26790G01X5.9550Y5.2575
N26800X5.8213
N26810X5.7504Y5.1853
N26820G2X5.7281Y5.1759I-0.0223J0.0219
N26830G01X5.6521
N26840Z-0.0750
N26850X5.4896
N26860G01Z-0.1500F15.0
N26870G01X4.0481F25.0
N26880G2X4.0258Y5.1853I0.0000J0.0313
N26890G01X3.9550Y5.2575
N26900X3.8213
N26910X3.7504Y5.1853
N26920G2X3.7281Y5.1759I-0.0223J0.0219
N26930G01X2.3785
N26940Z-0.0750
N26950X2.2160
N26960G01Z-0.1500F15.0
N26970G01X2.0481F25.0
N26980G2X2.0258Y5.1853I0.0000J0.0313
N26990G01X1.9550Y5.2575
N27000X1.8213
N27010X1.7504Y5.1853
N27020G2X1.7281Y5.1759I-0.0223J0.0219
N27030G01X0.9312
N27040G00Z0.2500
N27050G00X0.7262Y4.5489
N27060G01Z-0.0500F15.0
N27070G01X0.7268Y4.5671F25.0
N27080X0.7286Y4.5851
N27090X0.7315Y4.6028
N27100X0.7355Y4.6202
N27110X0.7406Y4.6372
N27120X0.7467Y4.6540
N27130X0.7539Y4.6703
N27140X0.7620Y4.6862
N27150X0.7710Y4.7016
N27160X0.7810Y4.7166
N27170X0.7918Y4.7311
N27180X0.8034Y4.7451
N27190X0.8158Y4.7586
N27200X0.8290Y4.7715
N27210X0.8429Y4.7839
N27220X0.8575Y4.7958
N27230X0.8727Y4.8070
N27240X0.8887Y4.8177
N27250X0.9052Y4.8277
N27260X0.9223Y4.8371
N27270X0.9400Y4.8459
N27280X0.9582Y4.8540
N27290X0.9769Y4.8614
N27300X0.9961Y4.8681
N27310X1.0158Y4.8741
N27320X1.0359Y4.8794
N27330X1.0564Y4.8839
N27340X1.0773Y4.8876
N27350X1.0986Y4.8906
N27360X1.1201Y4.8927
N27370X1.1329Y4.8935
N27380Y4.9532
N27390Y4.9864
N27400G2X1.1642Y5.0176I0.0313J0.0000
N27410G01X1.2930
N27420X1.3786
N27430X1.5411
N27440X3.1642
N27450X3.3267
N27460X3.5967
N27470G2X3.6279Y4.9864I0.0000J-0.0313
N27480G01Y4.1114
N27490G2X3.5967Y4.0801I-0.0313J0.0000
N27500G01X3.3613
N27510X3.1988
N27520X1.5618
N27530X1.3993
N27540X1.2930
N27550X1.1642
N27560G2X1.1329Y4.1114I0.0000J0.0313
N27570G01Y4.1445
N27580Y4.2043
N27590X1.1201Y4.2050
N27600X1.0986Y4.2072
N27610X1.0773Y4.2101
N27620X1.0564Y4.2139
N27630X1.0359Y4.2184
N27640X1.0158Y4.2236
N27650X0.9961Y4.2296
N27660X0.9769Y4.2364
N27670X0.9582Y4.2438
N27680X0.9400Y4.2519
N27690X0.9223Y4.2606
N27700X0.9052Y4.2700
N27710X0.8887Y4.2801
N27720X0.8727Y4.2907
N27730X0.8575Y4.3020
N27740X0.8429Y4.3138
N27750X0.8290Y4.3262
N27760X0.8158Y4.3392
N27770X0.8034Y4.3527
N27780X0.7918Y4.3667
N27790X0.7810Y4.3812
N27800X0.7710Y4.3962
N27810X0.7620Y4.4116
N27820X0.7539Y4.4275
N27830X0.7467Y4.4438
N27840X0.7406Y4.4605
N27850X0.7355Y4.4776
N27860X0.7315Y4.4950
N27870X0.7286Y4.5127
N27880X0.7268Y4.5307
N27890X0.7262Y4.5489
N27900G01Z-0.1000F15.0
N27910G01X0.7268Y4.5671F25.0
N27920X0.7286Y4.5851
N27930X0.7315Y4.6028
N27940X0.7355Y4.6202
N27950X0.7406Y4.6372
N27960X0.7467Y4.6540
N27970X0.7539Y4.6703
N27980X0.7620Y4.6862
N27990X0.7710Y4.7016
N28000X0.7810Y4.7166
N28010X0.7918Y4.7311
N28020X0.8034Y4.7451
N28030X0.8158Y4.7586
N28040X0.8290Y4.7715
N28050X0.8429Y4.7839
N28060X0.8575Y4.7958
N28070X0.8727Y4.8070
N28080X0.8887Y4.8177
N28090X0.9052Y4.8277
N28100X0.9223Y4.8371
N28110X0.9400Y4.8459
N28120X0.9582Y4.8540
N28130X0.9769Y4.8614
N28140X0.9961Y4.8681
N28150X1.0158Y4.8741
N28160X1.0359Y4.8794
N28170X1.0564Y4.8839
N28180X1.0773Y4.8876
N28190X1.0986Y4.8906
N28200X1.1201Y4.8927
N28210X1.1329Y4.8935
N28220Y4.9532
N28230Y4.9864
N28240G2X1.1642Y5.0176I0.0313J0.0000
N28250G01X1.2930
N28260X1.3786
N28270Z-0.0750
N28280X1.5411
N28290G01Z-0.1000F15.0
N28300G01X3.1642F25.0
N28310Z-0.0750
N28320X3.3267
N28330G01Z-0.1000F15.0
N28340G01X3.5967F25.0
N28350G2X3.6279Y4.9864I0.0000J-0.0313
N28360G01Y4.1114
N28370G2X3.5967Y4.0801I-0.0313J0.0000
N28380G01X3.3613
N28390Z-0.0750
N28400X3.1988
N28410G01Z-0.1000F15.0
N28420G01X1.5618F25.0
N28430Z-0.0750
N28440X1.3993
N28450G01Z-0.1000F15.0
N28460G01X1.2930F25.0
N28470X1.1642
N28480G2X1.1329Y4.1114I0.0000J0.0313
N28490G01Y4.1445
N28500Y4.2043
N28510X1.1201Y4.2050
N28520X1.0986Y4.2072
N28530X1.0773Y4.2101
N28540X1.0564Y4.2139
N28550X1.0359Y4.2184
N28560X1.0158Y4.2236
N28570X0.9961Y4.2296
N28580X0.9769Y4.2364
N28590X0.9582Y4.2438
N28600X0.9400Y4.2519
N28610X0.9223Y4.2606
N28620X0.9052Y4.2700
N28630X0.8887Y4.2801
N28640X0.8727Y4.2907
N28650X0.8575Y4.3020
N28660X0.8429Y4.3138
N28670X0.8290Y4.3262
N28680X0.8158Y4.3392
N28690X0.8034Y4.3527
N28700X0.7918Y4.3667
N28710X0.7810Y4.3812
N28720X0.7710Y4.3962
N28730X0.7620Y4.4116
N28740X0.7539Y4.4275
N28750X0.7467Y4.4438
N28760X0.7406Y4.4605
N28770X0.7355Y4.4776
N28780X0.7315Y4.4950
N28790X0.7286Y4.5127
N28800X0.7268Y4.5307
N28810X0.7262Y4.5489
N28820G01Z-0.1500F15.0
N28830G01X0.7268Y4.5671F25.0
N28840X0.7286Y4.5851
N28850X0.7315Y4.6028
N28860X0.7355Y4.6202
N28870X0.7406Y4.6372
N28880X0.7467Y4.6540
N28890X0.7539Y4.6703
N28900X0.7620Y4.6862
N28910X0.7710Y4.7016
N28920X0.7810Y4.7166
N28930X0.7918Y4.7311
N28940X0.8034Y4.7451
N28950X0.8158Y4.7586
N28960X0.8290Y4.7715
N28970X0.8429Y4.7839
N28980X0.8575Y4.7958
N28990X0.8727Y4.8070
N29000X0.8887Y4.8177
N29010X0.9052Y4.8277
N29020X0.9223Y4.8371
N29030X0.9400Y4.8459
N29040X0.9582Y4.8540
N29050X0.9769Y4.8614
N29060X0.9961Y4.8681
N29070X1.0158Y4.8741
N29080X1.0359Y4.8794
N29090X1.0564Y4.8839
N29100X1.0773Y4.8876
N29110X1.0986Y4.8906
N29120X1.1201Y4.8927
N29130X1.1329Y4.8935
N29140Y4.9532
N29150Y4.9864
N29160G2X1.1642Y5.0176I0.0313J0.0000
N29170G01X1.2930
N29180X1.3786
N29190Z-0.0750
N29200X1.5411
N29210G01Z-0.1500F15.0
N29220G01X3.1642F25.0
N29230Z-0.0750
N29240X3.3267
N29250G01Z-0.1500F15.0
N29260G01X3.5967F25.0
N29270G2X3.6279Y4.9864I0.0000J-0.0313
N29280G01Y4.1114
N29290G2X3.5967Y4.0801I-0.0313J0.0000
N29300G01X3.3613
N29310Z-0.0750
N29320X3.1988
N29330G01Z-0.1500F15.0
N29340G01X1.5618F25.0
N29350Z-0.0750
N29360X1.3993
N29370G01Z-0.1500F15.0
N29380G01X1.2930F25.0
N29390X1.1642
N29400G2X1.1329Y4.1114I0.0000J0.0313
N29410G01Y4.1445
N29420Y4.2043
N29430X1.1201Y4.2050
N29440X1.0986Y4.2072
N29450X1.0773Y4.2101
N29460X1.0564Y4.2139
N29470X1.0359Y4.2184
N29480X1.0158Y4.2236
N29490X0.9961Y4.2296
N29500X0.9769Y4.2364
N29510X0.9582Y4.2438
N29520X0.9400Y4.2519
N29530X0.9223Y4.2606
N29540X0.9052Y4.2700
N29550X0.8887Y4.2801
N29560X0.8727Y4.2907
N29570X0.8575Y4.3020
N29580X0.8429Y4.3138
N29590X0.8290Y4.3262
N29600X0.8158Y4.3392
N29610X0.8034Y4.3527
N29620X0.7918Y4.3667
N29630X0.7810Y4.3812
N29640X0.7710Y4.3962
N29650X0.7620Y4.4116
N29660X0.7539Y4.4275
N29670X0.7467Y4.4438
N29680X0.7406Y4.4605
N29690X0.7355Y4.4776
N29700X0.7315Y4.4950
N29710X0.7286Y4.5127
N29720X0.7268Y4.5307
N29730X0.7262Y4.5489
N29740G00Z0.2500
N29750G00X0.7522Y3.3458
N29760G01Z-0.0500F15.0
N29770G01X0.7528Y3.3640F25.0
N29780X0.7546Y3.3819
N29790X0.7575Y3.3996
N29800X0.7615Y3.4171
N29810X0.7666Y3.4341
N29820X0.7728Y3.4508
N29830X0.7799Y3.4671
N29840X0.7880Y3.4830
N29850X0.7971Y3.4985
N29860X0.8070Y3.5135
N29870X0.8178Y3.5280
N29880X0.8294Y3.5420
N29890X0.8418Y3.5554
N29900X0.8550Y3.5684
N29910X0.8689Y3.5808
N29920X0.8835Y3.5926
N29930X0.8988Y3.6039
N29940X0.9147Y3.6145
N29950X0.9312Y3.6246
N29960X0.9484Y3.6340
N29970X0.9660Y3.6427
N29980X0.9843Y3.6508
N29990X1.0030Y3.6583
N30000X1.0222Y3.6650
N30010X1.0419Y3.6710
N30020X1.0620Y3.6763
N30030X1.0825Y3.6808
N30040X1.1034Y3.6845
N30050X1.1246Y3.6875
N30060X1.1462Y3.6896
N30070X1.1590Y3.6903
N30080Y3.7501
N30090Y3.7832
N30100G2X1.1902Y3.8145I0.0313J0.0000
N30110G01X1.3190
N30120X1.3647
N30130X1.5272
N30140X3.1918
N30150X3.3543
N30160X3.6227
N30170G2X3.6540Y3.7832I0.0000J-0.0313
N30180G01Y2.9082
N30190G2X3.6227Y2.8770I-0.0313J0.0000
N30200G01X3.3336
N30210X3.1711
N30220X1.5272
N30230X1.3647
N30240X1.3190
N30250X1.1902
N30260G2X1.1590Y2.9082I0.0000J0.0313
N30270G01Y2.9414
N30280Y3.0011
N30290X1.1462Y3.0019
N30300X1.1246Y3.0040
N30310X1.1034Y3.0070
N30320X1.0825Y3.0107
N30330X1.0620Y3.0152
N30340X1.0419Y3.0205
N30350X1.0222Y3.0265
N30360X1.0030Y3.0332
N30370X0.9843Y3.0406
N30380X0.9660Y3.0487
N30390X0.9484Y3.0575
N30400X0.9312Y3.0669
N30410X0.9147Y3.0770
N30420X0.8988Y3.0876
N30430X0.8835Y3.0989
N30440X0.8689Y3.1107
N30450X0.8550Y3.1231
N30460X0.8418Y3.1361
N30470X0.8294Y3.1495
N30480X0.8178Y3.1635
N30490X0.8070Y3.1780
N30500X0.7971Y3.1930
N30510X0.7880Y3.2085
N30520X0.7799Y3.2244
N30530X0.7728Y3.2407
N30540X0.7666Y3.2574
N30550X0.7615Y3.2744
N30560X0.7575Y3.2919
N30570X0.7546Y3.3096
N30580X0.7528Y3.3275
N30590X0.7522Y3.3458
N30600G01Z-0.1000F15.0
N30610G01X0.7528Y3.3640F25.0
N30620X0.7546Y3.3819
N30630X0.7575Y3.3996
N30640X0.7615Y3.4171
N30650X0.7666Y3.4341
N30660X0.7728Y3.4508
N30670X0.7799Y3.4671
N30680X0.7880Y3.4830
N30690X0.7971Y3.4985
N30700X0.8070Y3.5135
N30710X0.8178Y3.5280
N30720X0.8294Y3.5420
N30730X0.8418Y3.5554
N30740X0.8550Y3.5684
N30750X0.8689Y3.5808
N30760X0.8835Y3.5926
N30770X0.8988Y3.6039
N30780X0.9147Y3.6145
N30790X0.9312Y3.6246
N30800X0.9484Y3.6340
N30810X0.9660Y3.6427
N30820X0.9843Y3.6508
N30830X1.0030Y3.6583
N30840X1.0222Y3.6650
N30850X1.0419Y3.6710
N30860X1.0620Y3.6763
N30870X1.0825Y3.6808
N30880X1.1034Y3.6845
N30890X1.1246Y3.6875
N30900X1.1462Y3.6896
N30910X1.1590Y3.6903
N30920Y3.7501
N30930Y3.7832
N30940G2X1.1902Y3.8145I0.0313J0.0000
N30950G01X1.3190
N30960X1.3647
N30970Z-0.0750
N30980X1.5272
N30990G01Z-0.1000F15.0
N31000G01X3.1918F25.0
N31010Z-0.0750
N31020X3.3543
N31030G01Z-0.1000F15.0
N31040G01X3.6227F25.0
N31050G2X3.6540Y3.7832I0.0000J-0.0313
N31060G01Y2.9082
N31070G2X3.6227Y2.8770I-0.0313J0.0000
N31080G01X3.3336
N31090Z-0.0750
N31100X3.1711
N31110G01Z-0.1000F15.0
N31120G01X1.5272F25.0
N31130Z-0.0750
N31140X1.3647
N31150G01Z-0.1000F15.0
N31160G01X1.3190F25.0
N31170X1.1902
N31180G2X1.1590Y2.9082I0.0000J0.0313
N31190G01Y2.9414
N31200Y3.0011
N31210X1.1462Y3.0019
N31220X1.1246Y3.0040
N31230X1.1034Y3.0070
N31240X1.0825Y3.0107
N31250X1.0620Y3.0152
N31260X1.0419Y3.0205
N31270X1.0222Y3.0265
N31280X1.0030Y3.0332
N31290X0.9843Y3.0406
N31300X0.9660Y3.0487
N31310X0.9484Y3.0575
N31320X0.9312Y3.0669
N31330X0.9147Y3.0770
N31340X0.8988Y3.0876
N31350X0.8835Y3.0989
N31360X0.8689Y3.1107
N31370X0.8550Y3.1231
N31380X0.8418Y3.1361
N31390X0.8294Y3.1495
N31400X0.8178Y3.1635
N31410X0.8070Y3.1780
N31420X0.7971Y3.1930
N31430X0.7880Y3.2085
N31440X0.7799Y3.2244
N31450X0.7728Y3.2407
N31460X0.7666Y3.2574
N31470X0.7615Y3.2744
N31480X0.7575Y3.2919
N31490X0.7546Y3.3096
N31500X0.7528Y3.3275
N31510X0.7522Y3.3458
N31520G01Z-0.1500F15.0
N31530G01X0.7528Y3.3640F25.0
N31540X0.7546Y3.3819
N31550X0.7575Y3.3996
N31560X0.7615Y3.4171
N31570X0.7666Y3.4341
N31580X0.7728Y3.4508
N31590X0.7799Y3.4671
N31600X0.7880Y3.4830
N31610X0.7971Y3.4985
N31620X0.8070Y3.5135
N31630X0.8178Y3.5280
N31640X0.8294Y3.5420
N31650X0.8418Y3.5554
N31660X0.8550Y3.5684
N31670X0.8689Y3.5808
N31680X0.8835Y3.5926
N31690X0.8988Y3.6039
N31700X0.9147Y3.6145
N31710X0.9312Y3.6246
N31720X0.9484Y3.6340
N31730X0.9660Y3.6427
N31740X0.9843Y3.6508
N31750X1.0030Y3.6583
N31760X1.0222Y3.6650
N31770X1.0419Y3.6710
N31780X1.0620Y3.6763
N31790X1.0825Y3.6808
N31800X1.1034Y3.6845
N31810X1.1246Y3.6875
N31820X1.1462Y3.6896
N31830X1.1590Y3.6903
N31840Y3.7501
N31850Y3.7832
N31860G2X1.1902Y3.8145I0.0313J0.0000
N31870G01X1.3190
N31880X1.3647
N31890Z-0.0750
N31900X1.5272
N31910G01Z-0.1500F15.0
N31920G01X3.1918F25.0
N31930Z-0.0750
N31940X3.3543
N31950G01Z-0.1500F15.0
N31960G01X3.6227F25.0
N31970G2X3.6540Y3.7832I0.0000J-0.0313
N31980G01Y2.9082
N31990G2X3.6227Y2.8770I-0.0313J0.0000
N32000G01X3.3336
N32010Z-0.0750
N32020X3.1711
N32030G01Z-0.1500F15.0
N32040G01X1.5272F25.0
N32050Z-0.0750
N32060X1.3647
N32070G01Z-0.1500F15.0
N32080G01X1.3190F25.0
N32090X1.1902
N32100G2X1.1590Y2.9082I0.0000J0.0313
N32110G01Y2.9414
N32120Y3.0011
N32130X1.1462Y3.0019
N32140X1.1246Y3.0040
N32150X1.1034Y3.0070
N32160X1.0825Y3.0107
N32170X1.0620Y3.0152
N32180X1.0419Y3.0205
N32190X1.0222Y3.0265
N32200X1.0030Y3.0332
N32210X0.9843Y3.0406
N32220X0.9660Y3.0487
N32230X0.9484Y3.0575
N32240X0.9312Y3.0669
N32250X0.9147Y3.0770
N32260X0.8988Y3.0876
N32270X0.8835Y3.0989
N32280X0.8689Y3.1107
N32290X0.8550Y3.1231
N32300X0.8418Y3.1361
N32310X0.8294Y3.1495
N32320X0.8178Y3.1635
N32330X0.8070Y3.1780
N32340X0.7971Y3.1930
N32350X0.7880Y3.2085
N32360X0.7799Y3.2244
N32370X0.7728Y3.2407
N32380X0.7666Y3.2574
N32390X0.7615Y3.2744
N32400X0.7575Y3.2919
N32410X0.7546Y3.3096
N32420X0.7528Y3.3275
N32430X0.7522Y3.3458
N32440G00Z0.2500
N32450G00X6.3810Y3.2624
N32460G01Z-0.0500F15.0
N32470G01X6.3804Y3.2442F25.0
N32480X6.3787Y3.2262
N32490X6.3757Y3.2085
N32500X6.3717Y3.1911
N32510X6.3666Y3.1741
N32520X6.3605Y3.1573
N32530X6.3533Y3.1410
N32540X6.3452Y3.1251
N32550X6.3362Y3.1097
N32560X6.3262Y3.0947
N32570X6.3154Y3.0802
N32580X6.3038Y3.0662
N32590X6.2914Y3.0527
N32600X6.2782Y3.0398
N32610X6.2643Y3.0274
N32620X6.2497Y3.0155
N32630X6.2345Y3.0043
N32640X6.2186Y2.9936
N32650X6.2020Y2.9836
N32660X6.1849Y2.9742
N32670X6.1672Y2.9654
N32680X6.1490Y2.9573
N32690X6.1303Y2.9499
N32700X6.1111Y2.9432
N32710X6.0914Y2.9372
N32720X6.0713Y2.9319
N32730X6.0508Y2.9274
N32740X6.0299Y2.9237
N32750X6.0086Y2.9207
N32760X5.9871Y2.9186
N32770X5.9743Y2.9178
N32780Y2.8581
N32790Y2.8249
N32800G2X5.9430Y2.7937I-0.0313J0.0000
N32810G01X5.8728
N32820X5.7213
N32830X5.5588
N32840X5.0846
N32850X4.9221
N32860X4.7267
N32870G2X4.6955Y2.8249I0.0000J0.0313
N32880G01Y3.6999
N32890G2X4.7267Y3.7312I0.0313J0.0000
N32900G01X4.9705
N32910X5.1330
N32920X5.6211
N32930X5.7836
N32940X5.8728
N32950X5.9430
N32960G2X5.9743Y3.6999I0.0000J-0.0313
N32970G01Y3.6668
N32980Y3.6070
N32990X5.9871Y3.6063
N33000X6.0086Y3.6041
N33010X6.0299Y3.6012
N33020X6.0508Y3.5974
N33030X6.0713Y3.5929
N33040X6.0914Y3.5877
N33050X6.1111Y3.5817
N33060X6.1303Y3.5749
N33070X6.1490Y3.5675
N33080X6.1672Y3.5594
N33090X6.1849Y3.5507
N33100X6.2020Y3.5412
N33110X6.2185Y3.5312
N33120X6.2345Y3.5205
N33130X6.2497Y3.5093
N33140X6.2643Y3.4975
N33150X6.2782Y3.4851
N33160X6.2914Y3.4721
N33170X6.3038Y3.4586
N33180X6.3154Y3.4446
N33190X6.3262Y3.4301
N33200X6.3362Y3.4151
N33210X6.3452Y3.3997
N33220X6.3533Y3.3838
N33230X6.3605Y3.3675
N33240X6.3666Y3.3508
N33250X6.3717Y3.3337
N33260X6.3757Y3.3163
N33270X6.3787Y3.2986
N33280X6.3804Y3.2806
N33290X6.3810Y3.2624
N33300G01Z-0.1000F15.0
N33310G01X6.3804Y3.2442F25.0
N33320X6.3787Y3.2262
N33330X6.3757Y3.2085
N33340X6.3717Y3.1911
N33350X6.3666Y3.1741
N33360X6.3605Y3.1573
N33370X6.3533Y3.1410
N33380X6.3452Y3.1251
N33390X6.3362Y3.1097
N33400X6.3262Y3.0947
N33410X6.3154Y3.0802
N33420X6.3038Y3.0662
N33430X6.2914Y3.0527
N33440X6.2782Y3.0398
N33450X6.2643Y3.0274
N33460X6.2497Y3.0155
N33470X6.2345Y3.0043
N33480X6.2186Y2.9936
N33490X6.2020Y2.9836
N33500X6.1849Y2.9742
N33510X6.1672Y2.9654
N33520X6.1490Y2.9573
N33530X6.1303Y2.9499
N33540X6.1111Y2.9432
N33550X6.0914Y2.9372
N33560X6.0713Y2.9319
N33570X6.0508Y2.9274
N33580X6.0299Y2.9237
N33590X6.0086Y2.9207
N33600X5.9871Y2.9186
N33610X5.9743Y2.9178
N33620Y2.8581
N33630Y2.8249
N33640G2X5.9430Y2.7937I-0.0313J0.0000
N33650G01X5.8728
N33660X5.7213
N33670Z-0.0750
N33680X5.5588
N33690G01Z-0.1000F15.0
N33700G01X5.0846F25.0
N33710Z-0.0750
N33720X4.9221
N33730G01Z-0.1000F15.0
N33740G01X4.7267F25.0
N33750G2X4.6955Y2.8249I0.0000J0.0313
N33760G01Y3.6999
N33770G2X4.7267Y3.7312I0.0313J0.0000
N33780G01X4.9705
N33790Z-0.0750
N33800X5.1330
N33810G01Z-0.1000F15.0
N33820G01X5.6211F25.0
N33830Z-0.0750
N33840X5.7836
N33850G01Z-0.1000F15.0
N33860G01X5.8728F25.0
N33870X5.9430
N33880G2X5.9743Y3.6999I0.0000J-0.0313
N33890G01Y3.6668
N33900Y3.6070
N33910X5.9871Y3.6063
N33920X6.0086Y3.6041
N33930X6.0299Y3.6012
N33940X6.0508Y3.5974
N33950X6.0713Y3.5929
N33960X6.0914Y3.5877
N33970X6.1111Y3.5817
N33980X6.1303Y3.5749
N33990X6.1490Y3.5675
N34000X6.1672Y3.5594
N34010X6.1849Y3.5507
N34020X6.2020Y3.5412
N34030X6.2185Y3.5312
N34040X6.2345Y3.5205
N34050X6.2497Y3.5093
N34060X6.2643Y3.4975
N34070X6.2782Y3.4851
N34080X6.2914Y3.4721
N34090X6.3038Y3.4586
N34100X6.3154Y3.4446
N34110X6.3262Y3.4301
N34120X6.3362Y3.4151
N34130X6.3452Y3.3997
N34140X6.3533Y3.3838
N34150X6.3605Y3.3675
N34160X6.3666Y3.3508
N34170X6.3717Y3.3337
N34180X6.3757Y3.3163
N34190X6.3787Y3.2986
N34200X6.3804Y3.2806
N34210X6.3810Y3.2624
N34220G01Z-0.1500F15.0
N34230G01X6.3804Y3.2442F25.0
N34240X6.3787Y3.2262
N34250X6.3757Y3.2085
N34260X6.3717Y3.1911
N34270X6.3666Y3.1741
N34280X6.3605Y3.1573
N34290X6.3533Y3.1410
N34300X6.3452Y3.1251
N34310X6.3362Y3.1097
N34320X6.3262Y3.0947
N34330X6.3154Y3.0802
N34340X6.3038Y3.0662
N34350X6.2914Y3.0527
N34360X6.2782Y3.0398
N34370X6.2643Y3.0274
N34380X6.2497Y3.0155
N34390X6.2345Y3.0043
N34400X6.2186Y2.9936
N34410X6.2020Y2.9836
N34420X6.1849Y2.9742
N34430X6.1672Y2.9654
N34440X6.1490Y2.9573
N34450X6.1303Y2.9499
N34460X6.1111Y2.9432
N34470X6.0914Y2.9372
N34480X6.0713Y2.9319
N34490X6.0508Y2.9274
N34500X6.0299Y2.9237
N34510X6.0086Y2.9207
N34520X5.9871Y2.9186
N34530X5.9743Y2.9178
N34540Y2.8581
N34550Y2.8249
N34560G2X5.9430Y2.7937I-0.0313J0.0000
N34570G01X5.8728
N34580X5.7213
N34590Z-0.0750
N34600X5.5588
N34610G01Z-0.1500F15.0
N34620G01X5.0846F25.0
N34630Z-0.0750
N34640X4.9221
N34650G01Z-0.1500F15.0
N34660G01X4.7267F25.0
N34670G2X4.6955Y2.8249I0.0000J0.0313
N34680G01Y3.6999
N34690G2X4.7267Y3.7312I0.0313J0.0000
N34700G01X4.9705
N34710Z-0.0750
N34720X5.1330
N34730G01Z-0.1500F15.0
N34740G01X5.6211F25.0
N34750Z-0.0750
N34760X5.7836
N34770G01Z-0.1500F15.0
N34780G01X5.8728F25.0
N34790X5.9430
N34800G2X5.9743Y3.6999I0.0000J-0.0313
N34810G01Y3.6668
N34820Y3.6070
N34830X5.9871Y3.6063
N34840X6.0086Y3.6041
N34850X6.0299Y3.6012
N34860X6.0508Y3.5974
N34870X6.0713Y3.5929
N34880X6.0914Y3.5877
N34890X6.1111Y3.5817
N34900X6.1303Y3.5749
N34910X6.1490Y3.5675
N34920X6.1672Y3.5594
N34930X6.1849Y3.5507
N34940X6.2020Y3.5412
N34950X6.2185Y3.5312
N34960X6.2345Y3.5205
N34970X6.2497Y3.5093
N34980X6.2643Y3.4975
N34990X6.2782Y3.4851
N35000X6.2914Y3.4721
N35010X6.3038Y3.4586
N35020X6.3154Y3.4446
N35030X6.3262Y3.4301
N35040X6.3362Y3.4151
N35050X6.3452Y3.3997
N35060X6.3533Y3.3838
N35070X6.3605Y3.3675
N35080X6.3666Y3.3508
N35090X6.3717Y3.3337
N35100X6.3757Y3.3163
N35110X6.3787Y3.2986
N35120X6.3804Y3.2806
N35130X6.3810Y3.2624
N35140G00Z0.2500
N35150G00X6.3792Y4.4707
N35160G01Z-0.0500F15.0
N35170G01X6.3786Y4.4525F25.0
N35180X6.3768Y4.4346
N35190X6.3739Y4.4169
N35200X6.3699Y4.3994
N35210X6.3648Y4.3824
N35220X6.3587Y4.3657
N35230X6.3515Y4.3494
N35240X6.3434Y4.3335
N35250X6.3344Y4.3180
N35260X6.3244Y4.3030
N35270X6.3136Y4.2885
N35280X6.3020Y4.2745
N35290X6.2896Y4.2611
N35300X6.2764Y4.2481
N35310X6.2625Y4.2357
N35320X6.2479Y4.2239
N35330X6.2327Y4.2126
N35340X6.2167Y4.2020
N35350X6.2002Y4.1919
N35360X6.1831Y4.1825
N35370X6.1654Y4.1737
N35380X6.1472Y4.1656
N35390X6.1285Y4.1582
N35400X6.1093Y4.1515
N35410X6.0896Y4.1455
N35420X6.0695Y4.1402
N35430X6.0490Y4.1357
N35440X6.0281Y4.1320
N35450X6.0068Y4.1290
N35460X5.9853Y4.1269
N35470X5.9725Y4.1261
N35480Y4.0664
N35490Y4.0332
N35500G2X5.9412Y4.0020I-0.0313J0.0000
N35510G01X5.8710
N35520X5.7144
N35530X5.5519
N35540X5.0569
N35550X4.8944
N35560X4.7250
N35570G2X4.6937Y4.0332I0.0000J0.0313
N35580G01Y4.9082
N35590G2X4.7250Y4.9395I0.0313J0.0000
N35600G01X4.9082
N35610X5.0707
N35620X5.6418
N35630X5.8043
N35640X5.8710
N35650X5.9412
N35660G2X5.9725Y4.9082I0.0000J-0.0313
N35670G01Y4.8751
N35680Y4.8153
N35690X5.9853Y4.8146
N35700X6.0068Y4.8125
N35710X6.0281Y4.8095
N35720X6.0490Y4.8058
N35730X6.0695Y4.8013
N35740X6.0896Y4.7960
N35750X6.1093Y4.7900
N35760X6.1285Y4.7833
N35770X6.1472Y4.7758
N35780X6.1654Y4.7677
N35790X6.1831Y4.7590
N35800X6.2002Y4.7496
N35810X6.2167Y4.7395
N35820X6.2327Y4.7289
N35830X6.2479Y4.7176
N35840X6.2625Y4.7058
N35850X6.2764Y4.6934
N35860X6.2896Y4.6804
N35870X6.3020Y4.6670
N35880X6.3136Y4.6530
N35890X6.3244Y4.6385
N35900X6.3344Y4.6235
N35910X6.3434Y4.6080
N35920X6.3515Y4.5921
N35930X6.3587Y4.5758
N35940X6.3648Y4.5591
N35950X6.3699Y4.5421
N35960X6.3739Y4.5246
N35970X6.3768Y4.5069
N35980X6.3786Y4.4890
N35990X6.3792Y4.4707
N36000G01Z-0.1000F15.0
N36010G01X6.3786Y4.4525F25.0
N36020X6.3768Y4.4346
N36030X6.3739Y4.4169
N36040X6.3699Y4.3994
N36050X6.3648Y4.3824
N36060X6.3587Y4.3657
N36070X6.3515Y4.3494
N36080X6.3434Y4.3335
N36090X6.3344Y4.3180
N36100X6.3244Y4.3030
N36110X6.3136Y4.2885
N36120X6.3020Y4.2745
N36130X6.2896Y4.2611
N36140X6.2764Y4.2481
N36150X6.2625Y4.2357
N36160X6.2479Y4.2239
N36170X6.2327Y4.2126
N36180X6.2167Y4.2020
N36190X6.2002Y4.1919
N36200X6.1831Y4.1825
N36210X6.1654Y4.1737
N36220X6.1472Y4.1656
N36230X6.1285Y4.1582
N36240X6.1093Y4.1515
N36250X6.0896Y4.1455
N36260X6.0695Y4.1402
N36270X6.0490Y4.1357
N36280X6.0281Y4.1320
N36290X6.0068Y4.1290
N36300X5.9853Y4.1269
N36310X5.9725Y4.1261
N36320Y4.0664
N36330Y4.0332
N36340G2X5.9412Y4.0020I-0.0313J0.0000
N36350G01X5.8710
N36360X5.7144
N36370Z-0.0750
N36380X5.5519
N36390G01Z-0.1000F15.0
N36400G01X5.0569F25.0
N36410Z-0.0750
N36420X4.8944
N36430G01Z-0.1000F15.0
N36440G01X4.7250F25.0
N36450G2X4.6937Y4.0332I0.0000J0.0313
N36460G01Y4.9082
N36470G2X4.7250Y4.9395I0.0313J0.0000
N36480G01X4.9082
N36490Z-0.0750
N36500X5.0707
N36510G01Z-0.1000F15.0
N36520G01X5.6418F25.0
N36530Z-0.0750
N36540X5.8043
N36550G01Z-0.1000F15.0
N36560G01X5.8710F25.0
N36570X5.9412
N36580G2X5.9725Y4.9082I0.0000J-0.0313
N36590G01Y4.8751
N36600Y4.8153
N36610X5.9853Y4.8146
N36620X6.0068Y4.8125
N36630X6.0281Y4.8095
N36640X6.0490Y4.8058
N36650X6.0695Y4.8013
N36660X6.0896Y4.7960
N36670X6.1093Y4.7900
N36680X6.1285Y4.7833
N36690X6.1472Y4.7758
N36700X6.1654Y4.7677
N36710X6.1831Y4.7590
N36720X6.2002Y4.7496
N36730X6.2167Y4.7395
N36740X6.2327Y4.7289
N36750X6.2479Y4.7176
N36760X6.2625Y4.7058
N36770X6.2764Y4.6934
N36780X6.2896Y4.6804
N36790X6.3020Y4.6670
N36800X6.3136Y4.6530
N36810X6.3244Y4.6385
N36820X6.3344Y4.6235
N36830X6.3434Y4.6080
N36840X6.3515Y4.5921
N36850X6.3587Y4.5758
N36860X6.3648Y4.5591
N36870X6.3699Y4.5421
N36880X6.3739Y4.5246
N36890X6.3768Y4.5069
N36900X6.3786Y4.4890
N36910X6.3792Y4.4707
N36920G01Z-0.1500F15.0
N36930G01X6.3786Y4.4525F25.0
N36940X6.3768Y4.4346
N36950X6.3739Y4.4169
N36960X6.3699Y4.3994
N36970X6.3648Y4.3824
N36980X6.3587Y4.3657
N36990X6.3515Y4.3494
N37000X6.3434Y4.3335
N37010X6.3344Y4.3180
N37020X6.3244Y4.3030
N37030X6.3136Y4.2885
N37040X6.3020Y4.2745
N37050X6.2896Y4.2611
N37060X6.2764Y4.2481
N37070X6.2625Y4.2357
N37080X6.2479Y4.2239
N37090X6.2327Y4.2126
N37100X6.2167Y4.2020
N37110X6.2002Y4.1919
N37120X6.1831Y4.1825
N37130X6.1654Y4.1737
N37140X6.1472Y4.1656
N37150X6.1285Y4.1582
N37160X6.1093Y4.1515
N37170X6.0896Y4.1455
N37180X6.0695Y4.1402
N37190X6.0490Y4.1357
N37200X6.0281Y4.1320
N37210X6.0068Y4.1290
N37220X5.9853Y4.1269
N37230X5.9725Y4.1261
N37240Y4.0664
N37250Y4.0332
N37260G2X5.9412Y4.0020I-0.0313J0.0000
N37270G01X5.8710
N37280X5.7144
N37290Z-0.0750
N37300X5.5519
N37310G01Z-0.1500F15.0
N37320G01X5.0569F25.0
N37330Z-0.0750
N37340X4.8944
N37350G01Z-0.1500F15.0
N37360G01X4.7250F25.0
N37370G2X4.6937Y4.0332I0.0000J0.0313
N37380G01Y4.9082
N37390G2X4.7250Y4.9395I0.0313J0.0000
N37400G01X4.9082
N37410Z-0.0750
N37420X5.0707
N37430G01Z-0.1500F15.0
N37440G01X5.6418F25.0
N37450Z-0.0750
N37460X5.8043
N37470G01Z-0.1500F15.0
N37480G01X5.8710F25.0
N37490X5.9412
N37500G2X5.9725Y4.9082I0.0000J-0.0313
N37510G01Y4.8751
N37520Y4.8153
N37530X5.9853Y4.8146
N37540X6.0068Y4.8125
N37550X6.0281Y4.8095
N37560X6.0490Y4.8058
N37570X6.0695Y4.8013
N37580X6.0896Y4.7960
N37590X6.1093Y4.7900
N37600X6.1285Y4.7833
N37610X6.1472Y4.7758
N37620X6.1654Y4.7677
N37630X6.1831Y4.7590
N37640X6.2002Y4.7496
N37650X6.2167Y4.7395
N37660X6.2327Y4.7289
N37670X6.2479Y4.7176
N37680X6.2625Y4.7058
N37690X6.2764Y4.6934
N37700X6.2896Y4.6804
N37710X6.3020Y4.6670
N37720X6.3136Y4.6530
N37730X6.3244Y4.6385
N37740X6.3344Y4.6235
N37750X6.3434Y4.6080
N37760X6.3515Y4.5921
N37770X6.3587Y4.5758
N37780X6.3648Y4.5591
N37790X6.3699Y4.5421
N37800X6.3739Y4.5246
N37810X6.3768Y4.5069
N37820X6.3786Y4.4890
N37830X6.3792Y4.4707
N37840G00Z0.2500
N37850G00X6.8451Y2.4716
N37860G01Z-0.0500F15.0
N37870G01X6.8613Y2.4712F25.0
N37880X6.8778Y2.4699
N37890X6.8940Y2.4678
N37900X6.9099Y2.4650
N37910X6.9256Y2.4613
N37920X6.9410Y2.4569
N37930X6.9561Y2.4518
N37940X6.9708Y2.4460
N37950X6.9852Y2.4394
N37960X6.9992Y2.4322
N37970X7.0128Y2.4244
N37980X7.0260Y2.4159
N37990X7.0387Y2.4069
N38000X7.0510Y2.3972
N38010X7.0628Y2.3870
N38020X7.0740Y2.3763
N38030X7.0848Y2.3650
N38040X7.0950Y2.3532
N38050X7.1047Y2.3409
N38060X7.1137Y2.3282
N38070X7.1222Y2.3150
N38080X7.1300Y2.3014
N38090X7.1372Y2.2874
N38100X7.1437Y2.2731
N38110X7.1496Y2.2583
N38120X7.1547Y2.2432
N38130X7.1591Y2.2278
N38140X7.1628Y2.2122
N38150X7.1656Y2.1962
N38160X7.1677Y2.1800
N38170X7.1690Y2.1635
N38180X7.1694Y2.1473
N38190Y1.8533
N38200X7.1690Y1.8238
N38210X7.1679Y1.7943
N38220X7.1661Y1.7649
N38230X7.1636Y1.7358
N38240X7.1604Y1.7069
N38250X7.1566Y1.6781
N38260X7.1520Y1.6496
N38270X7.1468Y1.6213
N38280X7.1409Y1.5932
N38290X7.1343Y1.5653
N38300X7.1272Y1.5377
N38310X7.1193Y1.5104
N38320X7.1109Y1.4833
N38330X7.1018Y1.4565
N38340X7.0921Y1.4300
N38350X7.0819Y1.4038
N38360X7.0710Y1.3778
N38370X7.0595Y1.3522
N38380X7.0475Y1.3269
N38390X7.0349Y1.3019
N38400X7.0217Y1.2773
N38410X7.0080Y1.2529
N38420X6.9938Y1.2290
N38430X6.9790Y1.2054
N38440X6.9637Y1.1821
N38450X6.9479Y1.1593
N38460X6.9316Y1.1368
N38470X6.9147Y1.1147
N38480X6.8974Y1.0930
N38490X6.8796Y1.0717
N38500X6.8613Y1.0509
N38510X6.8426Y1.0304
N38520X6.8234Y1.0104
N38530X6.8037Y0.9909
N38540X6.7837Y0.9718
N38550X6.7631Y0.9531
N38560X6.7422Y0.9349
N38570X6.7208Y0.9172
N38580X6.6991Y0.9000
N38590X6.6769Y0.8832
N38600X6.6544Y0.8670
N38610X6.6314Y0.8513
N38620X6.6081Y0.8361
N38630X6.5844Y0.8214
N38640X6.5604Y0.8072
N38650X6.5360Y0.7936
N38660X6.5113Y0.7806
N38670X6.4863Y0.7681
N38680X6.4609Y0.7562
N38690X6.4352Y0.7448
N38700X6.4092Y0.7340
N38710X6.3829Y0.7239
N38720X6.3564Y0.7143
N38730X6.3295Y0.7053
N38740X6.3024Y0.6970
N38750X6.2750Y0.6893
N38760X6.2474Y0.6822
N38770X6.2195Y0.6758
N38780X6.1913Y0.6700
N38790X6.1630Y0.6649
N38800X6.1344Y0.6605
N38810X6.1056Y0.6567
N38820X6.0766Y0.6537
N38830X6.0479Y0.6513
N38840G2X6.0230Y0.6606I-0.0025J0.0311
N38850G01X5.9550Y0.7300
N38860X5.8213
N38870X5.7504Y0.6578
N38880G2X5.7281Y0.6484I-0.0223J0.0219
N38890G01X5.4029
N38900X5.2404
N38910X4.1381
N38920G2X4.1069Y0.6796I0.0000J0.0313
N38930G01Y1.0105
N38940G2X4.1305Y1.0408I0.0313J0.0000
N38950G01X4.1572Y1.0475
N38960X4.1829Y1.0547
N38970X4.2081Y1.0625
N38980X4.2327Y1.0710
N38990X4.2567Y1.0800
N39000X4.2801Y1.0896
N39010X4.3030Y1.0997
N39020X4.3251Y1.1104
N39030X4.3466Y1.1217
N39040X4.3674Y1.1334
N39050X4.3874Y1.1456
N39060X4.4067Y1.1583
N39070X4.4253Y1.1714
N39080X4.4430Y1.1850
N39090X4.4600Y1.1989
N39100X4.4761Y1.2133
N39110X4.4914Y1.2280
N39120X4.5058Y1.2431
N39130X4.5193Y1.2585
N39140X4.5319Y1.2742
N39150X4.5436Y1.2903
N39160X4.5543Y1.3066
N39170X4.5641Y1.3231
N39180X4.5729Y1.3399
N39190X4.5807Y1.3570
N39200X4.5876Y1.3742
N39210X4.5934Y1.3917
N39220X4.5982Y1.4094
N39230X4.6020Y1.4272
N39240X4.6047Y1.4453
N39250X4.6063Y1.4636
N39260X4.6069Y1.4819
N39270X4.6060Y1.5054
N39280X4.6033Y1.5284
N39290X4.5990Y1.5512
N39300X4.5930Y1.5736
N39310X4.5853Y1.5957
N39320X4.5761Y1.6175
N39330X4.5652Y1.6389
N39340X4.5528Y1.6599
N39350X4.5388Y1.6805
N39360X4.5234Y1.7006
N39370X4.5064Y1.7202
N39380X4.4881Y1.7393
N39390X4.4683Y1.7578
N39400X4.4472Y1.7757
N39410X4.4248Y1.7930
N39420X4.4011Y1.8096
N39430X4.3762Y1.8254
N39440X4.3501Y1.8404
N39450X4.3229Y1.8547
N39460X4.2946Y1.8681
N39470X4.2653Y1.8806
N39480X4.2350Y1.8923
N39490X4.2037Y1.9029
N39500X4.1716Y1.9126
N39510X4.1386Y1.9213
N39520X4.1048Y1.9289
N39530X4.0703Y1.9355
N39540X4.0351Y1.9409
N39550X3.9992Y1.9451
N39560X3.9627Y1.9482
N39570X3.9257Y1.9501
N39580X3.8881Y1.9507
N39590X3.8506Y1.9501
N39600X3.8136Y1.9482
N39610X3.7771Y1.9451
N39620X3.7412Y1.9409
N39630X3.7060Y1.9355
N39640X3.6714Y1.9289
N39650X3.6377Y1.9213
N39660X3.6047Y1.9126
N39670X3.5725Y1.9029
N39680X3.5413Y1.8923
N39690X3.5110Y1.8806
N39700X3.4816Y1.8681
N39710X3.4533Y1.8547
N39720X3.4261Y1.8404
N39730X3.4000Y1.8254
N39740X3.3751Y1.8096
N39750X3.3515Y1.7930
N39760X3.3290Y1.7757
N39770X3.3079Y1.7578
N39780X3.2882Y1.7393
N39790X3.2698Y1.7202
N39800X3.2529Y1.7006
N39810X3.2374Y1.6805
N39820X3.2235Y1.6599
N39830X3.2110Y1.6389
N39840X3.2002Y1.6175
N39850X3.1909Y1.5957
N39860X3.1833Y1.5736
N39870X3.1772Y1.5512
N39880X3.1729Y1.5284
N39890X3.1703Y1.5054
N39900X3.1694Y1.4819
N39910X3.1699Y1.4636
N39920X3.1716Y1.4453
N39930X3.1743Y1.4272
N39940X3.1781Y1.4094
N39950X3.1829Y1.3917
N39960X3.1887Y1.3742
N39970X3.1955Y1.3570
N39980X3.2033Y1.3399
N39990X3.2122Y1.3231
N40000X3.2219Y1.3066
N40010X3.2327Y1.2903
N40020X3.2444Y1.2742
N40030X3.2570Y1.2585
N40040X3.2705Y1.2431
N40050X3.2849Y1.2280
N40060X3.3001Y1.2133
N40070X3.3163Y1.1989
N40080X3.3332Y1.1850
N40090X3.3510Y1.1714
N40100X3.3695Y1.1583
N40110X3.3888Y1.1456
N40120X3.4089Y1.1334
N40130X3.4297Y1.1217
N40140X3.4511Y1.1104
N40150X3.4733Y1.0997
N40160X3.4961Y1.0896
N40170X3.5195Y1.0800
N40180X3.5436Y1.0710
N40190X3.5682Y1.0625
N40200X3.5934Y1.0547
N40210X3.6191Y1.0475
N40220X3.6457Y1.0408
N40230G2X3.6694Y1.0105I-0.0076J-0.0303
N40240G01Y0.6796
N40250G2X3.6381Y0.6484I-0.0313J0.0000
N40260G01X2.4408
N40270X2.2783
N40280X2.0481
N40290G2X2.0258Y0.6578I0.0000J0.0313
N40300G01X1.9550Y0.7300
N40310X1.8213
N40320X1.7533Y0.6606
N40330G2X1.7284Y0.6513I-0.0223J0.0219
N40340G01X1.6996Y0.6537
N40350X1.6706Y0.6567
N40360X1.6418Y0.6605
N40370X1.6133Y0.6649
N40380X1.5849Y0.6700
N40390X1.5568Y0.6758
N40400X1.5289Y0.6822
N40410X1.5013Y0.6893
N40420X1.4739Y0.6970
N40430X1.4467Y0.7053
N40440X1.4199Y0.7143
N40450X1.3933Y0.7239
N40460X1.3670Y0.7340
N40470X1.3410Y0.7448
N40480X1.3154Y0.7562
N40490X1.2900Y0.7681
N40500X1.2649Y0.7806
N40510X1.2402Y0.7936
N40520X1.2158Y0.8072
N40530X1.1918Y0.8214
N40540X1.1681Y0.8361
N40550X1.1448Y0.8513
N40560X1.1219Y0.8670
N40570X1.0993Y0.8832
N40580X1.0772Y0.9000
N40590X1.0554Y0.9172
N40600X1.0341Y0.9349
N40610X1.0131Y0.9531
N40620X0.9926Y0.9718
N40630X0.9725Y0.9909
N40640X0.9529Y1.0104
N40650X0.9337Y1.0304
N40660X0.9149Y1.0509
N40670X0.8967Y1.0717
N40680X0.8788Y1.0930
N40690X0.8615Y1.1147
N40700X0.8447Y1.1368
N40710X0.8284Y1.1593
N40720X0.8125Y1.1821
N40730X0.7972Y1.2054
N40740X0.7825Y1.2290
N40750X0.7682Y1.2529
N40760X0.7545Y1.2773
N40770X0.7413Y1.3019
N40780X0.7287Y1.3269
N40790X0.7167Y1.3522
N40800X0.7053Y1.3778
N40810X0.6944Y1.4038
N40820X0.6841Y1.4300
N40830X0.6744Y1.4565
N40840X0.6654Y1.4833
N40850X0.6569Y1.5104
N40860X0.6491Y1.5377
N40870X0.6419Y1.5653
N40880X0.6354Y1.5932
N40890X0.6295Y1.6213
N40900X0.6242Y1.6496
N40910X0.6197Y1.6781
N40920X0.6158Y1.7069
N40930X0.6126Y1.7358
N40940X0.6101Y1.7649
N40950X0.6083Y1.7943
N40960X0.6072Y1.8238
N40970X0.6069Y1.8533
N40980Y2.1473
N40990X0.6073Y2.1635
N41000X0.6085Y2.1800
N41010X0.6106Y2.1962
N41020X0.6135Y2.2122
N41030X0.6171Y2.2278
N41040X0.6215Y2.2432
N41050X0.6267Y2.2583
N41060X0.6325Y2.2731
N41070X0.6390Y2.2874
N41080X0.6462Y2.3014
N41090X0.6541Y2.3150
N41100X0.6625Y2.3282
N41110X0.6716Y2.3409
N41120X0.6813Y2.3532
N41130X0.6915Y2.3650
N41140X0.7022Y2.3763
N41150X0.7135Y2.3870
N41160X0.7253Y2.3972
N41170X0.7376Y2.4069
N41180X0.7503Y2.4159
N41190X0.7634Y2.4244
N41200X0.7770Y2.4322
N41210X0.7910Y2.4394
N41220X0.8054Y2.4460
N41230X0.8202Y2.4518
N41240X0.8352Y2.4569
N41250X0.8506Y2.4613
N41260X0.8663Y2.4650
N41270X0.8823Y2.4678
N41280X0.8985Y2.4699
N41290X0.9149Y2.4712
N41300X0.9312Y2.4716
N41310X1.7281
N41320G2X1.7504Y2.4622I0.0000J-0.0313
N41330G01X1.8213Y2.3900
N41340X1.9550
N41350X2.0258Y2.4622
N41360G2X2.0481Y2.4716I0.0223J-0.0219
N41370G01X2.1191
N41380X2.2816
N41390X3.7281
N41400G2X3.7504Y2.4622I0.0000J-0.0313
N41410G01X3.8213Y2.3900
N41420X3.9550
N41430X4.0258Y2.4622
N41440G2X4.0481Y2.4716I0.0223J-0.0219
N41450G01X5.4896
N41460X5.6521
N41470X5.7281
N41480G2X5.7504Y2.4622I0.0000J-0.0313
N41490G01X5.8213Y2.3900
N41500X5.9550
N41510X6.0258Y2.4622
N41520G2X6.0481Y2.4716I0.0223J-0.0219
N41530G01X6.8451
N41540G01Z-0.1000F15.0
N41550G01X6.8613Y2.4712F25.0
N41560X6.8778Y2.4699
N41570X6.8940Y2.4678
N41580X6.9099Y2.4650
N41590X6.9256Y2.4613
N41600X6.9410Y2.4569
N41610X6.9561Y2.4518
N41620X6.9708Y2.4460
N41630X6.9852Y2.4394
N41640X6.9992Y2.4322
N41650X7.0128Y2.4244
N41660X7.0260Y2.4159
N41670X7.0387Y2.4069
N41680X7.0510Y2.3972
N41690X7.0628Y2.3870
N41700X7.0740Y2.3763
N41710X7.0848Y2.3650
N41720X7.0950Y2.3532
N41730X7.1047Y2.3409
N41740X7.1137Y2.3282
N41750X7.1222Y2.3150
N41760X7.1300Y2.3014
N41770X7.1372Y2.2874
N41780X7.1437Y2.2731
N41790X7.1496Y2.2583
N41800X7.1547Y2.2432
N41810X7.1591Y2.2278
N41820X7.1628Y2.2122
N41830X7.1656Y2.1962
N41840X7.1677Y2.1800
N41850X7.1690Y2.1635
N41860X7.1694Y2.1473
N41870Y1.8533
N41880X7.1690Y1.8238
N41890X7.1679Y1.7943
N41900X7.1661Y1.7649
N41910X7.1636Y1.7358
N41920X7.1604Y1.7069
N41930X7.1566Y1.6781
N41940X7.1520Y1.6496
N41950X7.1468Y1.6213
N41960X7.1409Y1.5932
N41970X7.1343Y1.5653
N41980X7.1272Y1.5377
N41990X7.1193Y1.5104
N42000X7.1109Y1.4833
N42010X7.1018Y1.4565
N42020X7.0921Y1.4300
N42030X7.0819Y1.4038
N42040X7.0710Y1.3778
N42050X7.0595Y1.3522
N42060X7.0475Y1.3269
N42070X7.0349Y1.3019
N42080X7.0217Y1.2773
N42090X7.0080Y1.2529
N42100X6.9938Y1.2290
N42110X6.9790Y1.2054
N42120X6.9637Y1.1821
N42130X6.9479Y1.1593
N42140X6.9316Y1.1368
N42150X6.9147Y1.1147
N42160X6.8974Y1.0930
N42170X6.8796Y1.0717
N42180X6.8613Y1.0509
N42190X6.8426Y1.0304
N42200X6.8234Y1.0104
N42210X6.8037Y0.9909
N42220X6.7837Y0.9718
N42230X6.7631Y0.9531
N42240X6.7422Y0.9349
N42250X6.7208Y0.9172
N42260X6.6991Y0.9000
N42270X6.6769Y0.8832
N42280X6.6544Y0.8670
N42290X6.6314Y0.8513
N42300X6.6081Y0.8361
N42310X6.5844Y0.8214
N42320X6.5604Y0.8072
N42330X6.5360Y0.7936
N42340X6.5113Y0.7806
N42350X6.4863Y0.7681
N42360X6.4609Y0.7562
N42370X6.4352Y0.7448
N42380X6.4092Y0.7340
N42390X6.3829Y0.7239
N42400X6.3564Y0.7143
N42410X6.3295Y0.7053
N42420X6.3024Y0.6970
N42430X6.2750Y0.6893
N42440X6.2474Y0.6822
N42450X6.2195Y0.6758
N42460X6.1913Y0.6700
N42470X6.1630Y0.6649
N42480X6.1344Y0.6605
N42490X6.1056Y0.6567
N42500X6.0766Y0.6537
N42510X6.0479Y0.6513
N42520G2X6.0230Y0.6606I-0.0025J0.0311
N42530G01X5.9550Y0.7300
N42540X5.8213
N42550X5.7504Y0.6578
N42560G2X5.7281Y0.6484I-0.0223J0.0219
N42570G01X5.4029
N42580Z-0.0750
N42590X5.2404
N42600G01Z-0.1000F15.0
N42610G01X4.1381F25.0
N42620G2X4.1069Y0.6796I0.0000J0.0313
N42630G01Y1.0105
N42640G2X4.1305Y1.0408I0.0313J0.0000
N42650G01X4.1572Y1.0475
N42660X4.1829Y1.0547
N42670X4.2081Y1.0625
N42680X4.2327Y1.0710
N42690X4.2567Y1.0800
N42700X4.2801Y1.0896
N42710X4.3030Y1.0997
N42720X4.3251Y1.1104
N42730X4.3466Y1.1217
N42740X4.3674Y1.1334
N42750X4.3874Y1.1456
N42760X4.4067Y1.1583
N42770X4.4253Y1.1714
N42780X4.4430Y1.1850
N42790X4.4600Y1.1989
N42800X4.4761Y1.2133
N42810X4.4914Y1.2280
N42820X4.5058Y1.2431
N42830X4.5193Y1.2585
N42840X4.5319Y1.2742
N42850X4.5436Y1.2903
N42860X4.5543Y1.3066
N42870X4.5641Y1.3231
N42880X4.5729Y1.3399
N42890X4.5807Y1.3570
N42900X4.5876Y1.3742
N42910X4.5934Y1.3917
N42920X4.5982Y1.4094
N42930X4.6020Y1.4272
N42940X4.6047Y1.4453
N42950X4.6063Y1.4636
N42960X4.6069Y1.4819
N42970X4.6060Y1.5054
N42980X4.6033Y1.5284
N42990X4.5990Y1.5512
N43000X4.5930Y1.5736
N43010X4.5853Y1.5957
N43020X4.5761Y1.6175
N43030X4.5652Y1.6389
N43040X4.5528Y1.6599
N43050X4.5388Y1.6805
N43060X4.5234Y1.7006
N43070X4.5064Y1.7202
N43080X4.4881Y1.7393
N43090X4.4683Y1.7578
N43100X4.4472Y1.7757
N43110X4.4248Y1.7930
N43120X4.4011Y1.8096
N43130X4.3762Y1.8254
N43140X4.3501Y1.8404
N43150X4.3229Y1.8547
N43160X4.2946Y1.8681
N43170X4.2653Y1.8806
N43180X4.2350Y1.8923
N43190X4.2037Y1.9029
N43200X4.1716Y1.9126
N43210X4.1386Y1.9213
N43220X4.1048Y1.9289
N43230X4.0703Y1.9355
N43240X4.0351Y1.9409
N43250X3.9992Y1.9451
N43260X3.9627Y1.9482
N43270X3.9257Y1.9501
N43280X3.8881Y1.9507
N43290X3.8506Y1.9501
N43300X3.8136Y1.9482
N43310X3.7771Y1.9451
N43320X3.7412Y1.9409
N43330X3.7060Y1.9355
N43340X3.6714Y1.9289
N43350X3.6377Y1.9213
N43360X3.6047Y1.9126
N43370X3.5725Y1.9029
N43380X3.5413Y1.8923
N43390X3.5110Y1.8806
N43400X3.4816Y1.8681
N43410X3.4533Y1.8547
N43420X3.4261Y1.8404
N43430X3.4000Y1.8254
N43440X3.3751Y1.8096
N43450X3.3515Y1.7930
N43460X3.3290Y1.7757
N43470X3.3079Y1.7578
N43480X3.2882Y1.7393
N43490X3.2698Y1.7202
N43500X3.2529Y1.7006
N43510X3.2374Y1.6805
N43520X3.2235Y1.6599
N43530X3.2110Y1.6389
N43540X3.2002Y1.6175
N43550X3.1909Y1.5957
N43560X3.1833Y1.5736
N43570X3.1772Y1.5512
N43580X3.1729Y1.5284
N43590X3.1703Y1.5054
N43600X3.1694Y1.4819
N43610X3.1699Y1.4636
N43620X3.1716Y1.4453
N43630X3.1743Y1.4272
N43640X3.1781Y1.4094
N43650X3.1829Y1.3917
N43660X3.1887Y1.3742
N43670X3.1955Y1.3570
N43680X3.2033Y1.3399
N43690X3.2122Y1.3231
N43700X3.2219Y1.3066
N43710X3.2327Y1.2903
N43720X3.2444Y1.2742
N43730X3.2570Y1.2585
N43740X3.2705Y1.2431
N43750X3.2849Y1.2280
N43760X3.3001Y1.2133
N43770X3.3163Y1.1989
N43780X3.3332Y1.1850
N43790X3.3510Y1.1714
N43800X3.3695Y1.1583
N43810X3.3888Y1.1456
N43820X3.4089Y1.1334
N43830X3.4297Y1.1217
N43840X3.4511Y1.1104
N43850X3.4733Y1.0997
N43860X3.4961Y1.0896
N43870X3.5195Y1.0800
N43880X3.5436Y1.0710
N43890X3.5682Y1.0625
N43900X3.5934Y1.0547
N43910X3.6191Y1.0475
N43920X3.6457Y1.0408
N43930G2X3.6694Y1.0105I-0.0076J-0.0303
N43940G01Y0.6796
N43950G2X3.6381Y0.6484I-0.0313J0.0000
N43960G01X2.4408
N43970Z-0.0750
N43980X2.2783
N43990G01Z-0.1000F15.0
N44000G01X2.0481F25.0
N44010G2X2.0258Y0.6578I0.0000J0.0313
N44020G01X1.9550Y0.7300
N44030X1.8213
N44040X1.7533Y0.6606
N44050G2X1.7284Y0.6513I-0.0223J0.0219
N44060G01X1.6996Y0.6537
N44070X1.6706Y0.6567
N44080X1.6418Y0.6605
N44090X1.6133Y0.6649
N44100X1.5849Y0.6700
N44110X1.5568Y0.6758
N44120X1.5289Y0.6822
N44130X1.5013Y0.6893
N44140X1.4739Y0.6970
N44150X1.4467Y0.7053
N44160X1.4199Y0.7143
N44170X1.3933Y0.7239
N44180X1.3670Y0.7340
N44190X1.3410Y0.7448
N44200X1.3154Y0.7562
N44210X1.2900Y0.7681
N44220X1.2649Y0.7806
N44230X1.2402Y0.7936
N44240X1.2158Y0.8072
N44250X1.1918Y0.8214
N44260X1.1681Y0.8361
N44270X1.1448Y0.8513
N44280X1.1219Y0.8670
N44290X1.0993Y0.8832
N44300X1.0772Y0.9000
N44310X1.0554Y0.9172
N44320X1.0341Y0.9349
N44330X1.0131Y0.9531
N44340X0.9926Y0.9718
N44350X0.9725Y0.9909
N44360X0.9529Y1.0104
N44370X0.9337Y1.0304
N44380X0.9149Y1.0509
N44390X0.8967Y1.0717
N44400X0.8788Y1.0930
N44410X0.8615Y1.1147
N44420X0.8447Y1.1368
N44430X0.8284Y1.1593
N44440X0.8125Y1.1821
N44450X0.7972Y1.2054
N44460X0.7825Y1.2290
N44470X0.7682Y1.2529
N44480X0.7545Y1.2773
N44490X0.7413Y1.3019
N44500X0.7287Y1.3269
N44510X0.7167Y1.3522
N44520X0.7053Y1.3778
N44530X0.6944Y1.4038
N44540X0.6841Y1.4300
N44550X0.6744Y1.4565
N44560X0.6654Y1.4833
N44570X0.6569Y1.5104
N44580X0.6491Y1.5377
N44590X0.6419Y1.5653
N44600X0.6354Y1.5932
N44610X0.6295Y1.6213
N44620X0.6242Y1.6496
N44630X0.6197Y1.6781
N44640X0.6158Y1.7069
N44650X0.6126Y1.7358
N44660X0.6101Y1.7649
N44670X0.6083Y1.7943
N44680X0.6072Y1.8238
N44690X0.6069Y1.8533
N44700Y2.1473
N44710X0.6073Y2.1635
N44720X0.6085Y2.1800
N44730X0.6106Y2.1962
N44740X0.6135Y2.2122
N44750X0.6171Y2.2278
N44760X0.6215Y2.2432
N44770X0.6267Y2.2583
N44780X0.6325Y2.2731
N44790X0.6390Y2.2874
N44800X0.6462Y2.3014
N44810X0.6541Y2.3150
N44820X0.6625Y2.3282
N44830X0.6716Y2.3409
N44840X0.6813Y2.3532
N44850X0.6915Y2.3650
N44860X0.7022Y2.3763
N44870X0.7135Y2.3870
N44880X0.7253Y2.3972
N44890X0.7376Y2.4069
N44900X0.7503Y2.4159
N44910X0.7634Y2.4244
N44920X0.7770Y2.4322
N44930X0.7910Y2.4394
N44940X0.8054Y2.4460
N44950X0.8202Y2.4518
N44960X0.8352Y2.4569
N44970X0.8506Y2.4613
N44980X0.8663Y2.4650
N44990X0.8823Y2.4678
N45000X0.8985Y2.4699
N45010X0.9149Y2.4712
N45020X0.9312Y2.4716
N45030X1.7281
N45040G2X1.7504Y2.4622I0.0000J-0.0313
N45050G01X1.8213Y2.3900
N45060X1.9550
N45070X2.0258Y2.4622
N45080G2X2.0481Y2.4716I0.0223J-0.0219
N45090G01X2.1191
N45100Z-0.0750
N45110X2.2816
N45120G01Z-0.1000F15.0
N45130G01X3.7281F25.0
N45140G2X3.7504Y2.4622I0.0000J-0.0313
N45150G01X3.8213Y2.3900
N45160X3.9550
N45170X4.0258Y2.4622
N45180G2X4.0481Y2.4716I0.0223J-0.0219
N45190G01X5.4896
N45200Z-0.0750
N45210X5.6521
N45220G01Z-0.1000F15.0
N45230G01X5.7281F25.0
N45240G2X5.7504Y2.4622I0.0000J-0.0313
N45250G01X5.8213Y2.3900
N45260X5.9550
N45270X6.0258Y2.4622
N45280G2X6.0481Y2.4716I0.0223J-0.0219
N45290G01X6.8451
N45300G01Z-0.1500F15.0
N45310G01X6.8613Y2.4712F25.0
N45320X6.8778Y2.4699
N45330X6.8940Y2.4678
N45340X6.9099Y2.4650
N45350X6.9256Y2.4613
N45360X6.9410Y2.4569
N45370X6.9561Y2.4518
N45380X6.9708Y2.4460
N45390X6.9852Y2.4394
N45400X6.9992Y2.4322
N45410X7.0128Y2.4244
N45420X7.0260Y2.4159
N45430X7.0387Y2.4069
N45440X7.0510Y2.3972
N45450X7.0628Y2.3870
N45460X7.0740Y2.3763
N45470X7.0848Y2.3650
N45480X7.0950Y2.3532
N45490X7.1047Y2.3409
N45500X7.1137Y2.3282
N45510X7.1222Y2.3150
N45520X7.1300Y2.3014
N45530X7.1372Y2.2874
N45540X7.1437Y2.2731
N45550X7.1496Y2.2583
N45560X7.1547Y2.2432
N45570X7.1591Y2.2278
N45580X7.1628Y2.2122
N45590X7.1656Y2.1962
N45600X7.1677Y2.1800
N45610X7.1690Y2.1635
N45620X7.1694Y2.1473
N45630Y1.8533
N45640X7.1690Y1.8238
N45650X7.1679Y1.7943
N45660X7.1661Y1.7649
N45670X7.1636Y1.7358
N45680X7.1604Y1.7069
N45690X7.1566Y1.6781
N45700X7.1520Y1.6496
N45710X7.1468Y1.6213
N45720X7.1409Y1.5932
N45730X7.1343Y1.5653
N45740X7.1272Y1.5377
N45750X7.1193Y1.5104
N45760X7.1109Y1.4833
N45770X7.1018Y1.4565
N45780X7.0921Y1.4300
N45790X7.0819Y1.4038
N45800X7.0710Y1.3778
N45810X7.0595Y1.3522
N45820X7.0475Y1.3269
N45830X7.0349Y1.3019
N45840X7.0217Y1.2773
N45850X7.0080Y1.2529
