( Inside Cuts )
( Mach2/3 Postprocessor )
N20G00G20G17G20G90G40G49G80
N30G70
N40T4M06
N50G00G43Z3.0000H4
N60S12000M03
N70G94
N80X0.0000Y8.0000F25.0
N90G00X1.9171Y5.7482Z0.2500
N100G01Z-0.0500F15.0
N110G01X1.9123Y5.7477F25.0
N120X1.9079Y5.7464
N130X1.9039Y5.7442
N140X1.9004Y5.7413
N150X1.8975Y5.7378
N160X1.8953Y5.7339
N170X1.8940Y5.7295
N180X1.8935Y5.7246
N190X1.8940Y5.7198
N200X1.8953Y5.7154
N210X1.8975Y5.7114
N220X1.9004Y5.7079
N230X1.9039Y5.7051
N240X1.9079Y5.7029
N250X1.9123Y5.7015
N260X1.9171Y5.7010
N270X1.9219Y5.7015
N280X1.9263Y5.7029
N290X1.9303Y5.7051
N300X1.9338Y5.7079
N310X1.9367Y5.7114
N320X1.9388Y5.7154
N330X1.9402Y5.7198
N340X1.9407Y5.7246
N350X1.9402Y5.7295
N360X1.9388Y5.7339
N370X1.9367Y5.7378
N380X1.9338Y5.7413
N390X1.9303Y5.7442
N400X1.9263Y5.7464
N410X1.9219Y5.7477
N420X1.9171Y5.7482
N430G01Z-0.1000F15.0
N440G01X1.9123Y5.7477F25.0
N450X1.9079Y5.7464
N460X1.9039Y5.7442
N470X1.9004Y5.7413
N480X1.8975Y5.7378
N490X1.8953Y5.7339
N500X1.8940Y5.7295
N510X1.8935Y5.7246
N520X1.8940Y5.7198
N530X1.8953Y5.7154
N540X1.8975Y5.7114
N550X1.9004Y5.7079
N560X1.9039Y5.7051
N570X1.9079Y5.7029
N580X1.9123Y5.7015
N590X1.9171Y5.7010
N600X1.9219Y5.7015
N610X1.9263Y5.7029
N620X1.9303Y5.7051
N630X1.9338Y5.7079
N640X1.9367Y5.7114
N650X1.9388Y5.7154
N660X1.9402Y5.7198
N670X1.9407Y5.7246
N680X1.9402Y5.7295
N690X1.9388Y5.7339
N700X1.9367Y5.7378
N710X1.9338Y5.7413
N720X1.9303Y5.7442
N730X1.9263Y5.7464
N740X1.9219Y5.7477
N750X1.9171Y5.7482
N760G01Z-0.1500F15.0
N770G01X1.9123Y5.7477F25.0
N780X1.9079Y5.7464
N790X1.9039Y5.7442
N800X1.9004Y5.7413
N810X1.8975Y5.7378
N820X1.8953Y5.7339
N830X1.8940Y5.7295
N840X1.8935Y5.7246
N850X1.8940Y5.7198
N860X1.8953Y5.7154
N870X1.8975Y5.7114
N880X1.9004Y5.7079
N890X1.9039Y5.7051
N900X1.9079Y5.7029
N910X1.9123Y5.7015
N920X1.9171Y5.7010
N930X1.9219Y5.7015
N940X1.9263Y5.7029
N950X1.9303Y5.7051
N960X1.9338Y5.7079
N970X1.9367Y5.7114
N980X1.9388Y5.7154
N990X1.9402Y5.7198
N1000X1.9407Y5.7246
N1010X1.9402Y5.7295
N1020X1.9388Y5.7339
N1030X1.9367Y5.7378
N1040X1.9338Y5.7413
N1050X1.9303Y5.7442
N1060X1.9263Y5.7464
N1070X1.9219Y5.7477
N1080X1.9171Y5.7482
N1090G00Z0.2500
N1100G00X2.4167Y5.1963
N1110G01Z-0.0500F15.0
N1120G01X2.4007Y5.1955F25.0
N1130X2.3851Y5.1931
N1140X2.3702Y5.1893
N1150X2.3559Y5.1840
N1160X2.3422Y5.1774
N1170X2.3293Y5.1696
N1180X2.3173Y5.1606
N1190X2.3062Y5.1505
N1200X2.2961Y5.1394
N1210X2.2871Y5.1274
N1220X2.2793Y5.1145
N1230X2.2727Y5.1009
N1240X2.2675Y5.0865
N1250X2.2636Y5.0716
N1260X2.2613Y5.0561
N1270X2.2605Y5.0401
N1280X2.2613Y5.0241
N1290X2.2636Y5.0085
N1300X2.2675Y4.9936
N1310X2.2727Y4.9793
N1320X2.2793Y4.9656
N1330X2.2871Y4.9527
N1340X2.2961Y4.9407
N1350X2.3062Y4.9296
N1360X2.3173Y4.9195
N1370X2.3293Y4.9105
N1380X2.3422Y4.9027
N1390X2.3559Y4.8961
N1400X2.3702Y4.8909
N1410X2.3851Y4.8870
N1420X2.4007Y4.8847
N1430X2.4167Y4.8839
N1440X2.4327Y4.8847
N1450X2.4482Y4.8870
N1460X2.4631Y4.8909
N1470X2.4775Y4.8961
N1480X2.4911Y4.9027
N1490X2.5040Y4.9105
N1500X2.5160Y4.9195
N1510X2.5271Y4.9296
N1520X2.5372Y4.9407
N1530X2.5462Y4.9527
N1540X2.5540Y4.9656
N1550X2.5606Y4.9793
N1560X2.5659Y4.9936
N1570X2.5697Y5.0085
N1580X2.5721Y5.0241
N1590X2.5729Y5.0401
N1600X2.5721Y5.0561
N1610X2.5697Y5.0716
N1620X2.5659Y5.0865
N1630X2.5606Y5.1009
N1640X2.5540Y5.1145
N1650X2.5462Y5.1274
N1660X2.5372Y5.1394
N1670X2.5271Y5.1505
N1680X2.5160Y5.1606
N1690X2.5040Y5.1696
N1700X2.4911Y5.1774
N1710X2.4775Y5.1840
N1720X2.4631Y5.1893
N1730X2.4482Y5.1931
N1740X2.4327Y5.1955
N1750X2.4167Y5.1963
N1760G01Z-0.1000F15.0
N1770G01X2.4007Y5.1955F25.0
N1780X2.3851Y5.1931
N1790X2.3702Y5.1893
N1800X2.3559Y5.1840
N1810X2.3422Y5.1774
N1820X2.3293Y5.1696
N1830X2.3173Y5.1606
N1840X2.3062Y5.1505
N1850X2.2961Y5.1394
N1860X2.2871Y5.1274
N1870X2.2793Y5.1145
N1880X2.2727Y5.1009
N1890X2.2675Y5.0865
N1900X2.2636Y5.0716
N1910X2.2613Y5.0561
N1920X2.2605Y5.0401
N1930X2.2613Y5.0241
N1940X2.2636Y5.0085
N1950X2.2675Y4.9936
N1960X2.2727Y4.9793
N1970X2.2793Y4.9656
N1980X2.2871Y4.9527
N1990X2.2961Y4.9407
N2000X2.3062Y4.9296
N2010X2.3173Y4.9195
N2020X2.3293Y4.9105
N2030X2.3422Y4.9027
N2040X2.3559Y4.8961
N2050X2.3702Y4.8909
N2060X2.3851Y4.8870
N2070X2.4007Y4.8847
N2080X2.4167Y4.8839
N2090X2.4327Y4.8847
N2100X2.4482Y4.8870
N2110X2.4631Y4.8909
N2120X2.4775Y4.8961
N2130X2.4911Y4.9027
N2140X2.5040Y4.9105
N2150X2.5160Y4.9195
N2160X2.5271Y4.9296
N2170X2.5372Y4.9407
N2180X2.5462Y4.9527
N2190X2.5540Y4.9656
N2200X2.5606Y4.9793
N2210X2.5659Y4.9936
N2220X2.5697Y5.0085
N2230X2.5721Y5.0241
N2240X2.5729Y5.0401
N2250X2.5721Y5.0561
N2260X2.5697Y5.0716
N2270X2.5659Y5.0865
N2280X2.5606Y5.1009
N2290X2.5540Y5.1145
N2300X2.5462Y5.1274
N2310X2.5372Y5.1394
N2320X2.5271Y5.1505
N2330X2.5160Y5.1606
N2340X2.5040Y5.1696
N2350X2.4911Y5.1774
N2360X2.4775Y5.1840
N2370X2.4631Y5.1893
N2380X2.4482Y5.1931
N2390X2.4327Y5.1955
N2400X2.4167Y5.1963
N2410G01Z-0.1500F15.0
N2420G01X2.4007Y5.1955F25.0
N2430X2.3851Y5.1931
N2440X2.3702Y5.1893
N2450X2.3559Y5.1840
N2460X2.3422Y5.1774
N2470X2.3293Y5.1696
N2480X2.3173Y5.1606
N2490X2.3062Y5.1505
N2500X2.2961Y5.1394
N2510X2.2871Y5.1274
N2520X2.2793Y5.1145
N2530X2.2727Y5.1009
N2540X2.2675Y5.0865
N2550X2.2636Y5.0716
N2560X2.2613Y5.0561
N2570X2.2605Y5.0401
N2580X2.2613Y5.0241
N2590X2.2636Y5.0085
N2600X2.2675Y4.9936
N2610X2.2727Y4.9793
N2620X2.2793Y4.9656
N2630X2.2871Y4.9527
N2640X2.2961Y4.9407
N2650X2.3062Y4.9296
N2660X2.3173Y4.9195
N2670X2.3293Y4.9105
N2680X2.3422Y4.9027
N2690X2.3559Y4.8961
N2700X2.3702Y4.8909
N2710X2.3851Y4.8870
N2720X2.4007Y4.8847
N2730X2.4167Y4.8839
N2740X2.4327Y4.8847
N2750X2.4482Y4.8870
N2760X2.4631Y4.8909
N2770X2.4775Y4.8961
N2780X2.4911Y4.9027
N2790X2.5040Y4.9105
N2800X2.5160Y4.9195
N2810X2.5271Y4.9296
N2820X2.5372Y4.9407
N2830X2.5462Y4.9527
N2840X2.5540Y4.9656
N2850X2.5606Y4.9793
N2860X2.5659Y4.9936
N2870X2.5697Y5.0085
N2880X2.5721Y5.0241
N2890X2.5729Y5.0401
N2900X2.5721Y5.0561
N2910X2.5697Y5.0716
N2920X2.5659Y5.0865
N2930X2.5606Y5.1009
N2940X2.5540Y5.1145
N2950X2.5462Y5.1274
N2960X2.5372Y5.1394
N2970X2.5271Y5.1505
N2980X2.5160Y5.1606
N2990X2.5040Y5.1696
N3000X2.4911Y5.1774
N3010X2.4775Y5.1840
N3020X2.4631Y5.1893
N3030X2.4482Y5.1931
N3040X2.4327Y5.1955
N3050X2.4167Y5.1963
N3060G00Z0.2500
N3070G00Y4.1963
N3080G01Z-0.0500F15.0
N3090G01X2.4007Y4.1955F25.0
N3100X2.3851Y4.1931
N3110X2.3702Y4.1893
N3120X2.3559Y4.1840
N3130X2.3422Y4.1774
N3140X2.3293Y4.1696
N3150X2.3173Y4.1606
N3160X2.3062Y4.1505
N3170X2.2961Y4.1394
N3180X2.2871Y4.1274
N3190X2.2793Y4.1145
N3200X2.2727Y4.1009
N3210X2.2675Y4.0865
N3220X2.2636Y4.0716
N3230X2.2613Y4.0561
N3240X2.2605Y4.0401
N3250X2.2613Y4.0241
N3260X2.2636Y4.0085
N3270X2.2675Y3.9936
N3280X2.2727Y3.9793
N3290X2.2793Y3.9656
N3300X2.2871Y3.9527
N3310X2.2961Y3.9407
N3320X2.3062Y3.9296
N3330X2.3173Y3.9195
N3340X2.3293Y3.9105
N3350X2.3422Y3.9027
N3360X2.3559Y3.8961
N3370X2.3702Y3.8909
N3380X2.3851Y3.8870
N3390X2.4007Y3.8847
N3400X2.4167Y3.8839
N3410X2.4327Y3.8847
N3420X2.4482Y3.8870
N3430X2.4631Y3.8909
N3440X2.4775Y3.8961
N3450X2.4911Y3.9027
N3460X2.5040Y3.9105
N3470X2.5160Y3.9195
N3480X2.5271Y3.9296
N3490X2.5372Y3.9407
N3500X2.5462Y3.9527
N3510X2.5540Y3.9656
N3520X2.5606Y3.9793
N3530X2.5659Y3.9936
N3540X2.5697Y4.0085
N3550X2.5721Y4.0241
N3560X2.5729Y4.0401
N3570X2.5721Y4.0561
N3580X2.5697Y4.0716
N3590X2.5659Y4.0865
N3600X2.5606Y4.1009
N3610X2.5540Y4.1145
N3620X2.5462Y4.1274
N3630X2.5372Y4.1394
N3640X2.5271Y4.1505
N3650X2.5160Y4.1606
N3660X2.5040Y4.1696
N3670X2.4911Y4.1774
N3680X2.4775Y4.1840
N3690X2.4631Y4.1893
N3700X2.4482Y4.1931
N3710X2.4327Y4.1955
N3720X2.4167Y4.1963
N3730G01Z-0.1000F15.0
N3740G01X2.4007Y4.1955F25.0
N3750X2.3851Y4.1931
N3760X2.3702Y4.1893
N3770X2.3559Y4.1840
N3780X2.3422Y4.1774
N3790X2.3293Y4.1696
N3800X2.3173Y4.1606
N3810X2.3062Y4.1505
N3820X2.2961Y4.1394
N3830X2.2871Y4.1274
N3840X2.2793Y4.1145
N3850X2.2727Y4.1009
N3860X2.2675Y4.0865
N3870X2.2636Y4.0716
N3880X2.2613Y4.0561
N3890X2.2605Y4.0401
N3900X2.2613Y4.0241
N3910X2.2636Y4.0085
N3920X2.2675Y3.9936
N3930X2.2727Y3.9793
N3940X2.2793Y3.9656
N3950X2.2871Y3.9527
N3960X2.2961Y3.9407
N3970X2.3062Y3.9296
N3980X2.3173Y3.9195
N3990X2.3293Y3.9105
N4000X2.3422Y3.9027
N4010X2.3559Y3.8961
N4020X2.3702Y3.8909
N4030X2.3851Y3.8870
N4040X2.4007Y3.8847
N4050X2.4167Y3.8839
N4060X2.4327Y3.8847
N4070X2.4482Y3.8870
N4080X2.4631Y3.8909
N4090X2.4775Y3.8961
N4100X2.4911Y3.9027
N4110X2.5040Y3.9105
N4120X2.5160Y3.9195
N4130X2.5271Y3.9296
N4140X2.5372Y3.9407
N4150X2.5462Y3.9527
N4160X2.5540Y3.9656
N4170X2.5606Y3.9793
N4180X2.5659Y3.9936
N4190X2.5697Y4.0085
N4200X2.5721Y4.0241
N4210X2.5729Y4.0401
N4220X2.5721Y4.0561
N4230X2.5697Y4.0716
N4240X2.5659Y4.0865
N4250X2.5606Y4.1009
N4260X2.5540Y4.1145
N4270X2.5462Y4.1274
N4280X2.5372Y4.1394
N4290X2.5271Y4.1505
N4300X2.5160Y4.1606
N4310X2.5040Y4.1696
N4320X2.4911Y4.1774
N4330X2.4775Y4.1840
N4340X2.4631Y4.1893
N4350X2.4482Y4.1931
N4360X2.4327Y4.1955
N4370X2.4167Y4.1963
N4380G01Z-0.1500F15.0
N4390G01X2.4007Y4.1955F25.0
N4400X2.3851Y4.1931
N4410X2.3702Y4.1893
N4420X2.3559Y4.1840
N4430X2.3422Y4.1774
N4440X2.3293Y4.1696
N4450X2.3173Y4.1606
N4460X2.3062Y4.1505
N4470X2.2961Y4.1394
N4480X2.2871Y4.1274
N4490X2.2793Y4.1145
N4500X2.2727Y4.1009
N4510X2.2675Y4.0865
N4520X2.2636Y4.0716
N4530X2.2613Y4.0561
N4540X2.2605Y4.0401
N4550X2.2613Y4.0241
N4560X2.2636Y4.0085
N4570X2.2675Y3.9936
N4580X2.2727Y3.9793
N4590X2.2793Y3.9656
N4600X2.2871Y3.9527
N4610X2.2961Y3.9407
N4620X2.3062Y3.9296
N4630X2.3173Y3.9195
N4640X2.3293Y3.9105
N4650X2.3422Y3.9027
N4660X2.3559Y3.8961
N4670X2.3702Y3.8909
N4680X2.3851Y3.8870
N4690X2.4007Y3.8847
N4700X2.4167Y3.8839
N4710X2.4327Y3.8847
N4720X2.4482Y3.8870
N4730X2.4631Y3.8909
N4740X2.4775Y3.8961
N4750X2.4911Y3.9027
N4760X2.5040Y3.9105
N4770X2.5160Y3.9195
N4780X2.5271Y3.9296
N4790X2.5372Y3.9407
N4800X2.5462Y3.9527
N4810X2.5540Y3.9656
N4820X2.5606Y3.9793
N4830X2.5659Y3.9936
N4840X2.5697Y4.0085
N4850X2.5721Y4.0241
N4860X2.5729Y4.0401
N4870X2.5721Y4.0561
N4880X2.5697Y4.0716
N4890X2.5659Y4.0865
N4900X2.5606Y4.1009
N4910X2.5540Y4.1145
N4920X2.5462Y4.1274
N4930X2.5372Y4.1394
N4940X2.5271Y4.1505
N4950X2.5160Y4.1606
N4960X2.5040Y4.1696
N4970X2.4911Y4.1774
N4980X2.4775Y4.1840
N4990X2.4631Y4.1893
N5000X2.4482Y4.1931
N5010X2.4327Y4.1955
N5020X2.4167Y4.1963
N5030G00Z0.2500
N5040G00Y3.1963
N5050G01Z-0.0500F15.0
N5060G01X2.4007Y3.1955F25.0
N5070X2.3851Y3.1931
N5080X2.3702Y3.1893
N5090X2.3559Y3.1840
N5100X2.3422Y3.1774
N5110X2.3293Y3.1696
N5120X2.3173Y3.1606
N5130X2.3062Y3.1505
N5140X2.2961Y3.1394
N5150X2.2871Y3.1274
N5160X2.2793Y3.1145
N5170X2.2727Y3.1009
N5180X2.2675Y3.0865
N5190X2.2636Y3.0716
N5200X2.2613Y3.0561
N5210X2.2605Y3.0401
N5220X2.2613Y3.0241
N5230X2.2636Y3.0085
N5240X2.2675Y2.9936
N5250X2.2727Y2.9793
N5260X2.2793Y2.9656
N5270X2.2871Y2.9527
N5280X2.2961Y2.9407
N5290X2.3062Y2.9296
N5300X2.3173Y2.9195
N5310X2.3293Y2.9105
N5320X2.3422Y2.9027
N5330X2.3559Y2.8961
N5340X2.3702Y2.8909
N5350X2.3851Y2.8870
N5360X2.4007Y2.8847
N5370X2.4167Y2.8839
N5380X2.4327Y2.8847
N5390X2.4482Y2.8870
N5400X2.4631Y2.8909
N5410X2.4775Y2.8961
N5420X2.4911Y2.9027
N5430X2.5040Y2.9105
N5440X2.5160Y2.9195
N5450X2.5271Y2.9296
N5460X2.5372Y2.9407
N5470X2.5462Y2.9527
N5480X2.5540Y2.9656
N5490X2.5606Y2.9793
N5500X2.5659Y2.9936
N5510X2.5697Y3.0085
N5520X2.5721Y3.0241
N5530X2.5729Y3.0401
N5540X2.5721Y3.0561
N5550X2.5697Y3.0716
N5560X2.5659Y3.0865
N5570X2.5606Y3.1009
N5580X2.5540Y3.1145
N5590X2.5462Y3.1274
N5600X2.5372Y3.1394
N5610X2.5271Y3.1505
N5620X2.5160Y3.1606
N5630X2.5040Y3.1696
N5640X2.4911Y3.1774
N5650X2.4775Y3.1840
N5660X2.4631Y3.1893
N5670X2.4482Y3.1931
N5680X2.4327Y3.1955
N5690X2.4167Y3.1963
N5700G01Z-0.1000F15.0
N5710G01X2.4007Y3.1955F25.0
N5720X2.3851Y3.1931
N5730X2.3702Y3.1893
N5740X2.3559Y3.1840
N5750X2.3422Y3.1774
N5760X2.3293Y3.1696
N5770X2.3173Y3.1606
N5780X2.3062Y3.1505
N5790X2.2961Y3.1394
N5800X2.2871Y3.1274
N5810X2.2793Y3.1145
N5820X2.2727Y3.1009
N5830X2.2675Y3.0865
N5840X2.2636Y3.0716
N5850X2.2613Y3.0561
N5860X2.2605Y3.0401
N5870X2.2613Y3.0241
N5880X2.2636Y3.0085
N5890X2.2675Y2.9936
N5900X2.2727Y2.9793
N5910X2.2793Y2.9656
N5920X2.2871Y2.9527
N5930X2.2961Y2.9407
N5940X2.3062Y2.9296
N5950X2.3173Y2.9195
N5960X2.3293Y2.9105
N5970X2.3422Y2.9027
N5980X2.3559Y2.8961
N5990X2.3702Y2.8909
N6000X2.3851Y2.8870
N6010X2.4007Y2.8847
N6020X2.4167Y2.8839
N6030X2.4327Y2.8847
N6040X2.4482Y2.8870
N6050X2.4631Y2.8909
N6060X2.4775Y2.8961
N6070X2.4911Y2.9027
N6080X2.5040Y2.9105
N6090X2.5160Y2.9195
N6100X2.5271Y2.9296
N6110X2.5372Y2.9407
N6120X2.5462Y2.9527
N6130X2.5540Y2.9656
N6140X2.5606Y2.9793
N6150X2.5659Y2.9936
N6160X2.5697Y3.0085
N6170X2.5721Y3.0241
N6180X2.5729Y3.0401
N6190X2.5721Y3.0561
N6200X2.5697Y3.0716
N6210X2.5659Y3.0865
N6220X2.5606Y3.1009
N6230X2.5540Y3.1145
N6240X2.5462Y3.1274
N6250X2.5372Y3.1394
N6260X2.5271Y3.1505
N6270X2.5160Y3.1606
N6280X2.5040Y3.1696
N6290X2.4911Y3.1774
N6300X2.4775Y3.1840
N6310X2.4631Y3.1893
N6320X2.4482Y3.1931
N6330X2.4327Y3.1955
N6340X2.4167Y3.1963
N6350G01Z-0.1500F15.0
N6360G01X2.4007Y3.1955F25.0
N6370X2.3851Y3.1931
N6380X2.3702Y3.1893
N6390X2.3559Y3.1840
N6400X2.3422Y3.1774
N6410X2.3293Y3.1696
N6420X2.3173Y3.1606
N6430X2.3062Y3.1505
N6440X2.2961Y3.1394
N6450X2.2871Y3.1274
N6460X2.2793Y3.1145
N6470X2.2727Y3.1009
N6480X2.2675Y3.0865
N6490X2.2636Y3.0716
N6500X2.2613Y3.0561
N6510X2.2605Y3.0401
N6520X2.2613Y3.0241
N6530X2.2636Y3.0085
N6540X2.2675Y2.9936
N6550X2.2727Y2.9793
N6560X2.2793Y2.9656
N6570X2.2871Y2.9527
N6580X2.2961Y2.9407
N6590X2.3062Y2.9296
N6600X2.3173Y2.9195
N6610X2.3293Y2.9105
N6620X2.3422Y2.9027
N6630X2.3559Y2.8961
N6640X2.3702Y2.8909
N6650X2.3851Y2.8870
N6660X2.4007Y2.8847
N6670X2.4167Y2.8839
N6680X2.4327Y2.8847
N6690X2.4482Y2.8870
N6700X2.4631Y2.8909
N6710X2.4775Y2.8961
N6720X2.4911Y2.9027
N6730X2.5040Y2.9105
N6740X2.5160Y2.9195
N6750X2.5271Y2.9296
N6760X2.5372Y2.9407
N6770X2.5462Y2.9527
N6780X2.5540Y2.9656
N6790X2.5606Y2.9793
N6800X2.5659Y2.9936
N6810X2.5697Y3.0085
N6820X2.5721Y3.0241
N6830X2.5729Y3.0401
N6840X2.5721Y3.0561
N6850X2.5697Y3.0716
N6860X2.5659Y3.0865
N6870X2.5606Y3.1009
N6880X2.5540Y3.1145
N6890X2.5462Y3.1274
N6900X2.5372Y3.1394
N6910X2.5271Y3.1505
N6920X2.5160Y3.1606
N6930X2.5040Y3.1696
N6940X2.4911Y3.1774
N6950X2.4775Y3.1840
N6960X2.4631Y3.1893
N6970X2.4482Y3.1931
N6980X2.4327Y3.1955
N6990X2.4167Y3.1963
N7000G00Z0.2500
N7010G00X1.9171Y2.3791
N7020G01Z-0.0500F15.0
N7030G01X1.9123Y2.3786F25.0
N7040X1.9079Y2.3772
N7050X1.9039Y2.3751
N7060X1.9004Y2.3722
N7070X1.8975Y2.3687
N7080X1.8954Y2.3647
N7090X1.8940Y2.3603
N7100X1.8935Y2.3555
N7110X1.8940Y2.3507
N7120X1.8954Y2.3463
N7130X1.8975Y2.3423
N7140X1.9004Y2.3388
N7150X1.9039Y2.3359
N7160X1.9079Y2.3337
N7170X1.9123Y2.3324
N7180X1.9171Y2.3319
N7190X1.9219Y2.3324
N7200X1.9263Y2.3337
N7210X1.9303Y2.3359
N7220X1.9338Y2.3388
N7230X1.9367Y2.3423
N7240X1.9388Y2.3463
N7250X1.9402Y2.3507
N7260X1.9407Y2.3555
N7270X1.9402Y2.3603
N7280X1.9388Y2.3647
N7290X1.9367Y2.3687
N7300X1.9338Y2.3722
N7310X1.9303Y2.3751
N7320X1.9263Y2.3772
N7330X1.9219Y2.3786
N7340X1.9171Y2.3791
N7350G01Z-0.1000F15.0
N7360G01X1.9123Y2.3786F25.0
N7370X1.9079Y2.3772
N7380X1.9039Y2.3751
N7390X1.9004Y2.3722
N7400X1.8975Y2.3687
N7410X1.8954Y2.3647
N7420X1.8940Y2.3603
N7430X1.8935Y2.3555
N7440X1.8940Y2.3507
N7450X1.8954Y2.3463
N7460X1.8975Y2.3423
N7470X1.9004Y2.3388
N7480X1.9039Y2.3359
N7490X1.9079Y2.3337
N7500X1.9123Y2.3324
N7510X1.9171Y2.3319
N7520X1.9219Y2.3324
N7530X1.9263Y2.3337
N7540X1.9303Y2.3359
N7550X1.9338Y2.3388
N7560X1.9367Y2.3423
N7570X1.9388Y2.3463
N7580X1.9402Y2.3507
N7590X1.9407Y2.3555
N7600X1.9402Y2.3603
N7610X1.9388Y2.3647
N7620X1.9367Y2.3687
N7630X1.9338Y2.3722
N7640X1.9303Y2.3751
N7650X1.9263Y2.3772
N7660X1.9219Y2.3786
N7670X1.9171Y2.3791
N7680G01Z-0.1500F15.0
N7690G01X1.9123Y2.3786F25.0
N7700X1.9079Y2.3772
N7710X1.9039Y2.3751
N7720X1.9004Y2.3722
N7730X1.8975Y2.3687
N7740X1.8954Y2.3647
N7750X1.8940Y2.3603
N7760X1.8935Y2.3555
N7770X1.8940Y2.3507
N7780X1.8954Y2.3463
N7790X1.8975Y2.3423
N7800X1.9004Y2.3388
N7810X1.9039Y2.3359
N7820X1.9079Y2.3337
N7830X1.9123Y2.3324
N7840X1.9171Y2.3319
N7850X1.9219Y2.3324
N7860X1.9263Y2.3337
N7870X1.9303Y2.3359
N7880X1.9338Y2.3388
N7890X1.9367Y2.3423
N7900X1.9388Y2.3463
N7910X1.9402Y2.3507
N7920X1.9407Y2.3555
N7930X1.9402Y2.3603
N7940X1.9388Y2.3647
N7950X1.9367Y2.3687
N7960X1.9338Y2.3722
N7970X1.9303Y2.3751
N7980X1.9263Y2.3772
N7990X1.9219Y2.3786
N8000X1.9171Y2.3791
N8010G00Z0.2500
N8020G00X3.4167Y3.1963
N8030G01Z-0.0500F15.0
N8040G01X3.4007Y3.1955F25.0
N8050X3.3851Y3.1931
N8060X3.3702Y3.1893
N8070X3.3559Y3.1840
N8080X3.3422Y3.1774
N8090X3.3293Y3.1696
N8100X3.3173Y3.1606
N8110X3.3062Y3.1505
N8120X3.2961Y3.1394
N8130X3.2871Y3.1274
N8140X3.2793Y3.1145
N8150X3.2727Y3.1009
N8160X3.2675Y3.0865
N8170X3.2636Y3.0716
N8180X3.2613Y3.0561
N8190X3.2605Y3.0401
N8200X3.2613Y3.0241
N8210X3.2636Y3.0085
N8220X3.2675Y2.9936
N8230X3.2727Y2.9793
N8240X3.2793Y2.9656
N8250X3.2871Y2.9527
N8260X3.2961Y2.9407
N8270X3.3062Y2.9296
N8280X3.3173Y2.9195
N8290X3.3293Y2.9105
N8300X3.3422Y2.9027
N8310X3.3559Y2.8961
N8320X3.3702Y2.8909
N8330X3.3851Y2.8870
N8340X3.4007Y2.8847
N8350X3.4167Y2.8839
N8360X3.4327Y2.8847
N8370X3.4482Y2.8870
N8380X3.4631Y2.8909
N8390X3.4775Y2.8961
N8400X3.4911Y2.9027
N8410X3.5040Y2.9105
N8420X3.5160Y2.9195
N8430X3.5271Y2.9296
N8440X3.5372Y2.9407
N8450X3.5462Y2.9527
N8460X3.5540Y2.9656
N8470X3.5606Y2.9793
N8480X3.5659Y2.9936
N8490X3.5697Y3.0085
N8500X3.5721Y3.0241
N8510X3.5729Y3.0401
N8520X3.5721Y3.0561
N8530X3.5697Y3.0716
N8540X3.5659Y3.0865
N8550X3.5606Y3.1009
N8560X3.5540Y3.1145
N8570X3.5462Y3.1274
N8580X3.5372Y3.1394
N8590X3.5271Y3.1505
N8600X3.5160Y3.1606
N8610X3.5040Y3.1696
N8620X3.4911Y3.1774
N8630X3.4775Y3.1840
N8640X3.4631Y3.1893
N8650X3.4482Y3.1931
N8660X3.4327Y3.1955
N8670X3.4167Y3.1963
N8680G01Z-0.1000F15.0
N8690G01X3.4007Y3.1955F25.0
N8700X3.3851Y3.1931
N8710X3.3702Y3.1893
N8720X3.3559Y3.1840
N8730X3.3422Y3.1774
N8740X3.3293Y3.1696
N8750X3.3173Y3.1606
N8760X3.3062Y3.1505
N8770X3.2961Y3.1394
N8780X3.2871Y3.1274
N8790X3.2793Y3.1145
N8800X3.2727Y3.1009
N8810X3.2675Y3.0865
N8820X3.2636Y3.0716
N8830X3.2613Y3.0561
N8840X3.2605Y3.0401
N8850X3.2613Y3.0241
N8860X3.2636Y3.0085
N8870X3.2675Y2.9936
N8880X3.2727Y2.9793
N8890X3.2793Y2.9656
N8900X3.2871Y2.9527
N8910X3.2961Y2.9407
N8920X3.3062Y2.9296
N8930X3.3173Y2.9195
N8940X3.3293Y2.9105
N8950X3.3422Y2.9027
N8960X3.3559Y2.8961
N8970X3.3702Y2.8909
N8980X3.3851Y2.8870
N8990X3.4007Y2.8847
N9000X3.4167Y2.8839
N9010X3.4327Y2.8847
N9020X3.4482Y2.8870
N9030X3.4631Y2.8909
N9040X3.4775Y2.8961
N9050X3.4911Y2.9027
N9060X3.5040Y2.9105
N9070X3.5160Y2.9195
N9080X3.5271Y2.9296
N9090X3.5372Y2.9407
N9100X3.5462Y2.9527
N9110X3.5540Y2.9656
N9120X3.5606Y2.9793
N9130X3.5659Y2.9936
N9140X3.5697Y3.0085
N9150X3.5721Y3.0241
N9160X3.5729Y3.0401
N9170X3.5721Y3.0561
N9180X3.5697Y3.0716
N9190X3.5659Y3.0865
N9200X3.5606Y3.1009
N9210X3.5540Y3.1145
N9220X3.5462Y3.1274
N9230X3.5372Y3.1394
N9240X3.5271Y3.1505
N9250X3.5160Y3.1606
N9260X3.5040Y3.1696
N9270X3.4911Y3.1774
N9280X3.4775Y3.1840
N9290X3.4631Y3.1893
N9300X3.4482Y3.1931
N9310X3.4327Y3.1955
N9320X3.4167Y3.1963
N9330G01Z-0.1500F15.0
N9340G01X3.4007Y3.1955F25.0
N9350X3.3851Y3.1931
N9360X3.3702Y3.1893
N9370X3.3559Y3.1840
N9380X3.3422Y3.1774
N9390X3.3293Y3.1696
N9400X3.3173Y3.1606
N9410X3.3062Y3.1505
N9420X3.2961Y3.1394
N9430X3.2871Y3.1274
N9440X3.2793Y3.1145
N9450X3.2727Y3.1009
N9460X3.2675Y3.0865
N9470X3.2636Y3.0716
N9480X3.2613Y3.0561
N9490X3.2605Y3.0401
N9500X3.2613Y3.0241
N9510X3.2636Y3.0085
N9520X3.2675Y2.9936
N9530X3.2727Y2.9793
N9540X3.2793Y2.9656
N9550X3.2871Y2.9527
N9560X3.2961Y2.9407
N9570X3.3062Y2.9296
N9580X3.3173Y2.9195
N9590X3.3293Y2.9105
N9600X3.3422Y2.9027
N9610X3.3559Y2.8961
N9620X3.3702Y2.8909
N9630X3.3851Y2.8870
N9640X3.4007Y2.8847
N9650X3.4167Y2.8839
N9660X3.4327Y2.8847
N9670X3.4482Y2.8870
N9680X3.4631Y2.8909
N9690X3.4775Y2.8961
N9700X3.4911Y2.9027
N9710X3.5040Y2.9105
N9720X3.5160Y2.9195
N9730X3.5271Y2.9296
N9740X3.5372Y2.9407
N9750X3.5462Y2.9527
N9760X3.5540Y2.9656
N9770X3.5606Y2.9793
N9780X3.5659Y2.9936
N9790X3.5697Y3.0085
N9800X3.5721Y3.0241
N9810X3.5729Y3.0401
N9820X3.5721Y3.0561
N9830X3.5697Y3.0716
N9840X3.5659Y3.0865
N9850X3.5606Y3.1009
N9860X3.5540Y3.1145
N9870X3.5462Y3.1274
N9880X3.5372Y3.1394
N9890X3.5271Y3.1505
N9900X3.5160Y3.1606
N9910X3.5040Y3.1696
N9920X3.4911Y3.1774
N9930X3.4775Y3.1840
N9940X3.4631Y3.1893
N9950X3.4482Y3.1931
N9960X3.4327Y3.1955
N9970X3.4167Y3.1963
N9980G00Z0.2500
N9990G00X3.9171Y2.3791
N10000G01Z-0.0500F15.0
N10010G01X3.9123Y2.3786F25.0
N10020X3.9079Y2.3772
N10030X3.9039Y2.3751
N10040X3.9004Y2.3722
N10050X3.8975Y2.3687
N10060X3.8954Y2.3647
N10070X3.8940Y2.3603
N10080X3.8935Y2.3555
N10090X3.8940Y2.3507
N10100X3.8954Y2.3463
N10110X3.8975Y2.3423
N10120X3.9004Y2.3388
N10130X3.9039Y2.3359
N10140X3.9079Y2.3337
N10150X3.9123Y2.3324
N10160X3.9171Y2.3319
N10170X3.9219Y2.3324
N10180X3.9263Y2.3337
N10190X3.9303Y2.3359
N10200X3.9338Y2.3388
N10210X3.9367Y2.3423
N10220X3.9388Y2.3463
N10230X3.9402Y2.3507
N10240X3.9407Y2.3555
N10250X3.9402Y2.3603
N10260X3.9388Y2.3647
N10270X3.9367Y2.3687
N10280X3.9338Y2.3722
N10290X3.9303Y2.3751
N10300X3.9263Y2.3772
N10310X3.9219Y2.3786
N10320X3.9171Y2.3791
N10330G01Z-0.1000F15.0
N10340G01X3.9123Y2.3786F25.0
N10350X3.9079Y2.3772
N10360X3.9039Y2.3751
N10370X3.9004Y2.3722
N10380X3.8975Y2.3687
N10390X3.8954Y2.3647
N10400X3.8940Y2.3603
N10410X3.8935Y2.3555
N10420X3.8940Y2.3507
N10430X3.8954Y2.3463
N10440X3.8975Y2.3423
N10450X3.9004Y2.3388
N10460X3.9039Y2.3359
N10470X3.9079Y2.3337
N10480X3.9123Y2.3324
N10490X3.9171Y2.3319
N10500X3.9219Y2.3324
N10510X3.9263Y2.3337
N10520X3.9303Y2.3359
N10530X3.9338Y2.3388
N10540X3.9367Y2.3423
N10550X3.9388Y2.3463
N10560X3.9402Y2.3507
N10570X3.9407Y2.3555
N10580X3.9402Y2.3603
N10590X3.9388Y2.3647
N10600X3.9367Y2.3687
N10610X3.9338Y2.3722
N10620X3.9303Y2.3751
N10630X3.9263Y2.3772
N10640X3.9219Y2.3786
N10650X3.9171Y2.3791
N10660G01Z-0.1500F15.0
N10670G01X3.9123Y2.3786F25.0
N10680X3.9079Y2.3772
N10690X3.9039Y2.3751
N10700X3.9004Y2.3722
N10710X3.8975Y2.3687
N10720X3.8954Y2.3647
N10730X3.8940Y2.3603
N10740X3.8935Y2.3555
N10750X3.8940Y2.3507
N10760X3.8954Y2.3463
N10770X3.8975Y2.3423
N10780X3.9004Y2.3388
N10790X3.9039Y2.3359
N10800X3.9079Y2.3337
N10810X3.9123Y2.3324
N10820X3.9171Y2.3319
N10830X3.9219Y2.3324
N10840X3.9263Y2.3337
N10850X3.9303Y2.3359
N10860X3.9338Y2.3388
N10870X3.9367Y2.3423
N10880X3.9388Y2.3463
N10890X3.9402Y2.3507
N10900X3.9407Y2.3555
N10910X3.9402Y2.3603
N10920X3.9388Y2.3647
N10930X3.9367Y2.3687
N10940X3.9338Y2.3722
N10950X3.9303Y2.3751
N10960X3.9263Y2.3772
N10970X3.9219Y2.3786
N10980X3.9171Y2.3791
N10990G00Z0.2500
N11000G00X4.4167Y3.1963
N11010G01Z-0.0500F15.0
N11020G01X4.4007Y3.1955F25.0
N11030X4.3851Y3.1931
N11040X4.3702Y3.1893
N11050X4.3559Y3.1840
N11060X4.3422Y3.1774
N11070X4.3293Y3.1696
N11080X4.3173Y3.1606
N11090X4.3062Y3.1505
N11100X4.2961Y3.1394
N11110X4.2871Y3.1274
N11120X4.2793Y3.1145
N11130X4.2727Y3.1009
N11140X4.2675Y3.0865
N11150X4.2636Y3.0716
N11160X4.2613Y3.0561
N11170X4.2605Y3.0401
N11180X4.2613Y3.0241
N11190X4.2636Y3.0085
N11200X4.2675Y2.9936
N11210X4.2727Y2.9793
N11220X4.2793Y2.9656
N11230X4.2871Y2.9527
N11240X4.2961Y2.9407
N11250X4.3062Y2.9296
N11260X4.3173Y2.9195
N11270X4.3293Y2.9105
N11280X4.3422Y2.9027
N11290X4.3559Y2.8961
N11300X4.3702Y2.8909
N11310X4.3851Y2.8870
N11320X4.4007Y2.8847
N11330X4.4167Y2.8839
N11340X4.4327Y2.8847
N11350X4.4482Y2.8870
N11360X4.4631Y2.8909
N11370X4.4775Y2.8961
N11380X4.4911Y2.9027
N11390X4.5040Y2.9105
N11400X4.5160Y2.9195
N11410X4.5271Y2.9296
N11420X4.5372Y2.9407
N11430X4.5462Y2.9527
N11440X4.5540Y2.9656
N11450X4.5606Y2.9793
N11460X4.5659Y2.9936
N11470X4.5697Y3.0085
N11480X4.5721Y3.0241
N11490X4.5729Y3.0401
N11500X4.5721Y3.0561
N11510X4.5697Y3.0716
N11520X4.5659Y3.0865
N11530X4.5606Y3.1009
N11540X4.5540Y3.1145
N11550X4.5462Y3.1274
N11560X4.5372Y3.1394
N11570X4.5271Y3.1505
N11580X4.5160Y3.1606
N11590X4.5040Y3.1696
N11600X4.4911Y3.1774
N11610X4.4775Y3.1840
N11620X4.4631Y3.1893
N11630X4.4482Y3.1931
N11640X4.4327Y3.1955
N11650X4.4167Y3.1963
N11660G01Z-0.1000F15.0
N11670G01X4.4007Y3.1955F25.0
N11680X4.3851Y3.1931
N11690X4.3702Y3.1893
N11700X4.3559Y3.1840
N11710X4.3422Y3.1774
N11720X4.3293Y3.1696
N11730X4.3173Y3.1606
N11740X4.3062Y3.1505
N11750X4.2961Y3.1394
N11760X4.2871Y3.1274
N11770X4.2793Y3.1145
N11780X4.2727Y3.1009
N11790X4.2675Y3.0865
N11800X4.2636Y3.0716
N11810X4.2613Y3.0561
N11820X4.2605Y3.0401
N11830X4.2613Y3.0241
N11840X4.2636Y3.0085
N11850X4.2675Y2.9936
N11860X4.2727Y2.9793
N11870X4.2793Y2.9656
N11880X4.2871Y2.9527
N11890X4.2961Y2.9407
N11900X4.3062Y2.9296
N11910X4.3173Y2.9195
N11920X4.3293Y2.9105
N11930X4.3422Y2.9027
N11940X4.3559Y2.8961
N11950X4.3702Y2.8909
N11960X4.3851Y2.8870
N11970X4.4007Y2.8847
N11980X4.4167Y2.8839
N11990X4.4327Y2.8847
N12000X4.4482Y2.8870
N12010X4.4631Y2.8909
N12020X4.4775Y2.8961
N12030X4.4911Y2.9027
N12040X4.5040Y2.9105
N12050X4.5160Y2.9195
N12060X4.5271Y2.9296
N12070X4.5372Y2.9407
N12080X4.5462Y2.9527
N12090X4.5540Y2.9656
N12100X4.5606Y2.9793
N12110X4.5659Y2.9936
N12120X4.5697Y3.0085
N12130X4.5721Y3.0241
N12140X4.5729Y3.0401
N12150X4.5721Y3.0561
N12160X4.5697Y3.0716
N12170X4.5659Y3.0865
N12180X4.5606Y3.1009
N12190X4.5540Y3.1145
N12200X4.5462Y3.1274
N12210X4.5372Y3.1394
N12220X4.5271Y3.1505
N12230X4.5160Y3.1606
N12240X4.5040Y3.1696
N12250X4.4911Y3.1774
N12260X4.4775Y3.1840
N12270X4.4631Y3.1893
N12280X4.4482Y3.1931
N12290X4.4327Y3.1955
N12300X4.4167Y3.1963
N12310G01Z-0.1500F15.0
N12320G01X4.4007Y3.1955F25.0
N12330X4.3851Y3.1931
N12340X4.3702Y3.1893
N12350X4.3559Y3.1840
N12360X4.3422Y3.1774
N12370X4.3293Y3.1696
N12380X4.3173Y3.1606
N12390X4.3062Y3.1505
N12400X4.2961Y3.1394
N12410X4.2871Y3.1274
N12420X4.2793Y3.1145
N12430X4.2727Y3.1009
N12440X4.2675Y3.0865
N12450X4.2636Y3.0716
N12460X4.2613Y3.0561
N12470X4.2605Y3.0401
N12480X4.2613Y3.0241
N12490X4.2636Y3.0085
N12500X4.2675Y2.9936
N12510X4.2727Y2.9793
N12520X4.2793Y2.9656
N12530X4.2871Y2.9527
N12540X4.2961Y2.9407
N12550X4.3062Y2.9296
N12560X4.3173Y2.9195
N12570X4.3293Y2.9105
N12580X4.3422Y2.9027
N12590X4.3559Y2.8961
N12600X4.3702Y2.8909
N12610X4.3851Y2.8870
N12620X4.4007Y2.8847
N12630X4.4167Y2.8839
N12640X4.4327Y2.8847
N12650X4.4482Y2.8870
N12660X4.4631Y2.8909
N12670X4.4775Y2.8961
N12680X4.4911Y2.9027
N12690X4.5040Y2.9105
N12700X4.5160Y2.9195
N12710X4.5271Y2.9296
N12720X4.5372Y2.9407
N12730X4.5462Y2.9527
N12740X4.5540Y2.9656
N12750X4.5606Y2.9793
N12760X4.5659Y2.9936
N12770X4.5697Y3.0085
N12780X4.5721Y3.0241
N12790X4.5729Y3.0401
N12800X4.5721Y3.0561
N12810X4.5697Y3.0716
N12820X4.5659Y3.0865
N12830X4.5606Y3.1009
N12840X4.5540Y3.1145
N12850X4.5462Y3.1274
N12860X4.5372Y3.1394
N12870X4.5271Y3.1505
N12880X4.5160Y3.1606
N12890X4.5040Y3.1696
N12900X4.4911Y3.1774
N12910X4.4775Y3.1840
N12920X4.4631Y3.1893
N12930X4.4482Y3.1931
N12940X4.4327Y3.1955
N12950X4.4167Y3.1963
N12960G00Z0.2500
N12970G00Y4.1963
N12980G01Z-0.0500F15.0
N12990G01X4.4007Y4.1955F25.0
N13000X4.3851Y4.1931
N13010X4.3702Y4.1893
N13020X4.3559Y4.1840
N13030X4.3422Y4.1774
N13040X4.3293Y4.1696
N13050X4.3173Y4.1606
N13060X4.3062Y4.1505
N13070X4.2961Y4.1394
N13080X4.2871Y4.1274
N13090X4.2793Y4.1145
N13100X4.2727Y4.1009
N13110X4.2675Y4.0865
N13120X4.2636Y4.0716
N13130X4.2613Y4.0561
N13140X4.2605Y4.0401
N13150X4.2613Y4.0241
N13160X4.2636Y4.0085
N13170X4.2675Y3.9936
N13180X4.2727Y3.9793
N13190X4.2793Y3.9656
N13200X4.2871Y3.9527
N13210X4.2961Y3.9407
N13220X4.3062Y3.9296
N13230X4.3173Y3.9195
N13240X4.3293Y3.9105
N13250X4.3422Y3.9027
N13260X4.3559Y3.8961
N13270X4.3702Y3.8909
N13280X4.3851Y3.8870
N13290X4.4007Y3.8847
N13300X4.4167Y3.8839
N13310X4.4327Y3.8847
N13320X4.4482Y3.8870
N13330X4.4631Y3.8909
N13340X4.4775Y3.8961
N13350X4.4911Y3.9027
N13360X4.5040Y3.9105
N13370X4.5160Y3.9195
N13380X4.5271Y3.9296
N13390X4.5372Y3.9407
N13400X4.5462Y3.9527
N13410X4.5540Y3.9656
N13420X4.5606Y3.9793
N13430X4.5659Y3.9936
N13440X4.5697Y4.0085
N13450X4.5721Y4.0241
N13460X4.5729Y4.0401
N13470X4.5721Y4.0561
N13480X4.5697Y4.0716
N13490X4.5659Y4.0865
N13500X4.5606Y4.1009
N13510X4.5540Y4.1145
N13520X4.5462Y4.1274
N13530X4.5372Y4.1394
N13540X4.5271Y4.1505
N13550X4.5160Y4.1606
N13560X4.5040Y4.1696
N13570X4.4911Y4.1774
N13580X4.4775Y4.1840
N13590X4.4631Y4.1893
N13600X4.4482Y4.1931
N13610X4.4327Y4.1955
N13620X4.4167Y4.1963
N13630G01Z-0.1000F15.0
N13640G01X4.4007Y4.1955F25.0
N13650X4.3851Y4.1931
N13660X4.3702Y4.1893
N13670X4.3559Y4.1840
N13680X4.3422Y4.1774
N13690X4.3293Y4.1696
N13700X4.3173Y4.1606
N13710X4.3062Y4.1505
N13720X4.2961Y4.1394
N13730X4.2871Y4.1274
N13740X4.2793Y4.1145
N13750X4.2727Y4.1009
N13760X4.2675Y4.0865
N13770X4.2636Y4.0716
N13780X4.2613Y4.0561
N13790X4.2605Y4.0401
N13800X4.2613Y4.0241
N13810X4.2636Y4.0085
N13820X4.2675Y3.9936
N13830X4.2727Y3.9793
N13840X4.2793Y3.9656
N13850X4.2871Y3.9527
N13860X4.2961Y3.9407
N13870X4.3062Y3.9296
N13880X4.3173Y3.9195
N13890X4.3293Y3.9105
N13900X4.3422Y3.9027
N13910X4.3559Y3.8961
N13920X4.3702Y3.8909
N13930X4.3851Y3.8870
N13940X4.4007Y3.8847
N13950X4.4167Y3.8839
N13960X4.4327Y3.8847
N13970X4.4482Y3.8870
N13980X4.4631Y3.8909
N13990X4.4775Y3.8961
N14000X4.4911Y3.9027
N14010X4.5040Y3.9105
N14020X4.5160Y3.9195
N14030X4.5271Y3.9296
N14040X4.5372Y3.9407
N14050X4.5462Y3.9527
N14060X4.5540Y3.9656
N14070X4.5606Y3.9793
N14080X4.5659Y3.9936
N14090X4.5697Y4.0085
N14100X4.5721Y4.0241
N14110X4.5729Y4.0401
N14120X4.5721Y4.0561
N14130X4.5697Y4.0716
N14140X4.5659Y4.0865
N14150X4.5606Y4.1009
N14160X4.5540Y4.1145
N14170X4.5462Y4.1274
N14180X4.5372Y4.1394
N14190X4.5271Y4.1505
N14200X4.5160Y4.1606
N14210X4.5040Y4.1696
N14220X4.4911Y4.1774
N14230X4.4775Y4.1840
N14240X4.4631Y4.1893
N14250X4.4482Y4.1931
N14260X4.4327Y4.1955
N14270X4.4167Y4.1963
N14280G01Z-0.1500F15.0
N14290G01X4.4007Y4.1955F25.0
N14300X4.3851Y4.1931
N14310X4.3702Y4.1893
N14320X4.3559Y4.1840
N14330X4.3422Y4.1774
N14340X4.3293Y4.1696
N14350X4.3173Y4.1606
N14360X4.3062Y4.1505
N14370X4.2961Y4.1394
N14380X4.2871Y4.1274
N14390X4.2793Y4.1145
N14400X4.2727Y4.1009
N14410X4.2675Y4.0865
N14420X4.2636Y4.0716
N14430X4.2613Y4.0561
N14440X4.2605Y4.0401
N14450X4.2613Y4.0241
N14460X4.2636Y4.0085
N14470X4.2675Y3.9936
N14480X4.2727Y3.9793
N14490X4.2793Y3.9656
N14500X4.2871Y3.9527
N14510X4.2961Y3.9407
N14520X4.3062Y3.9296
N14530X4.3173Y3.9195
N14540X4.3293Y3.9105
N14550X4.3422Y3.9027
N14560X4.3559Y3.8961
N14570X4.3702Y3.8909
N14580X4.3851Y3.8870
N14590X4.4007Y3.8847
N14600X4.4167Y3.8839
N14610X4.4327Y3.8847
N14620X4.4482Y3.8870
N14630X4.4631Y3.8909
N14640X4.4775Y3.8961
N14650X4.4911Y3.9027
N14660X4.5040Y3.9105
N14670X4.5160Y3.9195
N14680X4.5271Y3.9296
N14690X4.5372Y3.9407
N14700X4.5462Y3.9527
N14710X4.5540Y3.9656
N14720X4.5606Y3.9793
N14730X4.5659Y3.9936
N14740X4.5697Y4.0085
N14750X4.5721Y4.0241
N14760X4.5729Y4.0401
N14770X4.5721Y4.0561
N14780X4.5697Y4.0716
N14790X4.5659Y4.0865
N14800X4.5606Y4.1009
N14810X4.5540Y4.1145
N14820X4.5462Y4.1274
N14830X4.5372Y4.1394
N14840X4.5271Y4.1505
N14850X4.5160Y4.1606
N14860X4.5040Y4.1696
N14870X4.4911Y4.1774
N14880X4.4775Y4.1840
N14890X4.4631Y4.1893
N14900X4.4482Y4.1931
N14910X4.4327Y4.1955
N14920X4.4167Y4.1963
N14930G00Z0.2500
N14940G00Y5.1963
N14950G01Z-0.0500F15.0
N14960G01X4.4007Y5.1955F25.0
N14970X4.3851Y5.1931
N14980X4.3702Y5.1893
N14990X4.3559Y5.1840
N15000X4.3422Y5.1774
N15010X4.3293Y5.1696
N15020X4.3173Y5.1606
N15030X4.3062Y5.1505
N15040X4.2961Y5.1394
N15050X4.2871Y5.1274
N15060X4.2793Y5.1145
N15070X4.2727Y5.1009
N15080X4.2675Y5.0865
N15090X4.2636Y5.0716
N15100X4.2613Y5.0561
N15110X4.2605Y5.0401
N15120X4.2613Y5.0241
N15130X4.2636Y5.0085
N15140X4.2675Y4.9936
N15150X4.2727Y4.9793
N15160X4.2793Y4.9656
N15170X4.2871Y4.9527
N15180X4.2961Y4.9407
N15190X4.3062Y4.9296
N15200X4.3173Y4.9195
N15210X4.3293Y4.9105
N15220X4.3422Y4.9027
N15230X4.3559Y4.8961
N15240X4.3702Y4.8909
N15250X4.3851Y4.8870
N15260X4.4007Y4.8847
N15270X4.4167Y4.8839
N15280X4.4327Y4.8847
N15290X4.4482Y4.8870
N15300X4.4631Y4.8909
N15310X4.4775Y4.8961
N15320X4.4911Y4.9027
N15330X4.5040Y4.9105
N15340X4.5160Y4.9195
N15350X4.5271Y4.9296
N15360X4.5372Y4.9407
N15370X4.5462Y4.9527
N15380X4.5540Y4.9656
N15390X4.5606Y4.9793
N15400X4.5659Y4.9936
N15410X4.5697Y5.0085
N15420X4.5721Y5.0241
N15430X4.5729Y5.0401
N15440X4.5721Y5.0561
N15450X4.5697Y5.0716
N15460X4.5659Y5.0865
N15470X4.5606Y5.1009
N15480X4.5540Y5.1145
N15490X4.5462Y5.1274
N15500X4.5372Y5.1394
N15510X4.5271Y5.1505
N15520X4.5160Y5.1606
N15530X4.5040Y5.1696
N15540X4.4911Y5.1774
N15550X4.4775Y5.1840
N15560X4.4631Y5.1893
N15570X4.4482Y5.1931
N15580X4.4327Y5.1955
N15590X4.4167Y5.1963
N15600G01Z-0.1000F15.0
N15610G01X4.4007Y5.1955F25.0
N15620X4.3851Y5.1931
N15630X4.3702Y5.1893
N15640X4.3559Y5.1840
N15650X4.3422Y5.1774
N15660X4.3293Y5.1696
N15670X4.3173Y5.1606
N15680X4.3062Y5.1505
N15690X4.2961Y5.1394
N15700X4.2871Y5.1274
N15710X4.2793Y5.1145
N15720X4.2727Y5.1009
N15730X4.2675Y5.0865
N15740X4.2636Y5.0716
N15750X4.2613Y5.0561
N15760X4.2605Y5.0401
N15770X4.2613Y5.0241
N15780X4.2636Y5.0085
N15790X4.2675Y4.9936
N15800X4.2727Y4.9793
N15810X4.2793Y4.9656
N15820X4.2871Y4.9527
N15830X4.2961Y4.9407
N15840X4.3062Y4.9296
N15850X4.3173Y4.9195
N15860X4.3293Y4.9105
N15870X4.3422Y4.9027
N15880X4.3559Y4.8961
N15890X4.3702Y4.8909
N15900X4.3851Y4.8870
N15910X4.4007Y4.8847
N15920X4.4167Y4.8839
N15930X4.4327Y4.8847
N15940X4.4482Y4.8870
N15950X4.4631Y4.8909
N15960X4.4775Y4.8961
N15970X4.4911Y4.9027
N15980X4.5040Y4.9105
N15990X4.5160Y4.9195
N16000X4.5271Y4.9296
N16010X4.5372Y4.9407
N16020X4.5462Y4.9527
N16030X4.5540Y4.9656
N16040X4.5606Y4.9793
N16050X4.5659Y4.9936
N16060X4.5697Y5.0085
N16070X4.5721Y5.0241
N16080X4.5729Y5.0401
N16090X4.5721Y5.0561
N16100X4.5697Y5.0716
N16110X4.5659Y5.0865
N16120X4.5606Y5.1009
N16130X4.5540Y5.1145
N16140X4.5462Y5.1274
N16150X4.5372Y5.1394
N16160X4.5271Y5.1505
N16170X4.5160Y5.1606
N16180X4.5040Y5.1696
N16190X4.4911Y5.1774
N16200X4.4775Y5.1840
N16210X4.4631Y5.1893
N16220X4.4482Y5.1931
N16230X4.4327Y5.1955
N16240X4.4167Y5.1963
N16250G01Z-0.1500F15.0
N16260G01X4.4007Y5.1955F25.0
N16270X4.3851Y5.1931
N16280X4.3702Y5.1893
N16290X4.3559Y5.1840
N16300X4.3422Y5.1774
N16310X4.3293Y5.1696
N16320X4.3173Y5.1606
N16330X4.3062Y5.1505
N16340X4.2961Y5.1394
N16350X4.2871Y5.1274
N16360X4.2793Y5.1145
N16370X4.2727Y5.1009
N16380X4.2675Y5.0865
N16390X4.2636Y5.0716
N16400X4.2613Y5.0561
N16410X4.2605Y5.0401
N16420X4.2613Y5.0241
N16430X4.2636Y5.0085
N16440X4.2675Y4.9936
N16450X4.2727Y4.9793
N16460X4.2793Y4.9656
N16470X4.2871Y4.9527
N16480X4.2961Y4.9407
N16490X4.3062Y4.9296
N16500X4.3173Y4.9195
N16510X4.3293Y4.9105
N16520X4.3422Y4.9027
N16530X4.3559Y4.8961
N16540X4.3702Y4.8909
N16550X4.3851Y4.8870
N16560X4.4007Y4.8847
N16570X4.4167Y4.8839
N16580X4.4327Y4.8847
N16590X4.4482Y4.8870
N16600X4.4631Y4.8909
N16610X4.4775Y4.8961
N16620X4.4911Y4.9027
N16630X4.5040Y4.9105
N16640X4.5160Y4.9195
N16650X4.5271Y4.9296
N16660X4.5372Y4.9407
N16670X4.5462Y4.9527
N16680X4.5540Y4.9656
N16690X4.5606Y4.9793
N16700X4.5659Y4.9936
N16710X4.5697Y5.0085
N16720X4.5721Y5.0241
N16730X4.5729Y5.0401
N16740X4.5721Y5.0561
N16750X4.5697Y5.0716
N16760X4.5659Y5.0865
N16770X4.5606Y5.1009
N16780X4.5540Y5.1145
N16790X4.5462Y5.1274
N16800X4.5372Y5.1394
N16810X4.5271Y5.1505
N16820X4.5160Y5.1606
N16830X4.5040Y5.1696
N16840X4.4911Y5.1774
N16850X4.4775Y5.1840
N16860X4.4631Y5.1893
N16870X4.4482Y5.1931
N16880X4.4327Y5.1955
N16890X4.4167Y5.1963
N16900G00Z0.2500
N16910G00X3.9171Y5.7482
N16920G01Z-0.0500F15.0
N16930G01X3.9123Y5.7477F25.0
N16940X3.9079Y5.7464
N16950X3.9039Y5.7442
N16960X3.9004Y5.7413
N16970X3.8975Y5.7378
N16980X3.8954Y5.7339
N16990X3.8940Y5.7295
N17000X3.8935Y5.7246
N17010X3.8940Y5.7198
N17020X3.8954Y5.7154
N17030X3.8975Y5.7114
N17040X3.9004Y5.7079
N17050X3.9039Y5.7051
N17060X3.9079Y5.7029
N17070X3.9123Y5.7015
N17080X3.9171Y5.7010
N17090X3.9219Y5.7015
N17100X3.9263Y5.7029
N17110X3.9303Y5.7051
N17120X3.9338Y5.7079
N17130X3.9367Y5.7114
N17140X3.9388Y5.7154
N17150X3.9402Y5.7198
N17160X3.9407Y5.7246
N17170X3.9402Y5.7295
N17180X3.9388Y5.7339
N17190X3.9367Y5.7378
N17200X3.9338Y5.7413
N17210X3.9303Y5.7442
N17220X3.9263Y5.7464
N17230X3.9219Y5.7477
N17240X3.9171Y5.7482
N17250G01Z-0.1000F15.0
N17260G01X3.9123Y5.7477F25.0
N17270X3.9079Y5.7464
N17280X3.9039Y5.7442
N17290X3.9004Y5.7413
N17300X3.8975Y5.7378
N17310X3.8954Y5.7339
N17320X3.8940Y5.7295
N17330X3.8935Y5.7246
N17340X3.8940Y5.7198
N17350X3.8954Y5.7154
N17360X3.8975Y5.7114
N17370X3.9004Y5.7079
N17380X3.9039Y5.7051
N17390X3.9079Y5.7029
N17400X3.9123Y5.7015
N17410X3.9171Y5.7010
N17420X3.9219Y5.7015
N17430X3.9263Y5.7029
N17440X3.9303Y5.7051
N17450X3.9338Y5.7079
N17460X3.9367Y5.7114
N17470X3.9388Y5.7154
N17480X3.9402Y5.7198
N17490X3.9407Y5.7246
N17500X3.9402Y5.7295
N17510X3.9388Y5.7339
N17520X3.9367Y5.7378
N17530X3.9338Y5.7413
N17540X3.9303Y5.7442
N17550X3.9263Y5.7464
N17560X3.9219Y5.7477
N17570X3.9171Y5.7482
N17580G01Z-0.1500F15.0
N17590G01X3.9123Y5.7477F25.0
N17600X3.9079Y5.7464
N17610X3.9039Y5.7442
N17620X3.9004Y5.7413
N17630X3.8975Y5.7378
N17640X3.8954Y5.7339
N17650X3.8940Y5.7295
N17660X3.8935Y5.7246
N17670X3.8940Y5.7198
N17680X3.8954Y5.7154
N17690X3.8975Y5.7114
N17700X3.9004Y5.7079
N17710X3.9039Y5.7051
N17720X3.9079Y5.7029
N17730X3.9123Y5.7015
N17740X3.9171Y5.7010
N17750X3.9219Y5.7015
N17760X3.9263Y5.7029
N17770X3.9303Y5.7051
N17780X3.9338Y5.7079
N17790X3.9367Y5.7114
N17800X3.9388Y5.7154
N17810X3.9402Y5.7198
N17820X3.9407Y5.7246
N17830X3.9402Y5.7295
N17840X3.9388Y5.7339
N17850X3.9367Y5.7378
N17860X3.9338Y5.7413
N17870X3.9303Y5.7442
N17880X3.9263Y5.7464
N17890X3.9219Y5.7477
N17900X3.9171Y5.7482
N17910G00Z0.2500
N17920G00X3.4167Y5.1963
N17930G01Z-0.0500F15.0
N17940G01X3.4007Y5.1955F25.0
N17950X3.3851Y5.1931
N17960X3.3702Y5.1893
N17970X3.3559Y5.1840
N17980X3.3422Y5.1774
N17990X3.3293Y5.1696
N18000X3.3173Y5.1606
N18010X3.3062Y5.1505
N18020X3.2961Y5.1394
N18030X3.2871Y5.1274
N18040X3.2793Y5.1145
N18050X3.2727Y5.1009
N18060X3.2675Y5.0865
N18070X3.2636Y5.0716
N18080X3.2613Y5.0561
N18090X3.2605Y5.0401
N18100X3.2613Y5.0241
N18110X3.2636Y5.0085
N18120X3.2675Y4.9936
N18130X3.2727Y4.9793
N18140X3.2793Y4.9656
N18150X3.2871Y4.9527
N18160X3.2961Y4.9407
N18170X3.3062Y4.9296
N18180X3.3173Y4.9195
N18190X3.3293Y4.9105
N18200X3.3422Y4.9027
N18210X3.3559Y4.8961
N18220X3.3702Y4.8909
N18230X3.3851Y4.8870
N18240X3.4007Y4.8847
N18250X3.4167Y4.8839
N18260X3.4327Y4.8847
N18270X3.4482Y4.8870
N18280X3.4631Y4.8909
N18290X3.4775Y4.8961
N18300X3.4911Y4.9027
N18310X3.5040Y4.9105
N18320X3.5160Y4.9195
N18330X3.5271Y4.9296
N18340X3.5372Y4.9407
N18350X3.5462Y4.9527
N18360X3.5540Y4.9656
N18370X3.5606Y4.9793
N18380X3.5659Y4.9936
N18390X3.5697Y5.0085
N18400X3.5721Y5.0241
N18410X3.5729Y5.0401
N18420X3.5721Y5.0561
N18430X3.5697Y5.0716
N18440X3.5659Y5.0865
N18450X3.5606Y5.1009
N18460X3.5540Y5.1145
N18470X3.5462Y5.1274
N18480X3.5372Y5.1394
N18490X3.5271Y5.1505
N18500X3.5160Y5.1606
N18510X3.5040Y5.1696
N18520X3.4911Y5.1774
N18530X3.4775Y5.1840
N18540X3.4631Y5.1893
N18550X3.4482Y5.1931
N18560X3.4327Y5.1955
N18570X3.4167Y5.1963
N18580G01Z-0.1000F15.0
N18590G01X3.4007Y5.1955F25.0
N18600X3.3851Y5.1931
N18610X3.3702Y5.1893
N18620X3.3559Y5.1840
N18630X3.3422Y5.1774
N18640X3.3293Y5.1696
N18650X3.3173Y5.1606
N18660X3.3062Y5.1505
N18670X3.2961Y5.1394
N18680X3.2871Y5.1274
N18690X3.2793Y5.1145
N18700X3.2727Y5.1009
N18710X3.2675Y5.0865
N18720X3.2636Y5.0716
N18730X3.2613Y5.0561
N18740X3.2605Y5.0401
N18750X3.2613Y5.0241
N18760X3.2636Y5.0085
N18770X3.2675Y4.9936
N18780X3.2727Y4.9793
N18790X3.2793Y4.9656
N18800X3.2871Y4.9527
N18810X3.2961Y4.9407
N18820X3.3062Y4.9296
N18830X3.3173Y4.9195
N18840X3.3293Y4.9105
N18850X3.3422Y4.9027
N18860X3.3559Y4.8961
N18870X3.3702Y4.8909
N18880X3.3851Y4.8870
N18890X3.4007Y4.8847
N18900X3.4167Y4.8839
N18910X3.4327Y4.8847
N18920X3.4482Y4.8870
N18930X3.4631Y4.8909
N18940X3.4775Y4.8961
N18950X3.4911Y4.9027
N18960X3.5040Y4.9105
N18970X3.5160Y4.9195
N18980X3.5271Y4.9296
N18990X3.5372Y4.9407
N19000X3.5462Y4.9527
N19010X3.5540Y4.9656
N19020X3.5606Y4.9793
N19030X3.5659Y4.9936
N19040X3.5697Y5.0085
N19050X3.5721Y5.0241
N19060X3.5729Y5.0401
N19070X3.5721Y5.0561
N19080X3.5697Y5.0716
N19090X3.5659Y5.0865
N19100X3.5606Y5.1009
N19110X3.5540Y5.1145
N19120X3.5462Y5.1274
N19130X3.5372Y5.1394
N19140X3.5271Y5.1505
N19150X3.5160Y5.1606
N19160X3.5040Y5.1696
N19170X3.4911Y5.1774
N19180X3.4775Y5.1840
N19190X3.4631Y5.1893
N19200X3.4482Y5.1931
N19210X3.4327Y5.1955
N19220X3.4167Y5.1963
N19230G01Z-0.1500F15.0
N19240G01X3.4007Y5.1955F25.0
N19250X3.3851Y5.1931
N19260X3.3702Y5.1893
N19270X3.3559Y5.1840
N19280X3.3422Y5.1774
N19290X3.3293Y5.1696
N19300X3.3173Y5.1606
N19310X3.3062Y5.1505
N19320X3.2961Y5.1394
N19330X3.2871Y5.1274
N19340X3.2793Y5.1145
N19350X3.2727Y5.1009
N19360X3.2675Y5.0865
N19370X3.2636Y5.0716
N19380X3.2613Y5.0561
N19390X3.2605Y5.0401
N19400X3.2613Y5.0241
N19410X3.2636Y5.0085
N19420X3.2675Y4.9936
N19430X3.2727Y4.9793
N19440X3.2793Y4.9656
N19450X3.2871Y4.9527
N19460X3.2961Y4.9407
N19470X3.3062Y4.9296
N19480X3.3173Y4.9195
N19490X3.3293Y4.9105
N19500X3.3422Y4.9027
N19510X3.3559Y4.8961
N19520X3.3702Y4.8909
N19530X3.3851Y4.8870
N19540X3.4007Y4.8847
N19550X3.4167Y4.8839
N19560X3.4327Y4.8847
N19570X3.4482Y4.8870
N19580X3.4631Y4.8909
N19590X3.4775Y4.8961
N19600X3.4911Y4.9027
N19610X3.5040Y4.9105
N19620X3.5160Y4.9195
N19630X3.5271Y4.9296
N19640X3.5372Y4.9407
N19650X3.5462Y4.9527
N19660X3.5540Y4.9656
N19670X3.5606Y4.9793
N19680X3.5659Y4.9936
N19690X3.5697Y5.0085
N19700X3.5721Y5.0241
N19710X3.5729Y5.0401
N19720X3.5721Y5.0561
N19730X3.5697Y5.0716
N19740X3.5659Y5.0865
N19750X3.5606Y5.1009
N19760X3.5540Y5.1145
N19770X3.5462Y5.1274
N19780X3.5372Y5.1394
N19790X3.5271Y5.1505
N19800X3.5160Y5.1606
N19810X3.5040Y5.1696
N19820X3.4911Y5.1774
N19830X3.4775Y5.1840
N19840X3.4631Y5.1893
N19850X3.4482Y5.1931
N19860X3.4327Y5.1955
N19870X3.4167Y5.1963
N19880G00Z0.2500
N19890G00Y4.1963
N19900G01Z-0.0500F15.0
N19910G01X3.4007Y4.1955F25.0
N19920X3.3851Y4.1931
N19930X3.3702Y4.1893
N19940X3.3559Y4.1840
N19950X3.3422Y4.1774
N19960X3.3293Y4.1696
N19970X3.3173Y4.1606
N19980X3.3062Y4.1505
N19990X3.2961Y4.1394
N20000X3.2871Y4.1274
N20010X3.2793Y4.1145
N20020X3.2727Y4.1009
N20030X3.2675Y4.0865
N20040X3.2636Y4.0716
N20050X3.2613Y4.0561
N20060X3.2605Y4.0401
N20070X3.2613Y4.0241
N20080X3.2636Y4.0085
N20090X3.2675Y3.9936
N20100X3.2727Y3.9793
N20110X3.2793Y3.9656
N20120X3.2871Y3.9527
N20130X3.2961Y3.9407
N20140X3.3062Y3.9296
N20150X3.3173Y3.9195
N20160X3.3293Y3.9105
N20170X3.3422Y3.9027
N20180X3.3559Y3.8961
N20190X3.3702Y3.8909
N20200X3.3851Y3.8870
N20210X3.4007Y3.8847
N20220X3.4167Y3.8839
N20230X3.4327Y3.8847
N20240X3.4482Y3.8870
N20250X3.4631Y3.8909
N20260X3.4775Y3.8961
N20270X3.4911Y3.9027
N20280X3.5040Y3.9105
N20290X3.5160Y3.9195
N20300X3.5271Y3.9296
N20310X3.5372Y3.9407
N20320X3.5462Y3.9527
N20330X3.5540Y3.9656
N20340X3.5606Y3.9793
N20350X3.5659Y3.9936
N20360X3.5697Y4.0085
N20370X3.5721Y4.0241
N20380X3.5729Y4.0401
N20390X3.5721Y4.0561
N20400X3.5697Y4.0716
N20410X3.5659Y4.0865
N20420X3.5606Y4.1009
N20430X3.5540Y4.1145
N20440X3.5462Y4.1274
N20450X3.5372Y4.1394
N20460X3.5271Y4.1505
N20470X3.5160Y4.1606
N20480X3.5040Y4.1696
N20490X3.4911Y4.1774
N20500X3.4775Y4.1840
N20510X3.4631Y4.1893
N20520X3.4482Y4.1931
N20530X3.4327Y4.1955
N20540X3.4167Y4.1963
N20550G01Z-0.1000F15.0
N20560G01X3.4007Y4.1955F25.0
N20570X3.3851Y4.1931
N20580X3.3702Y4.1893
N20590X3.3559Y4.1840
N20600X3.3422Y4.1774
N20610X3.3293Y4.1696
N20620X3.3173Y4.1606
N20630X3.3062Y4.1505
N20640X3.2961Y4.1394
N20650X3.2871Y4.1274
N20660X3.2793Y4.1145
N20670X3.2727Y4.1009
N20680X3.2675Y4.0865
N20690X3.2636Y4.0716
N20700X3.2613Y4.0561
N20710X3.2605Y4.0401
N20720X3.2613Y4.0241
N20730X3.2636Y4.0085
N20740X3.2675Y3.9936
N20750X3.2727Y3.9793
N20760X3.2793Y3.9656
N20770X3.2871Y3.9527
N20780X3.2961Y3.9407
N20790X3.3062Y3.9296
N20800X3.3173Y3.9195
N20810X3.3293Y3.9105
N20820X3.3422Y3.9027
N20830X3.3559Y3.8961
N20840X3.3702Y3.8909
N20850X3.3851Y3.8870
N20860X3.4007Y3.8847
N20870X3.4167Y3.8839
N20880X3.4327Y3.8847
N20890X3.4482Y3.8870
N20900X3.4631Y3.8909
N20910X3.4775Y3.8961
N20920X3.4911Y3.9027
N20930X3.5040Y3.9105
N20940X3.5160Y3.9195
N20950X3.5271Y3.9296
N20960X3.5372Y3.9407
N20970X3.5462Y3.9527
N20980X3.5540Y3.9656
N20990X3.5606Y3.9793
N21000X3.5659Y3.9936
N21010X3.5697Y4.0085
N21020X3.5721Y4.0241
N21030X3.5729Y4.0401
N21040X3.5721Y4.0561
N21050X3.5697Y4.0716
N21060X3.5659Y4.0865
N21070X3.5606Y4.1009
N21080X3.5540Y4.1145
N21090X3.5462Y4.1274
N21100X3.5372Y4.1394
N21110X3.5271Y4.1505
N21120X3.5160Y4.1606
N21130X3.5040Y4.1696
N21140X3.4911Y4.1774
N21150X3.4775Y4.1840
N21160X3.4631Y4.1893
N21170X3.4482Y4.1931
N21180X3.4327Y4.1955
N21190X3.4167Y4.1963
N21200G01Z-0.1500F15.0
N21210G01X3.4007Y4.1955F25.0
N21220X3.3851Y4.1931
N21230X3.3702Y4.1893
N21240X3.3559Y4.1840
N21250X3.3422Y4.1774
N21260X3.3293Y4.1696
N21270X3.3173Y4.1606
N21280X3.3062Y4.1505
N21290X3.2961Y4.1394
N21300X3.2871Y4.1274
N21310X3.2793Y4.1145
N21320X3.2727Y4.1009
N21330X3.2675Y4.0865
N21340X3.2636Y4.0716
N21350X3.2613Y4.0561
N21360X3.2605Y4.0401
N21370X3.2613Y4.0241
N21380X3.2636Y4.0085
N21390X3.2675Y3.9936
N21400X3.2727Y3.9793
N21410X3.2793Y3.9656
N21420X3.2871Y3.9527
N21430X3.2961Y3.9407
N21440X3.3062Y3.9296
N21450X3.3173Y3.9195
N21460X3.3293Y3.9105
N21470X3.3422Y3.9027
N21480X3.3559Y3.8961
N21490X3.3702Y3.8909
N21500X3.3851Y3.8870
N21510X3.4007Y3.8847
N21520X3.4167Y3.8839
N21530X3.4327Y3.8847
N21540X3.4482Y3.8870
N21550X3.4631Y3.8909
N21560X3.4775Y3.8961
N21570X3.4911Y3.9027
N21580X3.5040Y3.9105
N21590X3.5160Y3.9195
N21600X3.5271Y3.9296
N21610X3.5372Y3.9407
N21620X3.5462Y3.9527
N21630X3.5540Y3.9656
N21640X3.5606Y3.9793
N21650X3.5659Y3.9936
N21660X3.5697Y4.0085
N21670X3.5721Y4.0241
N21680X3.5729Y4.0401
N21690X3.5721Y4.0561
N21700X3.5697Y4.0716
N21710X3.5659Y4.0865
N21720X3.5606Y4.1009
N21730X3.5540Y4.1145
N21740X3.5462Y4.1274
N21750X3.5372Y4.1394
N21760X3.5271Y4.1505
N21770X3.5160Y4.1606
N21780X3.5040Y4.1696
N21790X3.4911Y4.1774
N21800X3.4775Y4.1840
N21810X3.4631Y4.1893
N21820X3.4482Y4.1931
N21830X3.4327Y4.1955
N21840X3.4167Y4.1963
N21850G00Z0.2500
N21860G00X5.4167
N21870G01Z-0.0500F15.0
N21880G01X5.4007Y4.1955F25.0
N21890X5.3851Y4.1931
N21900X5.3702Y4.1893
N21910X5.3559Y4.1840
N21920X5.3422Y4.1774
N21930X5.3293Y4.1696
N21940X5.3173Y4.1606
N21950X5.3062Y4.1505
N21960X5.2961Y4.1394
N21970X5.2871Y4.1274
N21980X5.2793Y4.1145
N21990X5.2727Y4.1009
N22000X5.2675Y4.0865
N22010X5.2636Y4.0716
N22020X5.2613Y4.0561
N22030X5.2605Y4.0401
N22040X5.2613Y4.0241
N22050X5.2636Y4.0085
N22060X5.2675Y3.9936
N22070X5.2727Y3.9793
N22080X5.2793Y3.9656
N22090X5.2871Y3.9527
N22100X5.2961Y3.9407
N22110X5.3062Y3.9296
N22120X5.3173Y3.9195
N22130X5.3293Y3.9105
N22140X5.3422Y3.9027
N22150X5.3559Y3.8961
N22160X5.3702Y3.8909
N22170X5.3851Y3.8870
N22180X5.4007Y3.8847
N22190X5.4167Y3.8839
N22200X5.4327Y3.8847
N22210X5.4482Y3.8870
N22220X5.4631Y3.8909
N22230X5.4775Y3.8961
N22240X5.4911Y3.9027
N22250X5.5040Y3.9105
N22260X5.5160Y3.9195
N22270X5.5271Y3.9296
N22280X5.5372Y3.9407
N22290X5.5462Y3.9527
N22300X5.5540Y3.9656
N22310X5.5606Y3.9793
N22320X5.5659Y3.9936
N22330X5.5697Y4.0085
N22340X5.5721Y4.0241
N22350X5.5729Y4.0401
N22360X5.5721Y4.0561
N22370X5.5697Y4.0716
N22380X5.5659Y4.0865
N22390X5.5606Y4.1009
N22400X5.5540Y4.1145
N22410X5.5462Y4.1274
N22420X5.5372Y4.1394
N22430X5.5271Y4.1505
N22440X5.5160Y4.1606
N22450X5.5040Y4.1696
N22460X5.4911Y4.1774
N22470X5.4775Y4.1840
N22480X5.4631Y4.1893
N22490X5.4482Y4.1931
N22500X5.4327Y4.1955
N22510X5.4167Y4.1963
N22520G01Z-0.1000F15.0
N22530G01X5.4007Y4.1955F25.0
N22540X5.3851Y4.1931
N22550X5.3702Y4.1893
N22560X5.3559Y4.1840
N22570X5.3422Y4.1774
N22580X5.3293Y4.1696
N22590X5.3173Y4.1606
N22600X5.3062Y4.1505
N22610X5.2961Y4.1394
N22620X5.2871Y4.1274
N22630X5.2793Y4.1145
N22640X5.2727Y4.1009
N22650X5.2675Y4.0865
N22660X5.2636Y4.0716
N22670X5.2613Y4.0561
N22680X5.2605Y4.0401
N22690X5.2613Y4.0241
N22700X5.2636Y4.0085
N22710X5.2675Y3.9936
N22720X5.2727Y3.9793
N22730X5.2793Y3.9656
N22740X5.2871Y3.9527
N22750X5.2961Y3.9407
N22760X5.3062Y3.9296
N22770X5.3173Y3.9195
N22780X5.3293Y3.9105
N22790X5.3422Y3.9027
N22800X5.3559Y3.8961
N22810X5.3702Y3.8909
N22820X5.3851Y3.8870
N22830X5.4007Y3.8847
N22840X5.4167Y3.8839
N22850X5.4327Y3.8847
N22860X5.4482Y3.8870
N22870X5.4631Y3.8909
N22880X5.4775Y3.8961
N22890X5.4911Y3.9027
N22900X5.5040Y3.9105
N22910X5.5160Y3.9195
N22920X5.5271Y3.9296
N22930X5.5372Y3.9407
N22940X5.5462Y3.9527
N22950X5.5540Y3.9656
N22960X5.5606Y3.9793
N22970X5.5659Y3.9936
N22980X5.5697Y4.0085
N22990X5.5721Y4.0241
N23000X5.5729Y4.0401
N23010X5.5721Y4.0561
N23020X5.5697Y4.0716
N23030X5.5659Y4.0865
N23040X5.5606Y4.1009
N23050X5.5540Y4.1145
N23060X5.5462Y4.1274
N23070X5.5372Y4.1394
N23080X5.5271Y4.1505
N23090X5.5160Y4.1606
N23100X5.5040Y4.1696
N23110X5.4911Y4.1774
N23120X5.4775Y4.1840
N23130X5.4631Y4.1893
N23140X5.4482Y4.1931
N23150X5.4327Y4.1955
N23160X5.4167Y4.1963
N23170G01Z-0.1500F15.0
N23180G01X5.4007Y4.1955F25.0
N23190X5.3851Y4.1931
N23200X5.3702Y4.1893
N23210X5.3559Y4.1840
N23220X5.3422Y4.1774
N23230X5.3293Y4.1696
N23240X5.3173Y4.1606
N23250X5.3062Y4.1505
N23260X5.2961Y4.1394
N23270X5.2871Y4.1274
N23280X5.2793Y4.1145
N23290X5.2727Y4.1009
N23300X5.2675Y4.0865
N23310X5.2636Y4.0716
N23320X5.2613Y4.0561
N23330X5.2605Y4.0401
N23340X5.2613Y4.0241
N23350X5.2636Y4.0085
N23360X5.2675Y3.9936
N23370X5.2727Y3.9793
N23380X5.2793Y3.9656
N23390X5.2871Y3.9527
N23400X5.2961Y3.9407
N23410X5.3062Y3.9296
N23420X5.3173Y3.9195
N23430X5.3293Y3.9105
N23440X5.3422Y3.9027
N23450X5.3559Y3.8961
N23460X5.3702Y3.8909
N23470X5.3851Y3.8870
N23480X5.4007Y3.8847
N23490X5.4167Y3.8839
N23500X5.4327Y3.8847
N23510X5.4482Y3.8870
N23520X5.4631Y3.8909
N23530X5.4775Y3.8961
N23540X5.4911Y3.9027
N23550X5.5040Y3.9105
N23560X5.5160Y3.9195
N23570X5.5271Y3.9296
N23580X5.5372Y3.9407
N23590X5.5462Y3.9527
N23600X5.5540Y3.9656
N23610X5.5606Y3.9793
N23620X5.5659Y3.9936
N23630X5.5697Y4.0085
N23640X5.5721Y4.0241
N23650X5.5729Y4.0401
N23660X5.5721Y4.0561
N23670X5.5697Y4.0716
N23680X5.5659Y4.0865
N23690X5.5606Y4.1009
N23700X5.5540Y4.1145
N23710X5.5462Y4.1274
N23720X5.5372Y4.1394
N23730X5.5271Y4.1505
N23740X5.5160Y4.1606
N23750X5.5040Y4.1696
N23760X5.4911Y4.1774
N23770X5.4775Y4.1840
N23780X5.4631Y4.1893
N23790X5.4482Y4.1931
N23800X5.4327Y4.1955
N23810X5.4167Y4.1963
N23820G00Z0.2500
N23830G00Y3.1963
N23840G01Z-0.0500F15.0
N23850G01X5.4007Y3.1955F25.0
N23860X5.3851Y3.1931
N23870X5.3702Y3.1893
N23880X5.3559Y3.1840
N23890X5.3422Y3.1774
N23900X5.3293Y3.1696
N23910X5.3173Y3.1606
N23920X5.3062Y3.1505
N23930X5.2961Y3.1394
N23940X5.2871Y3.1274
N23950X5.2793Y3.1145
N23960X5.2727Y3.1009
N23970X5.2675Y3.0865
N23980X5.2636Y3.0716
N23990X5.2613Y3.0561
N24000X5.2605Y3.0401
N24010X5.2613Y3.0241
N24020X5.2636Y3.0085
N24030X5.2675Y2.9936
N24040X5.2727Y2.9793
N24050X5.2793Y2.9656
N24060X5.2871Y2.9527
N24070X5.2961Y2.9407
N24080X5.3062Y2.9296
N24090X5.3173Y2.9195
N24100X5.3293Y2.9105
N24110X5.3422Y2.9027
N24120X5.3559Y2.8961
N24130X5.3702Y2.8909
N24140X5.3851Y2.8870
N24150X5.4007Y2.8847
N24160X5.4167Y2.8839
N24170X5.4327Y2.8847
N24180X5.4482Y2.8870
N24190X5.4631Y2.8909
N24200X5.4775Y2.8961
N24210X5.4911Y2.9027
N24220X5.5040Y2.9105
N24230X5.5160Y2.9195
N24240X5.5271Y2.9296
N24250X5.5372Y2.9407
N24260X5.5462Y2.9527
N24270X5.5540Y2.9656
N24280X5.5606Y2.9793
N24290X5.5659Y2.9936
N24300X5.5697Y3.0085
N24310X5.5721Y3.0241
N24320X5.5729Y3.0401
N24330X5.5721Y3.0561
N24340X5.5697Y3.0716
N24350X5.5659Y3.0865
N24360X5.5606Y3.1009
N24370X5.5540Y3.1145
N24380X5.5462Y3.1274
N24390X5.5372Y3.1394
N24400X5.5271Y3.1505
N24410X5.5160Y3.1606
N24420X5.5040Y3.1696
N24430X5.4911Y3.1774
N24440X5.4775Y3.1840
N24450X5.4631Y3.1893
N24460X5.4482Y3.1931
N24470X5.4327Y3.1955
N24480X5.4167Y3.1963
N24490G01Z-0.1000F15.0
N24500G01X5.4007Y3.1955F25.0
N24510X5.3851Y3.1931
N24520X5.3702Y3.1893
N24530X5.3559Y3.1840
N24540X5.3422Y3.1774
N24550X5.3293Y3.1696
N24560X5.3173Y3.1606
N24570X5.3062Y3.1505
N24580X5.2961Y3.1394
N24590X5.2871Y3.1274
N24600X5.2793Y3.1145
N24610X5.2727Y3.1009
N24620X5.2675Y3.0865
N24630X5.2636Y3.0716
N24640X5.2613Y3.0561
N24650X5.2605Y3.0401
N24660X5.2613Y3.0241
N24670X5.2636Y3.0085
N24680X5.2675Y2.9936
N24690X5.2727Y2.9793
N24700X5.2793Y2.9656
N24710X5.2871Y2.9527
N24720X5.2961Y2.9407
N24730X5.3062Y2.9296
N24740X5.3173Y2.9195
N24750X5.3293Y2.9105
N24760X5.3422Y2.9027
N24770X5.3559Y2.8961
N24780X5.3702Y2.8909
N24790X5.3851Y2.8870
N24800X5.4007Y2.8847
N24810X5.4167Y2.8839
N24820X5.4327Y2.8847
N24830X5.4482Y2.8870
N24840X5.4631Y2.8909
N24850X5.4775Y2.8961
N24860X5.4911Y2.9027
N24870X5.5040Y2.9105
N24880X5.5160Y2.9195
N24890X5.5271Y2.9296
N24900X5.5372Y2.9407
N24910X5.5462Y2.9527
N24920X5.5540Y2.9656
N24930X5.5606Y2.9793
N24940X5.5659Y2.9936
N24950X5.5697Y3.0085
N24960X5.5721Y3.0241
N24970X5.5729Y3.0401
N24980X5.5721Y3.0561
N24990X5.5697Y3.0716
N25000X5.5659Y3.0865
N25010X5.5606Y3.1009
N25020X5.5540Y3.1145
N25030X5.5462Y3.1274
N25040X5.5372Y3.1394
N25050X5.5271Y3.1505
N25060X5.5160Y3.1606
N25070X5.5040Y3.1696
N25080X5.4911Y3.1774
N25090X5.4775Y3.1840
N25100X5.4631Y3.1893
N25110X5.4482Y3.1931
N25120X5.4327Y3.1955
N25130X5.4167Y3.1963
N25140G01Z-0.1500F15.0
N25150G01X5.4007Y3.1955F25.0
N25160X5.3851Y3.1931
N25170X5.3702Y3.1893
N25180X5.3559Y3.1840
N25190X5.3422Y3.1774
N25200X5.3293Y3.1696
N25210X5.3173Y3.1606
N25220X5.3062Y3.1505
N25230X5.2961Y3.1394
N25240X5.2871Y3.1274
N25250X5.2793Y3.1145
N25260X5.2727Y3.1009
N25270X5.2675Y3.0865
N25280X5.2636Y3.0716
N25290X5.2613Y3.0561
N25300X5.2605Y3.0401
N25310X5.2613Y3.0241
N25320X5.2636Y3.0085
N25330X5.2675Y2.9936
N25340X5.2727Y2.9793
N25350X5.2793Y2.9656
N25360X5.2871Y2.9527
N25370X5.2961Y2.9407
N25380X5.3062Y2.9296
N25390X5.3173Y2.9195
N25400X5.3293Y2.9105
N25410X5.3422Y2.9027
N25420X5.3559Y2.8961
N25430X5.3702Y2.8909
N25440X5.3851Y2.8870
N25450X5.4007Y2.8847
N25460X5.4167Y2.8839
N25470X5.4327Y2.8847
N25480X5.4482Y2.8870
N25490X5.4631Y2.8909
N25500X5.4775Y2.8961
N25510X5.4911Y2.9027
N25520X5.5040Y2.9105
N25530X5.5160Y2.9195
N25540X5.5271Y2.9296
N25550X5.5372Y2.9407
N25560X5.5462Y2.9527
N25570X5.5540Y2.9656
N25580X5.5606Y2.9793
N25590X5.5659Y2.9936
N25600X5.5697Y3.0085
N25610X5.5721Y3.0241
N25620X5.5729Y3.0401
N25630X5.5721Y3.0561
N25640X5.5697Y3.0716
N25650X5.5659Y3.0865
N25660X5.5606Y3.1009
N25670X5.5540Y3.1145
N25680X5.5462Y3.1274
N25690X5.5372Y3.1394
N25700X5.5271Y3.1505
N25710X5.5160Y3.1606
N25720X5.5040Y3.1696
N25730X5.4911Y3.1774
N25740X5.4775Y3.1840
N25750X5.4631Y3.1893
N25760X5.4482Y3.1931
N25770X5.4327Y3.1955
N25780X5.4167Y3.1963
N25790G00Z0.2500
N25800G00X5.9171Y2.3791
N25810G01Z-0.0500F15.0
N25820G01X5.9123Y2.3786F25.0
N25830X5.9079Y2.3772
N25840X5.9039Y2.3751
N25850X5.9004Y2.3722
N25860X5.8975Y2.3687
N25870X5.8953Y2.3647
N25880X5.8940Y2.3603
N25890X5.8935Y2.3555
N25900X5.8940Y2.3507
N25910X5.8953Y2.3463
N25920X5.8975Y2.3423
N25930X5.9004Y2.3388
N25940X5.9039Y2.3359
N25950X5.9079Y2.3337
N25960X5.9123Y2.3324
N25970X5.9171Y2.3319
N25980X5.9219Y2.3324
N25990X5.9263Y2.3337
N26000X5.9303Y2.3359
N26010X5.9338Y2.3388
N26020X5.9367Y2.3423
N26030X5.9388Y2.3463
N26040X5.9402Y2.3507
N26050X5.9407Y2.3555
N26060X5.9402Y2.3603
N26070X5.9388Y2.3647
N26080X5.9367Y2.3687
N26090X5.9338Y2.3722
N26100X5.9303Y2.3751
N26110X5.9263Y2.3772
N26120X5.9219Y2.3786
N26130X5.9171Y2.3791
N26140G01Z-0.1000F15.0
N26150G01X5.9123Y2.3786F25.0
N26160X5.9079Y2.3772
N26170X5.9039Y2.3751
N26180X5.9004Y2.3722
N26190X5.8975Y2.3687
N26200X5.8953Y2.3647
N26210X5.8940Y2.3603
N26220X5.8935Y2.3555
N26230X5.8940Y2.3507
N26240X5.8953Y2.3463
N26250X5.8975Y2.3423
N26260X5.9004Y2.3388
N26270X5.9039Y2.3359
N26280X5.9079Y2.3337
N26290X5.9123Y2.3324
N26300X5.9171Y2.3319
N26310X5.9219Y2.3324
N26320X5.9263Y2.3337
N26330X5.9303Y2.3359
N26340X5.9338Y2.3388
N26350X5.9367Y2.3423
N26360X5.9388Y2.3463
N26370X5.9402Y2.3507
N26380X5.9407Y2.3555
N26390X5.9402Y2.3603
N26400X5.9388Y2.3647
N26410X5.9367Y2.3687
N26420X5.9338Y2.3722
N26430X5.9303Y2.3751
N26440X5.9263Y2.3772
N26450X5.9219Y2.3786
N26460X5.9171Y2.3791
N26470G01Z-0.1500F15.0
N26480G01X5.9123Y2.3786F25.0
N26490X5.9079Y2.3772
N26500X5.9039Y2.3751
N26510X5.9004Y2.3722
N26520X5.8975Y2.3687
N26530X5.8953Y2.3647
N26540X5.8940Y2.3603
N26550X5.8935Y2.3555
N26560X5.8940Y2.3507
N26570X5.8953Y2.3463
N26580X5.8975Y2.3423
N26590X5.9004Y2.3388
N26600X5.9039Y2.3359
N26610X5.9079Y2.3337
N26620X5.9123Y2.3324
N26630X5.9171Y2.3319
N26640X5.9219Y2.3324
N26650X5.9263Y2.3337
N26660X5.9303Y2.3359
N26670X5.9338Y2.3388
N26680X5.9367Y2.3423
N26690X5.9388Y2.3463
N26700X5.9402Y2.3507
N26710X5.9407Y2.3555
N26720X5.9402Y2.3603
N26730X5.9388Y2.3647
N26740X5.9367Y2.3687
N26750X5.9338Y2.3722
N26760X5.9303Y2.3751
N26770X5.9263Y2.3772
N26780X5.9219Y2.3786
N26790X5.9171Y2.3791
N26800G00Z0.2500
N26810G00X5.4167Y5.1963
N26820G01Z-0.0500F15.0
N26830G01X5.4007Y5.1955F25.0
N26840X5.3851Y5.1931
N26850X5.3702Y5.1893
N26860X5.3559Y5.1840
N26870X5.3422Y5.1774
N26880X5.3293Y5.1696
N26890X5.3173Y5.1606
N26900X5.3062Y5.1505
N26910X5.2961Y5.1394
N26920X5.2871Y5.1274
N26930X5.2793Y5.1145
N26940X5.2727Y5.1009
N26950X5.2675Y5.0865
N26960X5.2636Y5.0716
N26970X5.2613Y5.0561
N26980X5.2605Y5.0401
N26990X5.2613Y5.0241
N27000X5.2636Y5.0085
N27010X5.2675Y4.9936
N27020X5.2727Y4.9793
N27030X5.2793Y4.9656
N27040X5.2871Y4.9527
N27050X5.2961Y4.9407
N27060X5.3062Y4.9296
N27070X5.3173Y4.9195
N27080X5.3293Y4.9105
N27090X5.3422Y4.9027
N27100X5.3559Y4.8961
N27110X5.3702Y4.8909
N27120X5.3851Y4.8870
N27130X5.4007Y4.8847
N27140X5.4167Y4.8839
N27150X5.4327Y4.8847
N27160X5.4482Y4.8870
N27170X5.4631Y4.8909
N27180X5.4775Y4.8961
N27190X5.4911Y4.9027
N27200X5.5040Y4.9105
N27210X5.5160Y4.9195
N27220X5.5271Y4.9296
N27230X5.5372Y4.9407
N27240X5.5462Y4.9527
N27250X5.5540Y4.9656
N27260X5.5606Y4.9793
N27270X5.5659Y4.9936
N27280X5.5697Y5.0085
N27290X5.5721Y5.0241
N27300X5.5729Y5.0401
N27310X5.5721Y5.0561
N27320X5.5697Y5.0716
N27330X5.5659Y5.0865
N27340X5.5606Y5.1009
N27350X5.5540Y5.1145
N27360X5.5462Y5.1274
N27370X5.5372Y5.1394
N27380X5.5271Y5.1505
N27390X5.5160Y5.1606
N27400X5.5040Y5.1696
N27410X5.4911Y5.1774
N27420X5.4775Y5.1840
N27430X5.4631Y5.1893
N27440X5.4482Y5.1931
N27450X5.4327Y5.1955
N27460X5.4167Y5.1963
N27470G01Z-0.1000F15.0
N27480G01X5.4007Y5.1955F25.0
N27490X5.3851Y5.1931
N27500X5.3702Y5.1893
N27510X5.3559Y5.1840
N27520X5.3422Y5.1774
N27530X5.3293Y5.1696
N27540X5.3173Y5.1606
N27550X5.3062Y5.1505
N27560X5.2961Y5.1394
N27570X5.2871Y5.1274
N27580X5.2793Y5.1145
N27590X5.2727Y5.1009
N27600X5.2675Y5.0865
N27610X5.2636Y5.0716
N27620X5.2613Y5.0561
N27630X5.2605Y5.0401
N27640X5.2613Y5.0241
N27650X5.2636Y5.0085
N27660X5.2675Y4.9936
N27670X5.2727Y4.9793
N27680X5.2793Y4.9656
N27690X5.2871Y4.9527
N27700X5.2961Y4.9407
N27710X5.3062Y4.9296
N27720X5.3173Y4.9195
N27730X5.3293Y4.9105
N27740X5.3422Y4.9027
N27750X5.3559Y4.8961
N27760X5.3702Y4.8909
N27770X5.3851Y4.8870
N27780X5.4007Y4.8847
N27790X5.4167Y4.8839
N27800X5.4327Y4.8847
N27810X5.4482Y4.8870
N27820X5.4631Y4.8909
N27830X5.4775Y4.8961
N27840X5.4911Y4.9027
N27850X5.5040Y4.9105
N27860X5.5160Y4.9195
N27870X5.5271Y4.9296
N27880X5.5372Y4.9407
N27890X5.5462Y4.9527
N27900X5.5540Y4.9656
N27910X5.5606Y4.9793
N27920X5.5659Y4.9936
N27930X5.5697Y5.0085
N27940X5.5721Y5.0241
N27950X5.5729Y5.0401
N27960X5.5721Y5.0561
N27970X5.5697Y5.0716
N27980X5.5659Y5.0865
N27990X5.5606Y5.1009
N28000X5.5540Y5.1145
N28010X5.5462Y5.1274
N28020X5.5372Y5.1394
N28030X5.5271Y5.1505
N28040X5.5160Y5.1606
N28050X5.5040Y5.1696
N28060X5.4911Y5.1774
N28070X5.4775Y5.1840
N28080X5.4631Y5.1893
N28090X5.4482Y5.1931
N28100X5.4327Y5.1955
N28110X5.4167Y5.1963
N28120G01Z-0.1500F15.0
N28130G01X5.4007Y5.1955F25.0
N28140X5.3851Y5.1931
N28150X5.3702Y5.1893
N28160X5.3559Y5.1840
N28170X5.3422Y5.1774
N28180X5.3293Y5.1696
N28190X5.3173Y5.1606
N28200X5.3062Y5.1505
N28210X5.2961Y5.1394
N28220X5.2871Y5.1274
N28230X5.2793Y5.1145
N28240X5.2727Y5.1009
N28250X5.2675Y5.0865
N28260X5.2636Y5.0716
N28270X5.2613Y5.0561
N28280X5.2605Y5.0401
N28290X5.2613Y5.0241
N28300X5.2636Y5.0085
N28310X5.2675Y4.9936
N28320X5.2727Y4.9793
N28330X5.2793Y4.9656
N28340X5.2871Y4.9527
N28350X5.2961Y4.9407
N28360X5.3062Y4.9296
N28370X5.3173Y4.9195
N28380X5.3293Y4.9105
N28390X5.3422Y4.9027
N28400X5.3559Y4.8961
N28410X5.3702Y4.8909
N28420X5.3851Y4.8870
N28430X5.4007Y4.8847
N28440X5.4167Y4.8839
N28450X5.4327Y4.8847
N28460X5.4482Y4.8870
N28470X5.4631Y4.8909
N28480X5.4775Y4.8961
N28490X5.4911Y4.9027
N28500X5.5040Y4.9105
N28510X5.5160Y4.9195
N28520X5.5271Y4.9296
N28530X5.5372Y4.9407
N28540X5.5462Y4.9527
N28550X5.5540Y4.9656
N28560X5.5606Y4.9793
N28570X5.5659Y4.9936
N28580X5.5697Y5.0085
N28590X5.5721Y5.0241
N28600X5.5729Y5.0401
N28610X5.5721Y5.0561
N28620X5.5697Y5.0716
N28630X5.5659Y5.0865
N28640X5.5606Y5.1009
N28650X5.5540Y5.1145
N28660X5.5462Y5.1274
N28670X5.5372Y5.1394
N28680X5.5271Y5.1505
N28690X5.5160Y5.1606
N28700X5.5040Y5.1696
N28710X5.4911Y5.1774
N28720X5.4775Y5.1840
N28730X5.4631Y5.1893
N28740X5.4482Y5.1931
N28750X5.4327Y5.1955
N28760X5.4167Y5.1963
N28770G00Z0.2500
N28780G00X5.9171Y5.7482
N28790G01Z-0.0500F15.0
N28800G01X5.9123Y5.7477F25.0
N28810X5.9079Y5.7464
N28820X5.9039Y5.7442
N28830X5.9004Y5.7413
N28840X5.8975Y5.7378
N28850X5.8954Y5.7339
N28860X5.8940Y5.7295
N28870X5.8935Y5.7246
N28880X5.8940Y5.7198
N28890X5.8954Y5.7154
N28900X5.8975Y5.7114
N28910X5.9004Y5.7079
N28920X5.9039Y5.7051
N28930X5.9079Y5.7029
N28940X5.9123Y5.7015
N28950X5.9171Y5.7010
N28960X5.9219Y5.7015
N28970X5.9263Y5.7029
N28980X5.9303Y5.7051
N28990X5.9338Y5.7079
N29000X5.9367Y5.7114
N29010X5.9388Y5.7154
N29020X5.9402Y5.7198
N29030X5.9407Y5.7246
N29040X5.9402Y5.7295
N29050X5.9388Y5.7339
N29060X5.9367Y5.7378
N29070X5.9338Y5.7413
N29080X5.9303Y5.7442
N29090X5.9263Y5.7464
N29100X5.9219Y5.7477
N29110X5.9171Y5.7482
N29120G01Z-0.1000F15.0
N29130G01X5.9123Y5.7477F25.0
N29140X5.9079Y5.7464
N29150X5.9039Y5.7442
N29160X5.9004Y5.7413
N29170X5.8975Y5.7378
N29180X5.8954Y5.7339
N29190X5.8940Y5.7295
N29200X5.8935Y5.7246
N29210X5.8940Y5.7198
N29220X5.8954Y5.7154
N29230X5.8975Y5.7114
N29240X5.9004Y5.7079
N29250X5.9039Y5.7051
N29260X5.9079Y5.7029
N29270X5.9123Y5.7015
N29280X5.9171Y5.7010
N29290X5.9219Y5.7015
N29300X5.9263Y5.7029
N29310X5.9303Y5.7051
N29320X5.9338Y5.7079
N29330X5.9367Y5.7114
N29340X5.9388Y5.7154
N29350X5.9402Y5.7198
N29360X5.9407Y5.7246
N29370X5.9402Y5.7295
N29380X5.9388Y5.7339
N29390X5.9367Y5.7378
N29400X5.9338Y5.7413
N29410X5.9303Y5.7442
N29420X5.9263Y5.7464
N29430X5.9219Y5.7477
N29440X5.9171Y5.7482
N29450G01Z-0.1500F15.0
N29460G01X5.9123Y5.7477F25.0
N29470X5.9079Y5.7464
N29480X5.9039Y5.7442
N29490X5.9004Y5.7413
N29500X5.8975Y5.7378
N29510X5.8954Y5.7339
N29520X5.8940Y5.7295
N29530X5.8935Y5.7246
N29540X5.8940Y5.7198
N29550X5.8954Y5.7154
N29560X5.8975Y5.7114
N29570X5.9004Y5.7079
N29580X5.9039Y5.7051
N29590X5.9079Y5.7029
N29600X5.9123Y5.7015
N29610X5.9171Y5.7010
N29620X5.9219Y5.7015
N29630X5.9263Y5.7029
N29640X5.9303Y5.7051
N29650X5.9338Y5.7079
N29660X5.9367Y5.7114
N29670X5.9388Y5.7154
N29680X5.9402Y5.7198
N29690X5.9407Y5.7246
N29700X5.9402Y5.7295
N29710X5.9388Y5.7339
N29720X5.9367Y5.7378
N29730X5.9338Y5.7413
N29740X5.9303Y5.7442
N29750X5.9263Y5.7464
N29760X5.9219Y5.7477
N29770X5.9171Y5.7482
N29780G00Z0.2500
N29790G00X1.3523Y5.5713Z0.2500
N29800G01Z-0.0500F15.0
N29810G01X1.5721F25.0
N29820X1.5728Y5.5841
N29830X1.5750Y5.6057
N29840X1.5779Y5.6269
N29850X1.5816Y5.6478
N29860X1.5862Y5.6683
N29870X1.5914Y5.6884
N29880X1.5974Y5.7081
N29890X1.6041Y5.7273
N29900X1.6116Y5.7461
N29910X1.6197Y5.7643
N29920X1.6284Y5.7820
N29930X1.6378Y5.7991
N29940X1.6479Y5.8156
N29950X1.6585Y5.8315
N29960X1.6698Y5.8468
N29970X1.6816Y5.8614
N29980X1.6940Y5.8753
N29990X1.7070Y5.8885
N30000X1.7205Y5.9009
N30010X1.7345Y5.9125
N30020X1.7490Y5.9233
N30030X1.7639Y5.9332
N30040X1.7794Y5.9423
N30050X1.7953Y5.9504
N30060X1.8116Y5.9575
N30070X1.8283Y5.9637
N30080X1.8454Y5.9688
N30090X1.8628Y5.9728
N30100X1.8805Y5.9757
N30110X1.8985Y5.9775
N30120X1.9167Y5.9781
N30130X1.9349Y5.9775
N30140X1.9529Y5.9757
N30150X1.9706Y5.9728
N30160X1.9880Y5.9688
N30170X2.0050Y5.9637
N30180X2.0218Y5.9575
N30190X2.0381Y5.9504
N30200X2.0539Y5.9423
N30210X2.0694Y5.9332
N30220X2.0844Y5.9233
N30230X2.0989Y5.9125
N30240X2.1129Y5.9009
N30250X2.1264Y5.8885
N30260X2.1393Y5.8753
N30270X2.1517Y5.8614
N30280X2.1635Y5.8468
N30290X2.1748Y5.8315
N30300X2.1855Y5.8156
N30310X2.1955Y5.7991
N30320X2.2049Y5.7820
N30330X2.2137Y5.7643
N30340X2.2218Y5.7461
N30350X2.2292Y5.7273
N30360X2.2359Y5.7081
N30370X2.2419Y5.6884
N30380X2.2472Y5.6683
N30390X2.2517Y5.6478
N30400X2.2554Y5.6269
N30410X2.2584Y5.6057
N30420X2.2605Y5.5841
N30430X2.2613Y5.5713
N30440X3.5721
N30450X3.5728Y5.5841
N30460X3.5750Y5.6057
N30470X3.5779Y5.6269
N30480X3.5816Y5.6478
N30490X3.5862Y5.6683
N30500X3.5914Y5.6884
N30510X3.5974Y5.7081
N30520X3.6041Y5.7273
N30530X3.6116Y5.7461
N30540X3.6197Y5.7643
N30550X3.6284Y5.7820
N30560X3.6378Y5.7991
N30570X3.6479Y5.8156
N30580X3.6585Y5.8315
N30590X3.6698Y5.8468
N30600X3.6816Y5.8614
N30610X3.6940Y5.8753
N30620X3.7070Y5.8885
N30630X3.7205Y5.9009
N30640X3.7345Y5.9125
N30650X3.7490Y5.9233
N30660X3.7639Y5.9332
N30670X3.7794Y5.9423
N30680X3.7953Y5.9504
N30690X3.8116Y5.9575
N30700X3.8283Y5.9637
N30710X3.8454Y5.9688
N30720X3.8628Y5.9728
N30730X3.8805Y5.9757
N30740X3.8985Y5.9775
N30750X3.9167Y5.9781
N30760X3.9349Y5.9775
N30770X3.9529Y5.9757
N30780X3.9706Y5.9728
N30790X3.9880Y5.9688
N30800X4.0050Y5.9637
N30810X4.0217Y5.9575
N30820X4.0381Y5.9504
N30830X4.0539Y5.9423
N30840X4.0694Y5.9332
N30850X4.0844Y5.9233
N30860X4.0989Y5.9125
N30870X4.1129Y5.9009
N30880X4.1264Y5.8885
N30890X4.1393Y5.8753
N30900X4.1517Y5.8614
N30910X4.1635Y5.8468
N30920X4.1748Y5.8315
N30930X4.1854Y5.8156
N30940X4.1955Y5.7991
N30950X4.2049Y5.7820
N30960X4.2137Y5.7643
N30970X4.2218Y5.7461
N30980X4.2292Y5.7273
N30990X4.2359Y5.7081
N31000X4.2419Y5.6884
N31010X4.2472Y5.6683
N31020X4.2517Y5.6478
N31030X4.2554Y5.6269
N31040X4.2584Y5.6057
N31050X4.2605Y5.5841
N31060X4.2613Y5.5713
N31070X5.5721
N31080X5.5728Y5.5841
N31090X5.5750Y5.6057
N31100X5.5779Y5.6269
N31110X5.5816Y5.6478
N31120X5.5862Y5.6683
N31130X5.5914Y5.6884
N31140X5.5974Y5.7081
N31150X5.6041Y5.7273
N31160X5.6116Y5.7461
N31170X5.6197Y5.7643
N31180X5.6284Y5.7820
N31190X5.6378Y5.7991
N31200X5.6479Y5.8156
N31210X5.6585Y5.8315
N31220X5.6698Y5.8468
N31230X5.6816Y5.8614
N31240X5.6940Y5.8753
N31250X5.7070Y5.8885
N31260X5.7205Y5.9009
N31270X5.7345Y5.9125
N31280X5.7490Y5.9233
N31290X5.7639Y5.9332
N31300X5.7794Y5.9423
N31310X5.7953Y5.9504
N31320X5.8116Y5.9575
N31330X5.8283Y5.9637
N31340X5.8454Y5.9688
N31350X5.8628Y5.9728
N31360X5.8805Y5.9757
N31370X5.8985Y5.9775
N31380X5.9167Y5.9781
N31390X5.9349Y5.9775
N31400X5.9529Y5.9757
N31410X5.9706Y5.9728
N31420X5.9880Y5.9688
N31430X6.0050Y5.9637
N31440X6.0218Y5.9575
N31450X6.0381Y5.9504
N31460X6.0539Y5.9423
N31470X6.0694Y5.9332
N31480X6.0844Y5.9233
N31490X6.0989Y5.9125
N31500X6.1129Y5.9009
N31510X6.1264Y5.8885
N31520X6.1393Y5.8753
N31530X6.1517Y5.8614
N31540X6.1635Y5.8468
N31550X6.1748Y5.8315
N31560X6.1855Y5.8156
N31570X6.1955Y5.7991
N31580X6.2049Y5.7820
N31590X6.2137Y5.7643
N31600X6.2218Y5.7461
N31610X6.2292Y5.7273
N31620X6.2359Y5.7081
N31630X6.2419Y5.6884
N31640X6.2472Y5.6683
N31650X6.2517Y5.6478
N31660X6.2554Y5.6269
N31670X6.2584Y5.6057
N31680X6.2605Y5.5841
N31690X6.2613Y5.5713
N31700X6.4810
N31710G2X6.5122Y5.5401I0.0000J-0.0313
N31720G01Y5.0553
N31730Y4.8928
N31740Y3.0174
N31750Y2.8549
N31760Y2.5401
N31770G2X6.4810Y2.5088I-0.0313J0.0000
N31780G01X6.2613
N31790X6.2605Y2.4960
N31800X6.2584Y2.4744
N31810X6.2554Y2.4532
N31820X6.2517Y2.4323
N31830X6.2472Y2.4118
N31840X6.2419Y2.3917
N31850X6.2359Y2.3720
N31860X6.2292Y2.3528
N31870X6.2218Y2.3341
N31880X6.2137Y2.3159
N31890X6.2049Y2.2982
N31900X6.1955Y2.2811
N31910X6.1855Y2.2645
N31920X6.1748Y2.2486
N31930X6.1635Y2.2333
N31940X6.1517Y2.2187
N31950X6.1393Y2.2048
N31960X6.1264Y2.1917
N31970X6.1129Y2.1793
N31980X6.0989Y2.1676
N31990X6.0844Y2.1568
N32000X6.0694Y2.1469
N32010X6.0539Y2.1379
N32020X6.0381Y2.1298
N32030X6.0218Y2.1226
N32040X6.0050Y2.1165
N32050X5.9880Y2.1114
N32060X5.9706Y2.1073
N32070X5.9529Y2.1044
N32080X5.9349Y2.1027
N32090X5.9167Y2.1021
N32100X5.8985Y2.1027
N32110X5.8805Y2.1044
N32120X5.8628Y2.1073
N32130X5.8454Y2.1114
N32140X5.8283Y2.1165
N32150X5.8116Y2.1226
N32160X5.7953Y2.1298
N32170X5.7794Y2.1379
N32180X5.7639Y2.1469
N32190X5.7490Y2.1568
N32200X5.7345Y2.1676
N32210X5.7205Y2.1793
N32220X5.7070Y2.1917
N32230X5.6940Y2.2048
N32240X5.6816Y2.2187
N32250X5.6698Y2.2333
N32260X5.6585Y2.2486
N32270X5.6479Y2.2645
N32280X5.6378Y2.2811
N32290X5.6284Y2.2982
N32300X5.6197Y2.3159
N32310X5.6116Y2.3341
N32320X5.6041Y2.3528
N32330X5.5974Y2.3720
N32340X5.5914Y2.3917
N32350X5.5862Y2.4118
N32360X5.5816Y2.4323
N32370X5.5779Y2.4532
N32380X5.5750Y2.4744
N32390X5.5728Y2.4960
N32400X5.5721Y2.5088
N32410X4.2613
N32420X4.2605Y2.4960
N32430X4.2584Y2.4744
N32440X4.2554Y2.4532
N32450X4.2517Y2.4323
N32460X4.2472Y2.4118
N32470X4.2419Y2.3917
N32480X4.2359Y2.3720
N32490X4.2292Y2.3528
N32500X4.2218Y2.3341
N32510X4.2137Y2.3159
N32520X4.2049Y2.2982
N32530X4.1955Y2.2811
N32540X4.1854Y2.2645
N32550X4.1748Y2.2486
N32560X4.1635Y2.2333
N32570X4.1517Y2.2187
N32580X4.1393Y2.2048
N32590X4.1264Y2.1917
N32600X4.1129Y2.1793
N32610X4.0989Y2.1676
N32620X4.0844Y2.1568
N32630X4.0694Y2.1469
N32640X4.0539Y2.1379
N32650X4.0381Y2.1298
N32660X4.0217Y2.1226
N32670X4.0050Y2.1165
N32680X3.9880Y2.1114
N32690X3.9706Y2.1073
N32700X3.9529Y2.1044
N32710X3.9349Y2.1027
N32720X3.9167Y2.1021
N32730X3.8985Y2.1027
N32740X3.8805Y2.1044
N32750X3.8628Y2.1073
N32760X3.8454Y2.1114
N32770X3.8283Y2.1165
N32780X3.8116Y2.1226
N32790X3.7953Y2.1298
N32800X3.7794Y2.1379
N32810X3.7639Y2.1469
N32820X3.7490Y2.1568
N32830X3.7345Y2.1676
N32840X3.7205Y2.1793
N32850X3.7070Y2.1917
N32860X3.6940Y2.2048
N32870X3.6816Y2.2187
N32880X3.6698Y2.2333
N32890X3.6585Y2.2486
N32900X3.6479Y2.2645
N32910X3.6378Y2.2811
N32920X3.6284Y2.2982
N32930X3.6197Y2.3159
N32940X3.6116Y2.3341
N32950X3.6041Y2.3528
N32960X3.5974Y2.3720
N32970X3.5914Y2.3917
N32980X3.5862Y2.4118
N32990X3.5816Y2.4323
N33000X3.5779Y2.4532
N33010X3.5750Y2.4744
N33020X3.5728Y2.4960
N33030X3.5721Y2.5088
N33040X2.2613
N33050X2.2605Y2.4960
N33060X2.2584Y2.4744
N33070X2.2554Y2.4532
N33080X2.2517Y2.4323
N33090X2.2472Y2.4118
N33100X2.2419Y2.3917
N33110X2.2359Y2.3720
N33120X2.2292Y2.3528
N33130X2.2218Y2.3341
N33140X2.2137Y2.3159
N33150X2.2049Y2.2982
N33160X2.1955Y2.2811
N33170X2.1855Y2.2645
N33180X2.1748Y2.2486
N33190X2.1635Y2.2333
N33200X2.1517Y2.2187
N33210X2.1393Y2.2048
N33220X2.1264Y2.1917
N33230X2.1129Y2.1793
N33240X2.0989Y2.1676
N33250X2.0844Y2.1568
N33260X2.0694Y2.1469
N33270X2.0539Y2.1379
N33280X2.0381Y2.1298
N33290X2.0218Y2.1226
N33300X2.0050Y2.1165
N33310X1.9880Y2.1114
N33320X1.9706Y2.1073
N33330X1.9529Y2.1044
N33340X1.9349Y2.1027
N33350X1.9167Y2.1021
N33360X1.8985Y2.1027
N33370X1.8805Y2.1044
N33380X1.8628Y2.1073
N33390X1.8454Y2.1114
N33400X1.8283Y2.1165
N33410X1.8116Y2.1226
N33420X1.7953Y2.1298
N33430X1.7794Y2.1379
N33440X1.7639Y2.1469
N33450X1.7490Y2.1568
N33460X1.7345Y2.1676
N33470X1.7205Y2.1793
N33480X1.7070Y2.1917
N33490X1.6940Y2.2048
N33500X1.6816Y2.2187
N33510X1.6698Y2.2333
N33520X1.6585Y2.2486
N33530X1.6479Y2.2645
N33540X1.6378Y2.2811
N33550X1.6284Y2.2982
N33560X1.6197Y2.3159
N33570X1.6116Y2.3341
N33580X1.6041Y2.3528
N33590X1.5974Y2.3720
N33600X1.5914Y2.3917
N33610X1.5862Y2.4118
N33620X1.5816Y2.4323
N33630X1.5779Y2.4532
N33640X1.5750Y2.4744
N33650X1.5728Y2.4960
N33660X1.5721Y2.5088
N33670X1.3523
N33680G2X1.3211Y2.5401I0.0000J0.0313
N33690G01Y2.8599
N33700Y3.0224
N33710Y5.2098
N33720Y5.3723
N33730Y5.5401
N33740G2X1.3523Y5.5713I0.0313J0.0000
N33750G01Z-0.1000F15.0
N33760G01X1.5721F25.0
N33770X1.5728Y5.5841
N33780X1.5750Y5.6057
N33790X1.5779Y5.6269
N33800X1.5816Y5.6478
N33810X1.5862Y5.6683
N33820X1.5914Y5.6884
N33830X1.5974Y5.7081
N33840X1.6041Y5.7273
N33850X1.6116Y5.7461
N33860X1.6197Y5.7643
N33870X1.6284Y5.7820
N33880X1.6378Y5.7991
N33890X1.6479Y5.8156
N33900X1.6585Y5.8315
N33910X1.6698Y5.8468
N33920X1.6816Y5.8614
N33930X1.6940Y5.8753
N33940X1.7070Y5.8885
N33950X1.7205Y5.9009
N33960X1.7345Y5.9125
N33970X1.7490Y5.9233
N33980X1.7639Y5.9332
N33990X1.7794Y5.9423
N34000X1.7953Y5.9504
N34010X1.8116Y5.9575
N34020X1.8283Y5.9637
N34030X1.8454Y5.9688
N34040X1.8628Y5.9728
N34050X1.8805Y5.9757
N34060X1.8985Y5.9775
N34070X1.9167Y5.9781
N34080X1.9349Y5.9775
N34090X1.9529Y5.9757
N34100X1.9706Y5.9728
N34110X1.9880Y5.9688
N34120X2.0050Y5.9637
N34130X2.0218Y5.9575
N34140X2.0381Y5.9504
N34150X2.0539Y5.9423
N34160X2.0694Y5.9332
N34170X2.0844Y5.9233
N34180X2.0989Y5.9125
N34190X2.1129Y5.9009
N34200X2.1264Y5.8885
N34210X2.1393Y5.8753
N34220X2.1517Y5.8614
N34230X2.1635Y5.8468
N34240X2.1748Y5.8315
N34250X2.1855Y5.8156
N34260X2.1955Y5.7991
N34270X2.2049Y5.7820
N34280X2.2137Y5.7643
N34290X2.2218Y5.7461
N34300X2.2292Y5.7273
N34310X2.2359Y5.7081
N34320X2.2419Y5.6884
N34330X2.2472Y5.6683
N34340X2.2517Y5.6478
N34350X2.2554Y5.6269
N34360X2.2584Y5.6057
N34370X2.2605Y5.5841
N34380X2.2613Y5.5713
N34390X3.5721
N34400X3.5728Y5.5841
N34410X3.5750Y5.6057
N34420X3.5779Y5.6269
N34430X3.5816Y5.6478
N34440X3.5862Y5.6683
N34450X3.5914Y5.6884
N34460X3.5974Y5.7081
N34470X3.6041Y5.7273
N34480X3.6116Y5.7461
N34490X3.6197Y5.7643
N34500X3.6284Y5.7820
N34510X3.6378Y5.7991
N34520X3.6479Y5.8156
N34530X3.6585Y5.8315
N34540X3.6698Y5.8468
N34550X3.6816Y5.8614
N34560X3.6940Y5.8753
N34570X3.7070Y5.8885
N34580X3.7205Y5.9009
N34590X3.7345Y5.9125
N34600X3.7490Y5.9233
N34610X3.7639Y5.9332
N34620X3.7794Y5.9423
N34630X3.7953Y5.9504
N34640X3.8116Y5.9575
N34650X3.8283Y5.9637
N34660X3.8454Y5.9688
N34670X3.8628Y5.9728
N34680X3.8805Y5.9757
N34690X3.8985Y5.9775
N34700X3.9167Y5.9781
N34710X3.9349Y5.9775
N34720X3.9529Y5.9757
N34730X3.9706Y5.9728
N34740X3.9880Y5.9688
N34750X4.0050Y5.9637
N34760X4.0217Y5.9575
N34770X4.0381Y5.9504
N34780X4.0539Y5.9423
N34790X4.0694Y5.9332
N34800X4.0844Y5.9233
N34810X4.0989Y5.9125
N34820X4.1129Y5.9009
N34830X4.1264Y5.8885
N34840X4.1393Y5.8753
N34850X4.1517Y5.8614
N34860X4.1635Y5.8468
N34870X4.1748Y5.8315
N34880X4.1854Y5.8156
N34890X4.1955Y5.7991
N34900X4.2049Y5.7820
N34910X4.2137Y5.7643
N34920X4.2218Y5.7461
N34930X4.2292Y5.7273
N34940X4.2359Y5.7081
N34950X4.2419Y5.6884
N34960X4.2472Y5.6683
N34970X4.2517Y5.6478
N34980X4.2554Y5.6269
N34990X4.2584Y5.6057
N35000X4.2605Y5.5841
N35010X4.2613Y5.5713
N35020X5.5721
N35030X5.5728Y5.5841
N35040X5.5750Y5.6057
N35050X5.5779Y5.6269
N35060X5.5816Y5.6478
N35070X5.5862Y5.6683
N35080X5.5914Y5.6884
N35090X5.5974Y5.7081
N35100X5.6041Y5.7273
N35110X5.6116Y5.7461
N35120X5.6197Y5.7643
N35130X5.6284Y5.7820
N35140X5.6378Y5.7991
N35150X5.6479Y5.8156
N35160X5.6585Y5.8315
N35170X5.6698Y5.8468
N35180X5.6816Y5.8614
N35190X5.6940Y5.8753
N35200X5.7070Y5.8885
N35210X5.7205Y5.9009
N35220X5.7345Y5.9125
N35230X5.7490Y5.9233
N35240X5.7639Y5.9332
N35250X5.7794Y5.9423
N35260X5.7953Y5.9504
N35270X5.8116Y5.9575
N35280X5.8283Y5.9637
N35290X5.8454Y5.9688
N35300X5.8628Y5.9728
N35310X5.8805Y5.9757
N35320X5.8985Y5.9775
N35330X5.9167Y5.9781
N35340X5.9349Y5.9775
N35350X5.9529Y5.9757
N35360X5.9706Y5.9728
N35370X5.9880Y5.9688
N35380X6.0050Y5.9637
N35390X6.0218Y5.9575
N35400X6.0381Y5.9504
N35410X6.0539Y5.9423
N35420X6.0694Y5.9332
N35430X6.0844Y5.9233
N35440X6.0989Y5.9125
N35450X6.1129Y5.9009
N35460X6.1264Y5.8885
N35470X6.1393Y5.8753
N35480X6.1517Y5.8614
N35490X6.1635Y5.8468
N35500X6.1748Y5.8315
N35510X6.1855Y5.8156
N35520X6.1955Y5.7991
N35530X6.2049Y5.7820
N35540X6.2137Y5.7643
N35550X6.2218Y5.7461
N35560X6.2292Y5.7273
N35570X6.2359Y5.7081
N35580X6.2419Y5.6884
N35590X6.2472Y5.6683
N35600X6.2517Y5.6478
N35610X6.2554Y5.6269
N35620X6.2584Y5.6057
N35630X6.2605Y5.5841
N35640X6.2613Y5.5713
N35650X6.4810
N35660G2X6.5122Y5.5401I0.0000J-0.0313
N35670G01Y5.0553
N35680Z-0.0750
N35690Y4.8928
N35700G01Z-0.1000F15.0
N35710G01Y3.0174F25.0
N35720Z-0.0750
N35730Y2.8549
N35740G01Z-0.1000F15.0
N35750G01Y2.5401F25.0
N35760G2X6.4810Y2.5088I-0.0313J0.0000
N35770G01X6.2613
N35780X6.2605Y2.4960
N35790X6.2584Y2.4744
N35800X6.2554Y2.4532
N35810X6.2517Y2.4323
N35820X6.2472Y2.4118
N35830X6.2419Y2.3917
N35840X6.2359Y2.3720
N35850X6.2292Y2.3528
N35860X6.2218Y2.3341
N35870X6.2137Y2.3159
N35880X6.2049Y2.2982
N35890X6.1955Y2.2811
N35900X6.1855Y2.2645
N35910X6.1748Y2.2486
N35920X6.1635Y2.2333
N35930X6.1517Y2.2187
N35940X6.1393Y2.2048
N35950X6.1264Y2.1917
N35960X6.1129Y2.1793
N35970X6.0989Y2.1676
N35980X6.0844Y2.1568
N35990X6.0694Y2.1469
N36000X6.0539Y2.1379
N36010X6.0381Y2.1298
N36020X6.0218Y2.1226
N36030X6.0050Y2.1165
N36040X5.9880Y2.1114
N36050X5.9706Y2.1073
N36060X5.9529Y2.1044
N36070X5.9349Y2.1027
N36080X5.9167Y2.1021
N36090X5.8985Y2.1027
N36100X5.8805Y2.1044
N36110X5.8628Y2.1073
N36120X5.8454Y2.1114
N36130X5.8283Y2.1165
N36140X5.8116Y2.1226
N36150X5.7953Y2.1298
N36160X5.7794Y2.1379
N36170X5.7639Y2.1469
N36180X5.7490Y2.1568
N36190X5.7345Y2.1676
N36200X5.7205Y2.1793
N36210X5.7070Y2.1917
N36220X5.6940Y2.2048
N36230X5.6816Y2.2187
N36240X5.6698Y2.2333
N36250X5.6585Y2.2486
N36260X5.6479Y2.2645
N36270X5.6378Y2.2811
N36280X5.6284Y2.2982
N36290X5.6197Y2.3159
N36300X5.6116Y2.3341
N36310X5.6041Y2.3528
N36320X5.5974Y2.3720
N36330X5.5914Y2.3917
N36340X5.5862Y2.4118
N36350X5.5816Y2.4323
N36360X5.5779Y2.4532
N36370X5.5750Y2.4744
N36380X5.5728Y2.4960
N36390X5.5721Y2.5088
N36400X4.2613
N36410X4.2605Y2.4960
N36420X4.2584Y2.4744
N36430X4.2554Y2.4532
N36440X4.2517Y2.4323
N36450X4.2472Y2.4118
N36460X4.2419Y2.3917
N36470X4.2359Y2.3720
N36480X4.2292Y2.3528
N36490X4.2218Y2.3341
N36500X4.2137Y2.3159
N36510X4.2049Y2.2982
N36520X4.1955Y2.2811
N36530X4.1854Y2.2645
N36540X4.1748Y2.2486
N36550X4.1635Y2.2333
N36560X4.1517Y2.2187
N36570X4.1393Y2.2048
N36580X4.1264Y2.1917
N36590X4.1129Y2.1793
N36600X4.0989Y2.1676
N36610X4.0844Y2.1568
N36620X4.0694Y2.1469
N36630X4.0539Y2.1379
N36640X4.0381Y2.1298
N36650X4.0217Y2.1226
N36660X4.0050Y2.1165
N36670X3.9880Y2.1114
N36680X3.9706Y2.1073
N36690X3.9529Y2.1044
N36700X3.9349Y2.1027
N36710X3.9167Y2.1021
N36720X3.8985Y2.1027
N36730X3.8805Y2.1044
N36740X3.8628Y2.1073
N36750X3.8454Y2.1114
N36760X3.8283Y2.1165
N36770X3.8116Y2.1226
N36780X3.7953Y2.1298
N36790X3.7794Y2.1379
N36800X3.7639Y2.1469
N36810X3.7490Y2.1568
N36820X3.7345Y2.1676
N36830X3.7205Y2.1793
N36840X3.7070Y2.1917
N36850X3.6940Y2.2048
N36860X3.6816Y2.2187
N36870X3.6698Y2.2333
N36880X3.6585Y2.2486
N36890X3.6479Y2.2645
N36900X3.6378Y2.2811
N36910X3.6284Y2.2982
N36920X3.6197Y2.3159
N36930X3.6116Y2.3341
N36940X3.6041Y2.3528
N36950X3.5974Y2.3720
N36960X3.5914Y2.3917
N36970X3.5862Y2.4118
N36980X3.5816Y2.4323
N36990X3.5779Y2.4532
N37000X3.5750Y2.4744
N37010X3.5728Y2.4960
N37020X3.5721Y2.5088
N37030X2.2613
N37040X2.2605Y2.4960
N37050X2.2584Y2.4744
N37060X2.2554Y2.4532
N37070X2.2517Y2.4323
N37080X2.2472Y2.4118
N37090X2.2419Y2.3917
N37100X2.2359Y2.3720
N37110X2.2292Y2.3528
N37120X2.2218Y2.3341
N37130X2.2137Y2.3159
N37140X2.2049Y2.2982
N37150X2.1955Y2.2811
N37160X2.1855Y2.2645
N37170X2.1748Y2.2486
N37180X2.1635Y2.2333
N37190X2.1517Y2.2187
N37200X2.1393Y2.2048
N37210X2.1264Y2.1917
N37220X2.1129Y2.1793
N37230X2.0989Y2.1676
N37240X2.0844Y2.1568
N37250X2.0694Y2.1469
N37260X2.0539Y2.1379
N37270X2.0381Y2.1298
N37280X2.0218Y2.1226
N37290X2.0050Y2.1165
N37300X1.9880Y2.1114
N37310X1.9706Y2.1073
N37320X1.9529Y2.1044
N37330X1.9349Y2.1027
N37340X1.9167Y2.1021
N37350X1.8985Y2.1027
N37360X1.8805Y2.1044
N37370X1.8628Y2.1073
N37380X1.8454Y2.1114
N37390X1.8283Y2.1165
N37400X1.8116Y2.1226
N37410X1.7953Y2.1298
N37420X1.7794Y2.1379
N37430X1.7639Y2.1469
N37440X1.7490Y2.1568
N37450X1.7345Y2.1676
N37460X1.7205Y2.1793
N37470X1.7070Y2.1917
N37480X1.6940Y2.2048
N37490X1.6816Y2.2187
N37500X1.6698Y2.2333
N37510X1.6585Y2.2486
N37520X1.6479Y2.2645
N37530X1.6378Y2.2811
N37540X1.6284Y2.2982
N37550X1.6197Y2.3159
N37560X1.6116Y2.3341
N37570X1.6041Y2.3528
N37580X1.5974Y2.3720
N37590X1.5914Y2.3917
N37600X1.5862Y2.4118
N37610X1.5816Y2.4323
N37620X1.5779Y2.4532
N37630X1.5750Y2.4744
N37640X1.5728Y2.4960
N37650X1.5721Y2.5088
N37660X1.3523
N37670G2X1.3211Y2.5401I0.0000J0.0313
N37680G01Y2.8599
N37690Z-0.0750
N37700Y3.0224
N37710G01Z-0.1000F15.0
N37720G01Y5.2098F25.0
N37730Z-0.0750
N37740Y5.3723
N37750G01Z-0.1000F15.0
N37760G01Y5.5401F25.0
N37770G2X1.3523Y5.5713I0.0313J0.0000
N37780G01Z-0.1500F15.0
N37790G01X1.5721F25.0
N37800X1.5728Y5.5841
N37810X1.5750Y5.6057
N37820X1.5779Y5.6269
N37830X1.5816Y5.6478
N37840X1.5862Y5.6683
N37850X1.5914Y5.6884
N37860X1.5974Y5.7081
N37870X1.6041Y5.7273
N37880X1.6116Y5.7461
N37890X1.6197Y5.7643
N37900X1.6284Y5.7820
N37910X1.6378Y5.7991
N37920X1.6479Y5.8156
N37930X1.6585Y5.8315
N37940X1.6698Y5.8468
N37950X1.6816Y5.8614
N37960X1.6940Y5.8753
N37970X1.7070Y5.8885
N37980X1.7205Y5.9009
N37990X1.7345Y5.9125
N38000X1.7490Y5.9233
N38010X1.7639Y5.9332
N38020X1.7794Y5.9423
N38030X1.7953Y5.9504
N38040X1.8116Y5.9575
N38050X1.8283Y5.9637
N38060X1.8454Y5.9688
N38070X1.8628Y5.9728
N38080X1.8805Y5.9757
N38090X1.8985Y5.9775
N38100X1.9167Y5.9781
N38110X1.9349Y5.9775
N38120X1.9529Y5.9757
N38130X1.9706Y5.9728
N38140X1.9880Y5.9688
N38150X2.0050Y5.9637
N38160X2.0218Y5.9575
N38170X2.0381Y5.9504
N38180X2.0539Y5.9423
N38190X2.0694Y5.9332
N38200X2.0844Y5.9233
N38210X2.0989Y5.9125
N38220X2.1129Y5.9009
N38230X2.1264Y5.8885
N38240X2.1393Y5.8753
N38250X2.1517Y5.8614
N38260X2.1635Y5.8468
N38270X2.1748Y5.8315
N38280X2.1855Y5.8156
N38290X2.1955Y5.7991
N38300X2.2049Y5.7820
N38310X2.2137Y5.7643
N38320X2.2218Y5.7461
N38330X2.2292Y5.7273
N38340X2.2359Y5.7081
N38350X2.2419Y5.6884
N38360X2.2472Y5.6683
N38370X2.2517Y5.6478
N38380X2.2554Y5.6269
N38390X2.2584Y5.6057
N38400X2.2605Y5.5841
N38410X2.2613Y5.5713
N38420X3.5721
N38430X3.5728Y5.5841
N38440X3.5750Y5.6057
N38450X3.5779Y5.6269
N38460X3.5816Y5.6478
N38470X3.5862Y5.6683
N38480X3.5914Y5.6884
N38490X3.5974Y5.7081
N38500X3.6041Y5.7273
N38510X3.6116Y5.7461
N38520X3.6197Y5.7643
N38530X3.6284Y5.7820
N38540X3.6378Y5.7991
N38550X3.6479Y5.8156
N38560X3.6585Y5.8315
N38570X3.6698Y5.8468
N38580X3.6816Y5.8614
N38590X3.6940Y5.8753
N38600X3.7070Y5.8885
N38610X3.7205Y5.9009
N38620X3.7345Y5.9125
N38630X3.7490Y5.9233
N38640X3.7639Y5.9332
N38650X3.7794Y5.9423
N38660X3.7953Y5.9504
N38670X3.8116Y5.9575
N38680X3.8283Y5.9637
N38690X3.8454Y5.9688
N38700X3.8628Y5.9728
N38710X3.8805Y5.9757
N38720X3.8985Y5.9775
N38730X3.9167Y5.9781
N38740X3.9349Y5.9775
N38750X3.9529Y5.9757
N38760X3.9706Y5.9728
N38770X3.9880Y5.9688
N38780X4.0050Y5.9637
N38790X4.0217Y5.9575
N38800X4.0381Y5.9504
N38810X4.0539Y5.9423
N38820X4.0694Y5.9332
N38830X4.0844Y5.9233
N38840X4.0989Y5.9125
N38850X4.1129Y5.9009
N38860X4.1264Y5.8885
N38870X4.1393Y5.8753
N38880X4.1517Y5.8614
N38890X4.1635Y5.8468
N38900X4.1748Y5.8315
N38910X4.1854Y5.8156
N38920X4.1955Y5.7991
N38930X4.2049Y5.7820
N38940X4.2137Y5.7643
N38950X4.2218Y5.7461
N38960X4.2292Y5.7273
N38970X4.2359Y5.7081
N38980X4.2419Y5.6884
N38990X4.2472Y5.6683
N39000X4.2517Y5.6478
N39010X4.2554Y5.6269
N39020X4.2584Y5.6057
N39030X4.2605Y5.5841
N39040X4.2613Y5.5713
N39050X5.5721
N39060X5.5728Y5.5841
N39070X5.5750Y5.6057
N39080X5.5779Y5.6269
N39090X5.5816Y5.6478
N39100X5.5862Y5.6683
N39110X5.5914Y5.6884
N39120X5.5974Y5.7081
N39130X5.6041Y5.7273
N39140X5.6116Y5.7461
N39150X5.6197Y5.7643
N39160X5.6284Y5.7820
N39170X5.6378Y5.7991
N39180X5.6479Y5.8156
N39190X5.6585Y5.8315
N39200X5.6698Y5.8468
N39210X5.6816Y5.8614
N39220X5.6940Y5.8753
N39230X5.7070Y5.8885
N39240X5.7205Y5.9009
N39250X5.7345Y5.9125
N39260X5.7490Y5.9233
N39270X5.7639Y5.9332
N39280X5.7794Y5.9423
N39290X5.7953Y5.9504
N39300X5.8116Y5.9575
N39310X5.8283Y5.9637
N39320X5.8454Y5.9688
N39330X5.8628Y5.9728
N39340X5.8805Y5.9757
N39350X5.8985Y5.9775
N39360X5.9167Y5.9781
N39370X5.9349Y5.9775
N39380X5.9529Y5.9757
N39390X5.9706Y5.9728
N39400X5.9880Y5.9688
N39410X6.0050Y5.9637
N39420X6.0218Y5.9575
N39430X6.0381Y5.9504
N39440X6.0539Y5.9423
N39450X6.0694Y5.9332
N39460X6.0844Y5.9233
N39470X6.0989Y5.9125
N39480X6.1129Y5.9009
N39490X6.1264Y5.8885
N39500X6.1393Y5.8753
N39510X6.1517Y5.8614
N39520X6.1635Y5.8468
N39530X6.1748Y5.8315
N39540X6.1855Y5.8156
N39550X6.1955Y5.7991
N39560X6.2049Y5.7820
N39570X6.2137Y5.7643
N39580X6.2218Y5.7461
N39590X6.2292Y5.7273
N39600X6.2359Y5.7081
N39610X6.2419Y5.6884
N39620X6.2472Y5.6683
N39630X6.2517Y5.6478
N39640X6.2554Y5.6269
N39650X6.2584Y5.6057
N39660X6.2605Y5.5841
N39670X6.2613Y5.5713
N39680X6.4810
N39690G2X6.5122Y5.5401I0.0000J-0.0313
N39700G01Y5.0553
N39710Z-0.0750
N39720Y4.8928
N39730G01Z-0.1500F15.0
N39740G01Y3.0174F25.0
N39750Z-0.0750
N39760Y2.8549
N39770G01Z-0.1500F15.0
N39780G01Y2.5401F25.0
N39790G2X6.4810Y2.5088I-0.0313J0.0000
N39800G01X6.2613
N39810X6.2605Y2.4960
N39820X6.2584Y2.4744
N39830X6.2554Y2.4532
N39840X6.2517Y2.4323
N39850X6.2472Y2.4118
N39860X6.2419Y2.3917
N39870X6.2359Y2.3720
N39880X6.2292Y2.3528
N39890X6.2218Y2.3341
N39900X6.2137Y2.3159
N39910X6.2049Y2.2982
N39920X6.1955Y2.2811
N39930X6.1855Y2.2645
N39940X6.1748Y2.2486
N39950X6.1635Y2.2333
N39960X6.1517Y2.2187
N39970X6.1393Y2.2048
N39980X6.1264Y2.1917
N39990X6.1129Y2.1793
N40000X6.0989Y2.1676
N40010X6.0844Y2.1568
N40020X6.0694Y2.1469
N40030X6.0539Y2.1379
N40040X6.0381Y2.1298
N40050X6.0218Y2.1226
N40060X6.0050Y2.1165
N40070X5.9880Y2.1114
N40080X5.9706Y2.1073
N40090X5.9529Y2.1044
N40100X5.9349Y2.1027
N40110X5.9167Y2.1021
N40120X5.8985Y2.1027
N40130X5.8805Y2.1044
N40140X5.8628Y2.1073
N40150X5.8454Y2.1114
N40160X5.8283Y2.1165
N40170X5.8116Y2.1226
N40180X5.7953Y2.1298
N40190X5.7794Y2.1379
N40200X5.7639Y2.1469
N40210X5.7490Y2.1568
N40220X5.7345Y2.1676
N40230X5.7205Y2.1793
N40240X5.7070Y2.1917
N40250X5.6940Y2.2048
N40260X5.6816Y2.2187
N40270X5.6698Y2.2333
N40280X5.6585Y2.2486
N40290X5.6479Y2.2645
N40300X5.6378Y2.2811
N40310X5.6284Y2.2982
N40320X5.6197Y2.3159
N40330X5.6116Y2.3341
N40340X5.6041Y2.3528
N40350X5.5974Y2.3720
N40360X5.5914Y2.3917
N40370X5.5862Y2.4118
N40380X5.5816Y2.4323
N40390X5.5779Y2.4532
N40400X5.5750Y2.4744
N40410X5.5728Y2.4960
N40420X5.5721Y2.5088
N40430X4.2613
N40440X4.2605Y2.4960
N40450X4.2584Y2.4744
N40460X4.2554Y2.4532
N40470X4.2517Y2.4323
N40480X4.2472Y2.4118
N40490X4.2419Y2.3917
N40500X4.2359Y2.3720
N40510X4.2292Y2.3528
N40520X4.2218Y2.3341
N40530X4.2137Y2.3159
N40540X4.2049Y2.2982
N40550X4.1955Y2.2811
N40560X4.1854Y2.2645
N40570X4.1748Y2.2486
N40580X4.1635Y2.2333
N40590X4.1517Y2.2187
N40600X4.1393Y2.2048
N40610X4.1264Y2.1917
N40620X4.1129Y2.1793
N40630X4.0989Y2.1676
N40640X4.0844Y2.1568
N40650X4.0694Y2.1469
N40660X4.0539Y2.1379
N40670X4.0381Y2.1298
N40680X4.0217Y2.1226
N40690X4.0050Y2.1165
N40700X3.9880Y2.1114
N40710X3.9706Y2.1073
N40720X3.9529Y2.1044
N40730X3.9349Y2.1027
N40740X3.9167Y2.1021
N40750X3.8985Y2.1027
N40760X3.8805Y2.1044
N40770X3.8628Y2.1073
N40780X3.8454Y2.1114
N40790X3.8283Y2.1165
N40800X3.8116Y2.1226
N40810X3.7953Y2.1298
N40820X3.7794Y2.1379
N40830X3.7639Y2.1469
N40840X3.7490Y2.1568
N40850X3.7345Y2.1676
N40860X3.7205Y2.1793
N40870X3.7070Y2.1917
N40880X3.6940Y2.2048
N40890X3.6816Y2.2187
N40900X3.6698Y2.2333
N40910X3.6585Y2.2486
N40920X3.6479Y2.2645
N40930X3.6378Y2.2811
N40940X3.6284Y2.2982
N40950X3.6197Y2.3159
N40960X3.6116Y2.3341
N40970X3.6041Y2.3528
N40980X3.5974Y2.3720
N40990X3.5914Y2.3917
N41000X3.5862Y2.4118
N41010X3.5816Y2.4323
N41020X3.5779Y2.4532
N41030X3.5750Y2.4744
N41040X3.5728Y2.4960
N41050X3.5721Y2.5088
N41060X2.2613
N41070X2.2605Y2.4960
N41080X2.2584Y2.4744
N41090X2.2554Y2.4532
N41100X2.2517Y2.4323
N41110X2.2472Y2.4118
N41120X2.2419Y2.3917
N41130X2.2359Y2.3720
N41140X2.2292Y2.3528
N41150X2.2218Y2.3341
N41160X2.2137Y2.3159
N41170X2.2049Y2.2982
N41180X2.1955Y2.2811
N41190X2.1855Y2.2645
N41200X2.1748Y2.2486
N41210X2.1635Y2.2333
N41220X2.1517Y2.2187
N41230X2.1393Y2.2048
N41240X2.1264Y2.1917
N41250X2.1129Y2.1793
N41260X2.0989Y2.1676
N41270X2.0844Y2.1568
N41280X2.0694Y2.1469
N41290X2.0539Y2.1379
N41300X2.0381Y2.1298
N41310X2.0218Y2.1226
N41320X2.0050Y2.1165
N41330X1.9880Y2.1114
N41340X1.9706Y2.1073
N41350X1.9529Y2.1044
N41360X1.9349Y2.1027
N41370X1.9167Y2.1021
N41380X1.8985Y2.1027
N41390X1.8805Y2.1044
N41400X1.8628Y2.1073
N41410X1.8454Y2.1114
N41420X1.8283Y2.1165
N41430X1.8116Y2.1226
N41440X1.7953Y2.1298
N41450X1.7794Y2.1379
N41460X1.7639Y2.1469
N41470X1.7490Y2.1568
N41480X1.7345Y2.1676
N41490X1.7205Y2.1793
N41500X1.7070Y2.1917
N41510X1.6940Y2.2048
N41520X1.6816Y2.2187
N41530X1.6698Y2.2333
N41540X1.6585Y2.2486
N41550X1.6479Y2.2645
N41560X1.6378Y2.2811
N41570X1.6284Y2.2982
N41580X1.6197Y2.3159
N41590X1.6116Y2.3341
N41600X1.6041Y2.3528
N41610X1.5974Y2.3720
N41620X1.5914Y2.3917
N41630X1.5862Y2.4118
N41640X1.5816Y2.4323
N41650X1.5779Y2.4532
N41660X1.5750Y2.4744
N41670X1.5728Y2.4960
N41680X1.5721Y2.5088
N41690X1.3523
N41700G2X1.3211Y2.5401I0.0000J0.0313
N41710G01Y2.8599
N41720Z-0.0750
N41730Y3.0224
N41740G01Z-0.1500F15.0
N41750G01Y5.2098F25.0
N41760Z-0.0750
N41770Y5.3723
N41780G01Z-0.1500F15.0
N41790G01Y5.5401F25.0
N41800G2X1.3523Y5.5713I0.0313J0.0000
N41810G00Z0.2500
N41820G00Z3.0000
N41830G00X0.0000Y8.0000
N41840M09
N41850M30
%
