( Inside Cuts )
( Mach2/3 Postprocessor )
N20G00G20G17G20G90G40G49G80
N30G70
N40T4M06
N50G00G43Z3.0000H4
N60S12000M03
N70G94
N80X0.0000Y8.0000F25.0
N90G00X1.9837Y4.5747Z0.2500
N100G01Z-0.0500F15.0
N110G01X1.9677Y4.5739F25.0
N120X1.9522Y4.5715
N130X1.9372Y4.5677
N140X1.9229Y4.5624
N150X1.9093Y4.5559
N160X1.8964Y4.5480
N170X1.8844Y4.5390
N180X1.8732Y4.5289
N190X1.8632Y4.5178
N200X1.8542Y4.5058
N210X1.8463Y4.4929
N220X1.8398Y4.4793
N230X1.8345Y4.4650
N240X1.8307Y4.4500
N250X1.8283Y4.4345
N260X1.8275Y4.4185
N270X1.8283Y4.4025
N280X1.8307Y4.3870
N290X1.8345Y4.3720
N300X1.8398Y4.3577
N310X1.8463Y4.3440
N320X1.8542Y4.3312
N330X1.8632Y4.3191
N340X1.8732Y4.3080
N350X1.8844Y4.2979
N360X1.8964Y4.2889
N370X1.9093Y4.2811
N380X1.9229Y4.2745
N390X1.9372Y4.2693
N400X1.9522Y4.2655
N410X1.9677Y4.2631
N420X1.9837Y4.2623
N430X1.9997Y4.2631
N440X2.0152Y4.2655
N450X2.0302Y4.2693
N460X2.0445Y4.2745
N470X2.0582Y4.2811
N480X2.0710Y4.2889
N490X2.0831Y4.2979
N500X2.0942Y4.3080
N510X2.1043Y4.3191
N520X2.1133Y4.3312
N530X2.1211Y4.3440
N540X2.1277Y4.3577
N550X2.1329Y4.3720
N560X2.1367Y4.3870
N570X2.1391Y4.4025
N580X2.1399Y4.4185
N590X2.1391Y4.4345
N600X2.1367Y4.4500
N610X2.1329Y4.4650
N620X2.1277Y4.4793
N630X2.1211Y4.4929
N640X2.1133Y4.5058
N650X2.1043Y4.5178
N660X2.0942Y4.5289
N670X2.0831Y4.5390
N680X2.0710Y4.5480
N690X2.0582Y4.5559
N700X2.0445Y4.5624
N710X2.0302Y4.5677
N720X2.0152Y4.5715
N730X1.9997Y4.5739
N740X1.9837Y4.5747
N750G01Z-0.1000F15.0
N760G01X1.9677Y4.5739F25.0
N770X1.9522Y4.5715
N780X1.9372Y4.5677
N790X1.9229Y4.5624
N800X1.9093Y4.5559
N810X1.8964Y4.5480
N820X1.8844Y4.5390
N830X1.8732Y4.5289
N840X1.8632Y4.5178
N850X1.8542Y4.5058
N860X1.8463Y4.4929
N870X1.8398Y4.4793
N880X1.8345Y4.4650
N890X1.8307Y4.4500
N900X1.8283Y4.4345
N910X1.8275Y4.4185
N920X1.8283Y4.4025
N930X1.8307Y4.3870
N940X1.8345Y4.3720
N950X1.8398Y4.3577
N960X1.8463Y4.3440
N970X1.8542Y4.3312
N980X1.8632Y4.3191
N990X1.8732Y4.3080
N1000X1.8844Y4.2979
N1010X1.8964Y4.2889
N1020X1.9093Y4.2811
N1030X1.9229Y4.2745
N1040X1.9372Y4.2693
N1050X1.9522Y4.2655
N1060X1.9677Y4.2631
N1070X1.9837Y4.2623
N1080X1.9997Y4.2631
N1090X2.0152Y4.2655
N1100X2.0302Y4.2693
N1110X2.0445Y4.2745
N1120X2.0582Y4.2811
N1130X2.0710Y4.2889
N1140X2.0831Y4.2979
N1150X2.0942Y4.3080
N1160X2.1043Y4.3191
N1170X2.1133Y4.3312
N1180X2.1211Y4.3440
N1190X2.1277Y4.3577
N1200X2.1329Y4.3720
N1210X2.1367Y4.3870
N1220X2.1391Y4.4025
N1230X2.1399Y4.4185
N1240X2.1391Y4.4345
N1250X2.1367Y4.4500
N1260X2.1329Y4.4650
N1270X2.1277Y4.4793
N1280X2.1211Y4.4929
N1290X2.1133Y4.5058
N1300X2.1043Y4.5178
N1310X2.0942Y4.5289
N1320X2.0831Y4.5390
N1330X2.0710Y4.5480
N1340X2.0582Y4.5559
N1350X2.0445Y4.5624
N1360X2.0302Y4.5677
N1370X2.0152Y4.5715
N1380X1.9997Y4.5739
N1390X1.9837Y4.5747
N1400G01Z-0.1500F15.0
N1410G01X1.9677Y4.5739F25.0
N1420X1.9522Y4.5715
N1430X1.9372Y4.5677
N1440X1.9229Y4.5624
N1450X1.9093Y4.5559
N1460X1.8964Y4.5480
N1470X1.8844Y4.5390
N1480X1.8732Y4.5289
N1490X1.8632Y4.5178
N1500X1.8542Y4.5058
N1510X1.8463Y4.4929
N1520X1.8398Y4.4793
N1530X1.8345Y4.4650
N1540X1.8307Y4.4500
N1550X1.8283Y4.4345
N1560X1.8275Y4.4185
N1570X1.8283Y4.4025
N1580X1.8307Y4.3870
N1590X1.8345Y4.3720
N1600X1.8398Y4.3577
N1610X1.8463Y4.3440
N1620X1.8542Y4.3312
N1630X1.8632Y4.3191
N1640X1.8732Y4.3080
N1650X1.8844Y4.2979
N1660X1.8964Y4.2889
N1670X1.9093Y4.2811
N1680X1.9229Y4.2745
N1690X1.9372Y4.2693
N1700X1.9522Y4.2655
N1710X1.9677Y4.2631
N1720X1.9837Y4.2623
N1730X1.9997Y4.2631
N1740X2.0152Y4.2655
N1750X2.0302Y4.2693
N1760X2.0445Y4.2745
N1770X2.0582Y4.2811
N1780X2.0710Y4.2889
N1790X2.0831Y4.2979
N1800X2.0942Y4.3080
N1810X2.1043Y4.3191
N1820X2.1133Y4.3312
N1830X2.1211Y4.3440
N1840X2.1277Y4.3577
N1850X2.1329Y4.3720
N1860X2.1367Y4.3870
N1870X2.1391Y4.4025
N1880X2.1399Y4.4185
N1890X2.1391Y4.4345
N1900X2.1367Y4.4500
N1910X2.1329Y4.4650
N1920X2.1277Y4.4793
N1930X2.1211Y4.4929
N1940X2.1133Y4.5058
N1950X2.1043Y4.5178
N1960X2.0942Y4.5289
N1970X2.0831Y4.5390
N1980X2.0710Y4.5480
N1990X2.0582Y4.5559
N2000X2.0445Y4.5624
N2010X2.0302Y4.5677
N2020X2.0152Y4.5715
N2030X1.9997Y4.5739
N2040X1.9837Y4.5747
N2050G00Z0.2500
N2060G00X2.4744Y4.8519
N2070G01Z-0.0500F15.0
N2080G01X3.0569F25.0
N2090Y4.9244
N2100X2.4744
N2110Y4.8519
N2120G01Z-0.1000F15.0
N2130G01X3.0569F25.0
N2140Y4.9244
N2150X2.4744
N2160Y4.8519
N2170G01Z-0.1500F15.0
N2180G01X3.0569F25.0
N2190Y4.9244
N2200X2.4744
N2210Y4.8519
N2220G00Z0.2500
N2230G00X2.8325Y4.7511
N2240G01Z-0.0500F15.0
N2250G01X2.6987F25.0
N2260X2.6369Y4.6879
N2270Y4.5665
N2280Y4.4080
N2290X2.8958
N2300Y4.5665
N2310Y4.6864
N2320X2.8325Y4.7511
N2330G01Z-0.1000F15.0
N2340G01X2.6987F25.0
N2350X2.6369Y4.6879
N2360Y4.5665
N2370Y4.4080
N2380X2.8958
N2390Y4.5665
N2400Y4.6864
N2410X2.8325Y4.7511
N2420G01Z-0.1500F15.0
N2430G01X2.6987F25.0
N2440X2.6369Y4.6879
N2450Y4.5665
N2460Y4.4080
N2470X2.8958
N2480Y4.5665
N2490Y4.6864
N2500X2.8325Y4.7511
N2510G00Z0.2500
N2520G00X3.5196Y5.4743
N2530G01Z-0.0500F15.0
N2540G01X3.5147Y5.4738F25.0
N2550X3.5104Y5.4724
N2560X3.5064Y5.4703
N2570X3.5029Y5.4674
N2580X3.5000Y5.4639
N2590X3.4978Y5.4599
N2600X3.4964Y5.4555
N2610X3.4960Y5.4507
N2620X3.4964Y5.4459
N2630X3.4978Y5.4415
N2640X3.5000Y5.4375
N2650X3.5029Y5.4340
N2660X3.5064Y5.4311
N2670X3.5104Y5.4289
N2680X3.5147Y5.4276
N2690X3.5196Y5.4271
N2700X3.5244Y5.4276
N2710X3.5288Y5.4289
N2720X3.5327Y5.4311
N2730X3.5362Y5.4340
N2740X3.5391Y5.4375
N2750X3.5413Y5.4415
N2760X3.5427Y5.4459
N2770X3.5431Y5.4507
N2780X3.5427Y5.4555
N2790X3.5413Y5.4599
N2800X3.5391Y5.4639
N2810X3.5362Y5.4674
N2820X3.5327Y5.4703
N2830X3.5288Y5.4724
N2840X3.5244Y5.4738
N2850X3.5196Y5.4743
N2860G01Z-0.1000F15.0
N2870G01X3.5147Y5.4738F25.0
N2880X3.5104Y5.4724
N2890X3.5064Y5.4703
N2900X3.5029Y5.4674
N2910X3.5000Y5.4639
N2920X3.4978Y5.4599
N2930X3.4964Y5.4555
N2940X3.4960Y5.4507
N2950X3.4964Y5.4459
N2960X3.4978Y5.4415
N2970X3.5000Y5.4375
N2980X3.5029Y5.4340
N2990X3.5064Y5.4311
N3000X3.5104Y5.4289
N3010X3.5147Y5.4276
N3020X3.5196Y5.4271
N3030X3.5244Y5.4276
N3040X3.5288Y5.4289
N3050X3.5327Y5.4311
N3060X3.5362Y5.4340
N3070X3.5391Y5.4375
N3080X3.5413Y5.4415
N3090X3.5427Y5.4459
N3100X3.5431Y5.4507
N3110X3.5427Y5.4555
N3120X3.5413Y5.4599
N3130X3.5391Y5.4639
N3140X3.5362Y5.4674
N3150X3.5327Y5.4703
N3160X3.5288Y5.4724
N3170X3.5244Y5.4738
N3180X3.5196Y5.4743
N3190G01Z-0.1500F15.0
N3200G01X3.5147Y5.4738F25.0
N3210X3.5104Y5.4724
N3220X3.5064Y5.4703
N3230X3.5029Y5.4674
N3240X3.5000Y5.4639
N3250X3.4978Y5.4599
N3260X3.4964Y5.4555
N3270X3.4960Y5.4507
N3280X3.4964Y5.4459
N3290X3.4978Y5.4415
N3300X3.5000Y5.4375
N3310X3.5029Y5.4340
N3320X3.5064Y5.4311
N3330X3.5104Y5.4289
N3340X3.5147Y5.4276
N3350X3.5196Y5.4271
N3360X3.5244Y5.4276
N3370X3.5288Y5.4289
N3380X3.5327Y5.4311
N3390X3.5362Y5.4340
N3400X3.5391Y5.4375
N3410X3.5413Y5.4415
N3420X3.5427Y5.4459
N3430X3.5431Y5.4507
N3440X3.5427Y5.4555
N3450X3.5413Y5.4599
N3460X3.5391Y5.4639
N3470X3.5362Y5.4674
N3480X3.5327Y5.4703
N3490X3.5288Y5.4724
N3500X3.5244Y5.4738
N3510X3.5196Y5.4743
N3520G00Z0.2500
N3530G00X4.2780Y5.4768
N3540G01Z-0.0500F15.0
N3550G01X4.2732Y5.4763F25.0
N3560X4.2688Y5.4749
N3570X4.2648Y5.4728
N3580X4.2613Y5.4699
N3590X4.2584Y5.4664
N3600X4.2562Y5.4624
N3610X4.2549Y5.4580
N3620X4.2544Y5.4532
N3630X4.2549Y5.4484
N3640X4.2562Y5.4440
N3650X4.2584Y5.4400
N3660X4.2613Y5.4365
N3670X4.2648Y5.4336
N3680X4.2688Y5.4314
N3690X4.2732Y5.4301
N3700X4.2780Y5.4296
N3710X4.2828Y5.4301
N3720X4.2872Y5.4314
N3730X4.2912Y5.4336
N3740X4.2947Y5.4365
N3750X4.2976Y5.4400
N3760X4.2997Y5.4440
N3770X4.3011Y5.4484
N3780X4.3016Y5.4532
N3790X4.3011Y5.4580
N3800X4.2997Y5.4624
N3810X4.2976Y5.4664
N3820X4.2947Y5.4699
N3830X4.2912Y5.4728
N3840X4.2872Y5.4749
N3850X4.2828Y5.4763
N3860X4.2780Y5.4768
N3870G01Z-0.1000F15.0
N3880G01X4.2732Y5.4763F25.0
N3890X4.2688Y5.4749
N3900X4.2648Y5.4728
N3910X4.2613Y5.4699
N3920X4.2584Y5.4664
N3930X4.2562Y5.4624
N3940X4.2549Y5.4580
N3950X4.2544Y5.4532
N3960X4.2549Y5.4484
N3970X4.2562Y5.4440
N3980X4.2584Y5.4400
N3990X4.2613Y5.4365
N4000X4.2648Y5.4336
N4010X4.2688Y5.4314
N4020X4.2732Y5.4301
N4030X4.2780Y5.4296
N4040X4.2828Y5.4301
N4050X4.2872Y5.4314
N4060X4.2912Y5.4336
N4070X4.2947Y5.4365
N4080X4.2976Y5.4400
N4090X4.2997Y5.4440
N4100X4.3011Y5.4484
N4110X4.3016Y5.4532
N4120X4.3011Y5.4580
N4130X4.2997Y5.4624
N4140X4.2976Y5.4664
N4150X4.2947Y5.4699
N4160X4.2912Y5.4728
N4170X4.2872Y5.4749
N4180X4.2828Y5.4763
N4190X4.2780Y5.4768
N4200G01Z-0.1500F15.0
N4210G01X4.2732Y5.4763F25.0
N4220X4.2688Y5.4749
N4230X4.2648Y5.4728
N4240X4.2613Y5.4699
N4250X4.2584Y5.4664
N4260X4.2562Y5.4624
N4270X4.2549Y5.4580
N4280X4.2544Y5.4532
N4290X4.2549Y5.4484
N4300X4.2562Y5.4440
N4310X4.2584Y5.4400
N4320X4.2613Y5.4365
N4330X4.2648Y5.4336
N4340X4.2688Y5.4314
N4350X4.2732Y5.4301
N4360X4.2780Y5.4296
N4370X4.2828Y5.4301
N4380X4.2872Y5.4314
N4390X4.2912Y5.4336
N4400X4.2947Y5.4365
N4410X4.2976Y5.4400
N4420X4.2997Y5.4440
N4430X4.3011Y5.4484
N4440X4.3016Y5.4532
N4450X4.3011Y5.4580
N4460X4.2997Y5.4624
N4470X4.2976Y5.4664
N4480X4.2947Y5.4699
N4490X4.2912Y5.4728
N4500X4.2872Y5.4749
N4510X4.2828Y5.4763
N4520X4.2780Y5.4768
N4530G00Z0.2500
N4540G00X4.9651Y4.7536
N4550G01Z-0.0500F15.0
N4560G01X4.9017Y4.6889F25.0
N4570Y4.5690
N4580Y4.4105
N4590X5.1607
N4600Y4.5690
N4610Y4.6904
N4620X5.0988Y4.7536
N4630X4.9651
N4640G01Z-0.1000F15.0
N4650G01X4.9017Y4.6889F25.0
N4660Y4.5690
N4670Y4.4105
N4680X5.1607
N4690Y4.5690
N4700Y4.6904
N4710X5.0988Y4.7536
N4720X4.9651
N4730G01Z-0.1500F15.0
N4740G01X4.9017Y4.6889F25.0
N4750Y4.5690
N4760Y4.4105
N4770X5.1607
N4780Y4.5690
N4790Y4.6904
N4800X5.0988Y4.7536
N4810X4.9651
N4820G00Z0.2500
N4830G00X5.3232Y4.8544
N4840G01Z-0.0500F15.0
N4850G01Y4.9269F25.0
N4860X4.7407
N4870Y4.8544
N4880X5.3232
N4890G01Z-0.1000F15.0
N4900G01Y4.9269F25.0
N4910X4.7407
N4920Y4.8544
N4930X5.3232
N4940G01Z-0.1500F15.0
N4950G01Y4.9269F25.0
N4960X4.7407
N4970Y4.8544
N4980X5.3232
N4990G00Z0.2500
N5000G00X5.8138Y4.5772
N5010G01Z-0.0500F15.0
N5020G01X5.7978Y4.5764F25.0
N5030X5.7823Y4.5740
N5040X5.7673Y4.5702
N5050X5.7530Y4.5649
N5060X5.7394Y4.5584
N5070X5.7265Y4.5505
N5080X5.7145Y4.5415
N5090X5.7034Y4.5314
N5100X5.6933Y4.5203
N5110X5.6843Y4.5083
N5120X5.6764Y4.4954
N5130X5.6699Y4.4818
N5140X5.6646Y4.4675
N5150X5.6608Y4.4525
N5160X5.6584Y4.4370
N5170X5.6576Y4.4210
N5180X5.6584Y4.4050
N5190X5.6608Y4.3895
N5200X5.6646Y4.3745
N5210X5.6699Y4.3602
N5220X5.6764Y4.3465
N5230X5.6843Y4.3337
N5240X5.6933Y4.3216
N5250X5.7034Y4.3105
N5260X5.7145Y4.3004
N5270X5.7265Y4.2914
N5280X5.7394Y4.2836
N5290X5.7530Y4.2770
N5300X5.7673Y4.2718
N5310X5.7823Y4.2680
N5320X5.7978Y4.2656
N5330X5.8138Y4.2648
N5340X5.8298Y4.2656
N5350X5.8453Y4.2680
N5360X5.8603Y4.2718
N5370X5.8746Y4.2770
N5380X5.8883Y4.2836
N5390X5.9011Y4.2914
N5400X5.9132Y4.3004
N5410X5.9243Y4.3105
N5420X5.9344Y4.3216
N5430X5.9434Y4.3337
N5440X5.9512Y4.3465
N5450X5.9578Y4.3602
N5460X5.9630Y4.3745
N5470X5.9669Y4.3895
N5480X5.9692Y4.4050
N5490X5.9700Y4.4210
N5500X5.9692Y4.4370
N5510X5.9669Y4.4525
N5520X5.9630Y4.4675
N5530X5.9578Y4.4818
N5540X5.9512Y4.4954
N5550X5.9434Y4.5083
N5560X5.9344Y4.5203
N5570X5.9243Y4.5314
N5580X5.9132Y4.5415
N5590X5.9011Y4.5505
N5600X5.8883Y4.5584
N5610X5.8746Y4.5649
N5620X5.8603Y4.5702
N5630X5.8453Y4.5740
N5640X5.8298Y4.5764
N5650X5.8138Y4.5772
N5660G01Z-0.1000F15.0
N5670G01X5.7978Y4.5764F25.0
N5680X5.7823Y4.5740
N5690X5.7673Y4.5702
N5700X5.7530Y4.5649
N5710X5.7394Y4.5584
N5720X5.7265Y4.5505
N5730X5.7145Y4.5415
N5740X5.7034Y4.5314
N5750X5.6933Y4.5203
N5760X5.6843Y4.5083
N5770X5.6764Y4.4954
N5780X5.6699Y4.4818
N5790X5.6646Y4.4675
N5800X5.6608Y4.4525
N5810X5.6584Y4.4370
N5820X5.6576Y4.4210
N5830X5.6584Y4.4050
N5840X5.6608Y4.3895
N5850X5.6646Y4.3745
N5860X5.6699Y4.3602
N5870X5.6764Y4.3465
N5880X5.6843Y4.3337
N5890X5.6933Y4.3216
N5900X5.7034Y4.3105
N5910X5.7145Y4.3004
N5920X5.7265Y4.2914
N5930X5.7394Y4.2836
N5940X5.7530Y4.2770
N5950X5.7673Y4.2718
N5960X5.7823Y4.2680
N5970X5.7978Y4.2656
N5980X5.8138Y4.2648
N5990X5.8298Y4.2656
N6000X5.8453Y4.2680
N6010X5.8603Y4.2718
N6020X5.8746Y4.2770
N6030X5.8883Y4.2836
N6040X5.9011Y4.2914
N6050X5.9132Y4.3004
N6060X5.9243Y4.3105
N6070X5.9344Y4.3216
N6080X5.9434Y4.3337
N6090X5.9512Y4.3465
N6100X5.9578Y4.3602
N6110X5.9630Y4.3745
N6120X5.9669Y4.3895
N6130X5.9692Y4.4050
N6140X5.9700Y4.4210
N6150X5.9692Y4.4370
N6160X5.9669Y4.4525
N6170X5.9630Y4.4675
N6180X5.9578Y4.4818
N6190X5.9512Y4.4954
N6200X5.9434Y4.5083
N6210X5.9344Y4.5203
N6220X5.9243Y4.5314
N6230X5.9132Y4.5415
N6240X5.9011Y4.5505
N6250X5.8883Y4.5584
N6260X5.8746Y4.5649
N6270X5.8603Y4.5702
N6280X5.8453Y4.5740
N6290X5.8298Y4.5764
N6300X5.8138Y4.5772
N6310G01Z-0.1500F15.0
N6320G01X5.7978Y4.5764F25.0
N6330X5.7823Y4.5740
N6340X5.7673Y4.5702
N6350X5.7530Y4.5649
N6360X5.7394Y4.5584
N6370X5.7265Y4.5505
N6380X5.7145Y4.5415
N6390X5.7034Y4.5314
N6400X5.6933Y4.5203
N6410X5.6843Y4.5083
N6420X5.6764Y4.4954
N6430X5.6699Y4.4818
N6440X5.6646Y4.4675
N6450X5.6608Y4.4525
N6460X5.6584Y4.4370
N6470X5.6576Y4.4210
N6480X5.6584Y4.4050
N6490X5.6608Y4.3895
N6500X5.6646Y4.3745
N6510X5.6699Y4.3602
N6520X5.6764Y4.3465
N6530X5.6843Y4.3337
N6540X5.6933Y4.3216
N6550X5.7034Y4.3105
N6560X5.7145Y4.3004
N6570X5.7265Y4.2914
N6580X5.7394Y4.2836
N6590X5.7530Y4.2770
N6600X5.7673Y4.2718
N6610X5.7823Y4.2680
N6620X5.7978Y4.2656
N6630X5.8138Y4.2648
N6640X5.8298Y4.2656
N6650X5.8453Y4.2680
N6660X5.8603Y4.2718
N6670X5.8746Y4.2770
N6680X5.8883Y4.2836
N6690X5.9011Y4.2914
N6700X5.9132Y4.3004
N6710X5.9243Y4.3105
N6720X5.9344Y4.3216
N6730X5.9434Y4.3337
N6740X5.9512Y4.3465
N6750X5.9578Y4.3602
N6760X5.9630Y4.3745
N6770X5.9669Y4.3895
N6780X5.9692Y4.4050
N6790X5.9700Y4.4210
N6800X5.9692Y4.4370
N6810X5.9669Y4.4525
N6820X5.9630Y4.4675
N6830X5.9578Y4.4818
N6840X5.9512Y4.4954
N6850X5.9434Y4.5083
N6860X5.9344Y4.5203
N6870X5.9243Y4.5314
N6880X5.9132Y4.5415
N6890X5.9011Y4.5505
N6900X5.8883Y4.5584
N6910X5.8746Y4.5649
N6920X5.8603Y4.5702
N6930X5.8453Y4.5740
N6940X5.8298Y4.5764
N6950X5.8138Y4.5772
N6960G00Z0.2500
N6970G00X6.0145Y3.2123
N6980G01Z-0.0500F15.0
N6990G01X6.0149Y3.2075F25.0
N7000X6.0163Y3.2031
N7010X6.0185Y3.1992
N7020X6.0213Y3.1957
N7030X6.0249Y3.1928
N7040X6.0288Y3.1906
N7050X6.0332Y3.1892
N7060X6.0380Y3.1888
N7070X6.0429Y3.1892
N7080X6.0472Y3.1906
N7090X6.0512Y3.1928
N7100X6.0547Y3.1957
N7110X6.0576Y3.1992
N7120X6.0598Y3.2031
N7130X6.0611Y3.2075
N7140X6.0616Y3.2123
N7150X6.0611Y3.2172
N7160X6.0598Y3.2216
N7170X6.0576Y3.2255
N7180X6.0547Y3.2290
N7190X6.0512Y3.2319
N7200X6.0472Y3.2341
N7210X6.0429Y3.2355
N7220X6.0380Y3.2359
N7230X6.0332Y3.2355
N7240X6.0288Y3.2341
N7250X6.0249Y3.2319
N7260X6.0213Y3.2290
N7270X6.0185Y3.2255
N7280X6.0163Y3.2216
N7290X6.0149Y3.2172
N7300X6.0145Y3.2123
N7310G01Z-0.1000F15.0
N7320G01X6.0149Y3.2075F25.0
N7330X6.0163Y3.2031
N7340X6.0185Y3.1992
N7350X6.0213Y3.1957
N7360X6.0249Y3.1928
N7370X6.0288Y3.1906
N7380X6.0332Y3.1892
N7390X6.0380Y3.1888
N7400X6.0429Y3.1892
N7410X6.0472Y3.1906
N7420X6.0512Y3.1928
N7430X6.0547Y3.1957
N7440X6.0576Y3.1992
N7450X6.0598Y3.2031
N7460X6.0611Y3.2075
N7470X6.0616Y3.2123
N7480X6.0611Y3.2172
N7490X6.0598Y3.2216
N7500X6.0576Y3.2255
N7510X6.0547Y3.2290
N7520X6.0512Y3.2319
N7530X6.0472Y3.2341
N7540X6.0429Y3.2355
N7550X6.0380Y3.2359
N7560X6.0332Y3.2355
N7570X6.0288Y3.2341
N7580X6.0249Y3.2319
N7590X6.0213Y3.2290
N7600X6.0185Y3.2255
N7610X6.0163Y3.2216
N7620X6.0149Y3.2172
N7630X6.0145Y3.2123
N7640G01Z-0.1500F15.0
N7650G01X6.0149Y3.2075F25.0
N7660X6.0163Y3.2031
N7670X6.0185Y3.1992
N7680X6.0213Y3.1957
N7690X6.0249Y3.1928
N7700X6.0288Y3.1906
N7710X6.0332Y3.1892
N7720X6.0380Y3.1888
N7730X6.0429Y3.1892
N7740X6.0472Y3.1906
N7750X6.0512Y3.1928
N7760X6.0547Y3.1957
N7770X6.0576Y3.1992
N7780X6.0598Y3.2031
N7790X6.0611Y3.2075
N7800X6.0616Y3.2123
N7810X6.0611Y3.2172
N7820X6.0598Y3.2216
N7830X6.0576Y3.2255
N7840X6.0547Y3.2290
N7850X6.0512Y3.2319
N7860X6.0472Y3.2341
N7870X6.0429Y3.2355
N7880X6.0380Y3.2359
N7890X6.0332Y3.2355
N7900X6.0288Y3.2341
N7910X6.0249Y3.2319
N7920X6.0213Y3.2290
N7930X6.0185Y3.2255
N7940X6.0163Y3.2216
N7950X6.0149Y3.2172
N7960X6.0145Y3.2123
N7970G00Z0.2500
N7980G00X5.6792Y1.9524
N7990G01Z-0.0500F15.0
N8000G01X5.6797Y1.9475F25.0
N8010X5.6810Y1.9432
N8020X5.6832Y1.9392
N8030X5.6861Y1.9357
N8040X5.6896Y1.9328
N8050X5.6936Y1.9306
N8060X5.6980Y1.9293
N8070X5.7028Y1.9288
N8080X5.7076Y1.9293
N8090X5.7120Y1.9306
N8100X5.7160Y1.9328
N8110X5.7195Y1.9357
N8120X5.7224Y1.9392
N8130X5.7245Y1.9432
N8140X5.7259Y1.9475
N8150X5.7264Y1.9524
N8160X5.7259Y1.9572
N8170X5.7245Y1.9616
N8180X5.7224Y1.9656
N8190X5.7195Y1.9691
N8200X5.7160Y1.9719
N8210X5.7120Y1.9741
N8220X5.7076Y1.9755
N8230X5.7028Y1.9760
N8240X5.6980Y1.9755
N8250X5.6936Y1.9741
N8260X5.6896Y1.9719
N8270X5.6861Y1.9691
N8280X5.6832Y1.9656
N8290X5.6810Y1.9616
N8300X5.6797Y1.9572
N8310X5.6792Y1.9524
N8320G01Z-0.1000F15.0
N8330G01X5.6797Y1.9475F25.0
N8340X5.6810Y1.9432
N8350X5.6832Y1.9392
N8360X5.6861Y1.9357
N8370X5.6896Y1.9328
N8380X5.6936Y1.9306
N8390X5.6980Y1.9293
N8400X5.7028Y1.9288
N8410X5.7076Y1.9293
N8420X5.7120Y1.9306
N8430X5.7160Y1.9328
N8440X5.7195Y1.9357
N8450X5.7224Y1.9392
N8460X5.7245Y1.9432
N8470X5.7259Y1.9475
N8480X5.7264Y1.9524
N8490X5.7259Y1.9572
N8500X5.7245Y1.9616
N8510X5.7224Y1.9656
N8520X5.7195Y1.9691
N8530X5.7160Y1.9719
N8540X5.7120Y1.9741
N8550X5.7076Y1.9755
N8560X5.7028Y1.9760
N8570X5.6980Y1.9755
N8580X5.6936Y1.9741
N8590X5.6896Y1.9719
N8600X5.6861Y1.9691
N8610X5.6832Y1.9656
N8620X5.6810Y1.9616
N8630X5.6797Y1.9572
N8640X5.6792Y1.9524
N8650G01Z-0.1500F15.0
N8660G01X5.6797Y1.9475F25.0
N8670X5.6810Y1.9432
N8680X5.6832Y1.9392
N8690X5.6861Y1.9357
N8700X5.6896Y1.9328
N8710X5.6936Y1.9306
N8720X5.6980Y1.9293
N8730X5.7028Y1.9288
N8740X5.7076Y1.9293
N8750X5.7120Y1.9306
N8760X5.7160Y1.9328
N8770X5.7195Y1.9357
N8780X5.7224Y1.9392
N8790X5.7245Y1.9432
N8800X5.7259Y1.9475
N8810X5.7264Y1.9524
N8820X5.7259Y1.9572
N8830X5.7245Y1.9616
N8840X5.7224Y1.9656
N8850X5.7195Y1.9691
N8860X5.7160Y1.9719
N8870X5.7120Y1.9741
N8880X5.7076Y1.9755
N8890X5.7028Y1.9760
N8900X5.6980Y1.9755
N8910X5.6936Y1.9741
N8920X5.6896Y1.9719
N8930X5.6861Y1.9691
N8940X5.6832Y1.9656
N8950X5.6810Y1.9616
N8960X5.6797Y1.9572
N8970X5.6792Y1.9524
N8980G00Z0.2500
N8990G00X3.6930Y3.2128
N9000G01Z-0.0500F15.0
N9010G01X3.6935Y3.2080F25.0
N9020X3.6948Y3.2036
N9030X3.6970Y3.1996
N9040X3.6999Y3.1961
N9050X3.7034Y3.1932
N9060X3.7074Y3.1910
N9070X3.7118Y3.1897
N9080X3.7166Y3.1892
N9090X3.7214Y3.1897
N9100X3.7258Y3.1910
N9110X3.7298Y3.1932
N9120X3.7333Y3.1961
N9130X3.7362Y3.1996
N9140X3.7383Y3.2036
N9150X3.7397Y3.2080
N9160X3.7402Y3.2128
N9170X3.7397Y3.2176
N9180X3.7383Y3.2220
N9190X3.7362Y3.2260
N9200X3.7333Y3.2295
N9210X3.7298Y3.2324
N9220X3.7258Y3.2345
N9230X3.7214Y3.2359
N9240X3.7166Y3.2364
N9250X3.7118Y3.2359
N9260X3.7074Y3.2345
N9270X3.7034Y3.2324
N9280X3.6999Y3.2295
N9290X3.6970Y3.2260
N9300X3.6948Y3.2220
N9310X3.6935Y3.2176
N9320X3.6930Y3.2128
N9330G01Z-0.1000F15.0
N9340G01X3.6935Y3.2080F25.0
N9350X3.6948Y3.2036
N9360X3.6970Y3.1996
N9370X3.6999Y3.1961
N9380X3.7034Y3.1932
N9390X3.7074Y3.1910
N9400X3.7118Y3.1897
N9410X3.7166Y3.1892
N9420X3.7214Y3.1897
N9430X3.7258Y3.1910
N9440X3.7298Y3.1932
N9450X3.7333Y3.1961
N9460X3.7362Y3.1996
N9470X3.7383Y3.2036
N9480X3.7397Y3.2080
N9490X3.7402Y3.2128
N9500X3.7397Y3.2176
N9510X3.7383Y3.2220
N9520X3.7362Y3.2260
N9530X3.7333Y3.2295
N9540X3.7298Y3.2324
N9550X3.7258Y3.2345
N9560X3.7214Y3.2359
N9570X3.7166Y3.2364
N9580X3.7118Y3.2359
N9590X3.7074Y3.2345
N9600X3.7034Y3.2324
N9610X3.6999Y3.2295
N9620X3.6970Y3.2260
N9630X3.6948Y3.2220
N9640X3.6935Y3.2176
N9650X3.6930Y3.2128
N9660G01Z-0.1500F15.0
N9670G01X3.6935Y3.2080F25.0
N9680X3.6948Y3.2036
N9690X3.6970Y3.1996
N9700X3.6999Y3.1961
N9710X3.7034Y3.1932
N9720X3.7074Y3.1910
N9730X3.7118Y3.1897
N9740X3.7166Y3.1892
N9750X3.7214Y3.1897
N9760X3.7258Y3.1910
N9770X3.7298Y3.1932
N9780X3.7333Y3.1961
N9790X3.7362Y3.1996
N9800X3.7383Y3.2036
N9810X3.7397Y3.2080
N9820X3.7402Y3.2128
N9830X3.7397Y3.2176
N9840X3.7383Y3.2220
N9850X3.7362Y3.2260
N9860X3.7333Y3.2295
N9870X3.7298Y3.2324
N9880X3.7258Y3.2345
N9890X3.7214Y3.2359
N9900X3.7166Y3.2364
N9910X3.7118Y3.2359
N9920X3.7074Y3.2345
N9930X3.7034Y3.2324
N9940X3.6999Y3.2295
N9950X3.6970Y3.2260
N9960X3.6948Y3.2220
N9970X3.6935Y3.2176
N9980X3.6930Y3.2128
N9990G00Z0.2500
N10000G00X2.8021Y3.2017
N10010G01Z-0.0500F15.0
N10020G01X2.8023Y3.1967F25.0
N10030X2.8031Y3.1919
N10040X2.8043Y3.1872
N10050X2.8059Y3.1828
N10060X2.8079Y3.1785
N10070X2.8104Y3.1745
N10080X2.8132Y3.1708
N10090X2.8163Y3.1673
N10100X2.8198Y3.1641
N10110X2.8236Y3.1613
N10120X2.8276Y3.1589
N10130X2.8318Y3.1568
N10140X2.8363Y3.1552
N10150X2.8409Y3.1540
N10160X2.8457Y3.1533
N10170X2.8508Y3.1530
N10180X2.8558Y3.1533
N10190X2.8606Y3.1540
N10200X2.8653Y3.1552
N10210X2.8697Y3.1568
N10220X2.8740Y3.1589
N10230X2.8780Y3.1613
N10240X2.8818Y3.1641
N10250X2.8852Y3.1673
N10260X2.8884Y3.1708
N10270X2.8912Y3.1745
N10280X2.8936Y3.1785
N10290X2.8957Y3.1828
N10300X2.8973Y3.1872
N10310X2.8985Y3.1919
N10320X2.8992Y3.1967
N10330X2.8995Y3.2017
N10340X2.8992Y3.2068
N10350X2.8985Y3.2116
N10360X2.8973Y3.2162
N10370X2.8957Y3.2207
N10380X2.8936Y3.2249
N10390X2.8912Y3.2290
N10400X2.8884Y3.2327
N10410X2.8852Y3.2362
N10420X2.8818Y3.2393
N10430X2.8780Y3.2421
N10440X2.8740Y3.2446
N10450X2.8697Y3.2466
N10460X2.8653Y3.2483
N10470X2.8606Y3.2495
N10480X2.8558Y3.2502
N10490X2.8508Y3.2504
N10500X2.8457Y3.2502
N10510X2.8409Y3.2495
N10520X2.8363Y3.2483
N10530X2.8318Y3.2466
N10540X2.8276Y3.2446
N10550X2.8236Y3.2421
N10560X2.8198Y3.2393
N10570X2.8163Y3.2362
N10580X2.8132Y3.2327
N10590X2.8104Y3.2290
N10600X2.8079Y3.2249
N10610X2.8059Y3.2207
N10620X2.8043Y3.2162
N10630X2.8031Y3.2116
N10640X2.8023Y3.2068
N10650X2.8021Y3.2017
N10660G01Z-0.1000F15.0
N10670G01X2.8023Y3.1967F25.0
N10680X2.8031Y3.1919
N10690X2.8043Y3.1872
N10700X2.8059Y3.1828
N10710X2.8079Y3.1785
N10720X2.8104Y3.1745
N10730X2.8132Y3.1708
N10740X2.8163Y3.1673
N10750X2.8198Y3.1641
N10760X2.8236Y3.1613
N10770X2.8276Y3.1589
N10780X2.8318Y3.1568
N10790X2.8363Y3.1552
N10800X2.8409Y3.1540
N10810X2.8457Y3.1533
N10820X2.8508Y3.1530
N10830X2.8558Y3.1533
N10840X2.8606Y3.1540
N10850X2.8653Y3.1552
N10860X2.8697Y3.1568
N10870X2.8740Y3.1589
N10880X2.8780Y3.1613
N10890X2.8818Y3.1641
N10900X2.8852Y3.1673
N10910X2.8884Y3.1708
N10920X2.8912Y3.1745
N10930X2.8936Y3.1785
N10940X2.8957Y3.1828
N10950X2.8973Y3.1872
N10960X2.8985Y3.1919
N10970X2.8992Y3.1967
N10980X2.8995Y3.2017
N10990X2.8992Y3.2068
N11000X2.8985Y3.2116
N11010X2.8973Y3.2162
N11020X2.8957Y3.2207
N11030X2.8936Y3.2249
N11040X2.8912Y3.2290
N11050X2.8884Y3.2327
N11060X2.8852Y3.2362
N11070X2.8818Y3.2393
N11080X2.8780Y3.2421
N11090X2.8740Y3.2446
N11100X2.8697Y3.2466
N11110X2.8653Y3.2483
N11120X2.8606Y3.2495
N11130X2.8558Y3.2502
N11140X2.8508Y3.2504
N11150X2.8457Y3.2502
N11160X2.8409Y3.2495
N11170X2.8363Y3.2483
N11180X2.8318Y3.2466
N11190X2.8276Y3.2446
N11200X2.8236Y3.2421
N11210X2.8198Y3.2393
N11220X2.8163Y3.2362
N11230X2.8132Y3.2327
N11240X2.8104Y3.2290
N11250X2.8079Y3.2249
N11260X2.8059Y3.2207
N11270X2.8043Y3.2162
N11280X2.8031Y3.2116
N11290X2.8023Y3.2068
N11300X2.8021Y3.2017
N11310G01Z-0.1500F15.0
N11320G01X2.8023Y3.1967F25.0
N11330X2.8031Y3.1919
N11340X2.8043Y3.1872
N11350X2.8059Y3.1828
N11360X2.8079Y3.1785
N11370X2.8104Y3.1745
N11380X2.8132Y3.1708
N11390X2.8163Y3.1673
N11400X2.8198Y3.1641
N11410X2.8236Y3.1613
N11420X2.8276Y3.1589
N11430X2.8318Y3.1568
N11440X2.8363Y3.1552
N11450X2.8409Y3.1540
N11460X2.8457Y3.1533
N11470X2.8508Y3.1530
N11480X2.8558Y3.1533
N11490X2.8606Y3.1540
N11500X2.8653Y3.1552
N11510X2.8697Y3.1568
N11520X2.8740Y3.1589
N11530X2.8780Y3.1613
N11540X2.8818Y3.1641
N11550X2.8852Y3.1673
N11560X2.8884Y3.1708
N11570X2.8912Y3.1745
N11580X2.8936Y3.1785
N11590X2.8957Y3.1828
N11600X2.8973Y3.1872
N11610X2.8985Y3.1919
N11620X2.8992Y3.1967
N11630X2.8995Y3.2017
N11640X2.8992Y3.2068
N11650X2.8985Y3.2116
N11660X2.8973Y3.2162
N11670X2.8957Y3.2207
N11680X2.8936Y3.2249
N11690X2.8912Y3.2290
N11700X2.8884Y3.2327
N11710X2.8852Y3.2362
N11720X2.8818Y3.2393
N11730X2.8780Y3.2421
N11740X2.8740Y3.2446
N11750X2.8697Y3.2466
N11760X2.8653Y3.2483
N11770X2.8606Y3.2495
N11780X2.8558Y3.2502
N11790X2.8508Y3.2504
N11800X2.8457Y3.2502
N11810X2.8409Y3.2495
N11820X2.8363Y3.2483
N11830X2.8318Y3.2466
N11840X2.8276Y3.2446
N11850X2.8236Y3.2421
N11860X2.8198Y3.2393
N11870X2.8163Y3.2362
N11880X2.8132Y3.2327
N11890X2.8104Y3.2290
N11900X2.8079Y3.2249
N11910X2.8059Y3.2207
N11920X2.8043Y3.2162
N11930X2.8031Y3.2116
N11940X2.8023Y3.2068
N11950X2.8021Y3.2017
N11960G00Z0.2500
N11970G00X1.8282Y3.2013
N11980G01Z-0.0500F15.0
N11990G01X1.8277Y3.2061F25.0
N12000X1.8264Y3.2105
N12010X1.8242Y3.2145
N12020X1.8213Y3.2180
N12030X1.8178Y3.2209
N12040X1.8138Y3.2231
N12050X1.8095Y3.2244
N12060X1.8047Y3.2249
N12070X1.7998Y3.2244
N12080X1.7955Y3.2231
N12090X1.7915Y3.2209
N12100X1.7880Y3.2180
N12110X1.7851Y3.2145
N12120X1.7829Y3.2105
N12130X1.7815Y3.2061
N12140X1.7811Y3.2013
N12150X1.7815Y3.1965
N12160X1.7829Y3.1921
N12170X1.7851Y3.1881
N12180X1.7880Y3.1846
N12190X1.7915Y3.1817
N12200X1.7954Y3.1796
N12210X1.7998Y3.1782
N12220X1.8047Y3.1777
N12230X1.8095Y3.1782
N12240X1.8139Y3.1796
N12250X1.8178Y3.1817
N12260X1.8213Y3.1846
N12270X1.8242Y3.1881
N12280X1.8264Y3.1921
N12290X1.8277Y3.1965
N12300X1.8282Y3.2013
N12310G01Z-0.1000F15.0
N12320G01X1.8277Y3.2061F25.0
N12330X1.8264Y3.2105
N12340X1.8242Y3.2145
N12350X1.8213Y3.2180
N12360X1.8178Y3.2209
N12370X1.8138Y3.2231
N12380X1.8095Y3.2244
N12390X1.8047Y3.2249
N12400X1.7998Y3.2244
N12410X1.7955Y3.2231
N12420X1.7915Y3.2209
N12430X1.7880Y3.2180
N12440X1.7851Y3.2145
N12450X1.7829Y3.2105
N12460X1.7815Y3.2061
N12470X1.7811Y3.2013
N12480X1.7815Y3.1965
N12490X1.7829Y3.1921
N12500X1.7851Y3.1881
N12510X1.7880Y3.1846
N12520X1.7915Y3.1817
N12530X1.7954Y3.1796
N12540X1.7998Y3.1782
N12550X1.8047Y3.1777
N12560X1.8095Y3.1782
N12570X1.8139Y3.1796
N12580X1.8178Y3.1817
N12590X1.8213Y3.1846
N12600X1.8242Y3.1881
N12610X1.8264Y3.1921
N12620X1.8277Y3.1965
N12630X1.8282Y3.2013
N12640G01Z-0.1500F15.0
N12650G01X1.8277Y3.2061F25.0
N12660X1.8264Y3.2105
N12670X1.8242Y3.2145
N12680X1.8213Y3.2180
N12690X1.8178Y3.2209
N12700X1.8138Y3.2231
N12710X1.8095Y3.2244
N12720X1.8047Y3.2249
N12730X1.7998Y3.2244
N12740X1.7955Y3.2231
N12750X1.7915Y3.2209
N12760X1.7880Y3.2180
N12770X1.7851Y3.2145
N12780X1.7829Y3.2105
N12790X1.7815Y3.2061
N12800X1.7811Y3.2013
N12810X1.7815Y3.1965
N12820X1.7829Y3.1921
N12830X1.7851Y3.1881
N12840X1.7880Y3.1846
N12850X1.7915Y3.1817
N12860X1.7954Y3.1796
N12870X1.7998Y3.1782
N12880X1.8047Y3.1777
N12890X1.8095Y3.1782
N12900X1.8139Y3.1796
N12910X1.8178Y3.1817
N12920X1.8213Y3.1846
N12930X1.8242Y3.1881
N12940X1.8264Y3.1921
N12950X1.8277Y3.1965
N12960X1.8282Y3.2013
N12970G00Z0.2500
N12980G00X2.3100Y1.9524
N12990G01Z-0.0500F15.0
N13000G01X2.3105Y1.9475F25.0
N13010X2.3119Y1.9432
N13020X2.3141Y1.9392
N13030X2.3169Y1.9357
N13040X2.3204Y1.9328
N13050X2.3244Y1.9306
N13060X2.3288Y1.9293
N13070X2.3336Y1.9288
N13080X2.3385Y1.9293
N13090X2.3428Y1.9306
N13100X2.3468Y1.9328
N13110X2.3503Y1.9357
N13120X2.3532Y1.9392
N13130X2.3554Y1.9432
N13140X2.3567Y1.9475
N13150X2.3572Y1.9524
N13160X2.3567Y1.9572
N13170X2.3554Y1.9616
N13180X2.3532Y1.9656
N13190X2.3503Y1.9691
N13200X2.3468Y1.9719
N13210X2.3428Y1.9741
N13220X2.3385Y1.9755
N13230X2.3336Y1.9760
N13240X2.3288Y1.9755
N13250X2.3244Y1.9741
N13260X2.3204Y1.9719
N13270X2.3169Y1.9691
N13280X2.3141Y1.9656
N13290X2.3119Y1.9616
N13300X2.3105Y1.9572
N13310X2.3100Y1.9524
N13320G01Z-0.1000F15.0
N13330G01X2.3105Y1.9475F25.0
N13340X2.3119Y1.9432
N13350X2.3141Y1.9392
N13360X2.3169Y1.9357
N13370X2.3204Y1.9328
N13380X2.3244Y1.9306
N13390X2.3288Y1.9293
N13400X2.3336Y1.9288
N13410X2.3385Y1.9293
N13420X2.3428Y1.9306
N13430X2.3468Y1.9328
N13440X2.3503Y1.9357
N13450X2.3532Y1.9392
N13460X2.3554Y1.9432
N13470X2.3567Y1.9475
N13480X2.3572Y1.9524
N13490X2.3567Y1.9572
N13500X2.3554Y1.9616
N13510X2.3532Y1.9656
N13520X2.3503Y1.9691
N13530X2.3468Y1.9719
N13540X2.3428Y1.9741
N13550X2.3385Y1.9755
N13560X2.3336Y1.9760
N13570X2.3288Y1.9755
N13580X2.3244Y1.9741
N13590X2.3204Y1.9719
N13600X2.3169Y1.9691
N13610X2.3141Y1.9656
N13620X2.3119Y1.9616
N13630X2.3105Y1.9572
N13640X2.3100Y1.9524
N13650G01Z-0.1500F15.0
N13660G01X2.3105Y1.9475F25.0
N13670X2.3119Y1.9432
N13680X2.3141Y1.9392
N13690X2.3169Y1.9357
N13700X2.3204Y1.9328
N13710X2.3244Y1.9306
N13720X2.3288Y1.9293
N13730X2.3336Y1.9288
N13740X2.3385Y1.9293
N13750X2.3428Y1.9306
N13760X2.3468Y1.9328
N13770X2.3503Y1.9357
N13780X2.3532Y1.9392
N13790X2.3554Y1.9432
N13800X2.3567Y1.9475
N13810X2.3572Y1.9524
N13820X2.3567Y1.9572
N13830X2.3554Y1.9616
N13840X2.3532Y1.9656
N13850X2.3503Y1.9691
N13860X2.3468Y1.9719
N13870X2.3428Y1.9741
N13880X2.3385Y1.9755
N13890X2.3336Y1.9760
N13900X2.3288Y1.9755
N13910X2.3244Y1.9741
N13920X2.3204Y1.9719
N13930X2.3169Y1.9691
N13940X2.3141Y1.9656
N13950X2.3119Y1.9616
N13960X2.3105Y1.9572
N13970X2.3100Y1.9524
N13980G00Z0.2500
N13990G00X3.7760Y6.0567Z0.2500
N14000G01Z-0.0500F15.0
N14010G01X3.7846Y6.0328F25.0
N14020X3.7883Y6.0194
N14030X3.7914Y6.0061
N14040X3.7937Y5.9925
N14050X3.7955Y5.9787
N14060X3.7965Y5.9648
N14070X3.7969Y5.9511
N14080Y5.9467
N14090Y5.7842
N14100Y4.3157
N14110Y4.2340
N14120X3.7965Y4.2200
N14130X3.7954Y4.2058
N14140X3.7936Y4.1917
N14150X3.7911Y4.1779
N14160X3.7880Y4.1643
N14170X3.7851Y4.1543
N14180X3.7842Y4.1510
N14190X3.7797Y4.1379
N14200X3.7745Y4.1248
N14210X3.7628Y4.1005
N14220X3.7487Y4.0774
N14230X3.7325Y4.0557
N14240X3.7143Y4.0357
N14250X3.6943Y4.0176
N14260X3.6727Y4.0014
N14270X3.6498Y3.9874
N14280X3.6374Y3.9810
N14290X3.6249Y3.9754
N14300X3.6121Y3.9703
N14310X3.5991Y3.9659
N14320X3.5857Y3.9621
N14330X3.5721Y3.9589
N14340X3.5583Y3.9564
N14350X3.5443Y3.9546
N14360X3.5300Y3.9535
N14370X3.5160Y3.9532
N14380X1.7704
N14390X1.7564Y3.9535
N14400X1.7422Y3.9546
N14410X1.7281Y3.9564
N14420X1.7143Y3.9589
N14430X1.7007Y3.9621
N14440X1.6874Y3.9659
N14450X1.6743Y3.9703
N14460X1.6612Y3.9755
N14470X1.6369Y3.9872
N14480X1.6138Y4.0014
N14490X1.5921Y4.0176
N14500X1.5721Y4.0357
N14510X1.5540Y4.0557
N14520X1.5378Y4.0774
N14530X1.5238Y4.1002
N14540X1.5174Y4.1127
N14550X1.5118Y4.1251
N14560X1.5067Y4.1379
N14570X1.5023Y4.1510
N14580X1.4985Y4.1643
N14590X1.4953Y4.1779
N14600X1.4928Y4.1917
N14610X1.4910Y4.2058
N14620X1.4899Y4.2200
N14630X1.4896Y4.2340
N14640Y4.2418
N14650Y4.4043
N14660Y5.7130
N14670Y5.8755
N14680Y5.9511
N14690X1.4899Y5.9631
N14700X1.4896Y5.9739
N14710X1.4900Y5.9880
N14720X1.4912Y6.0020
N14730X1.4931Y6.0159
N14740X1.4959Y6.0297
N14750X1.4994Y6.0434
N14760X1.5036Y6.0569
N14770X1.5086Y6.0702
N14780X1.5143Y6.0833
N14790X1.5206Y6.0963
N14800X1.5278Y6.1094
N14810X1.5435Y6.1340
N14820X1.5620Y6.1582
N14830X1.5827Y6.1817
N14840X1.6057Y6.2044
N14850X1.6309Y6.2263
N14860X1.6582Y6.2475
N14870X1.6875Y6.2679
N14880X1.7188Y6.2875
N14890X1.7520Y6.3064
N14900X1.7870Y6.3245
N14910X1.8238Y6.3418
N14920X1.8623Y6.3583
N14930X1.9024Y6.3740
N14940X1.9441Y6.3888
N14950X1.9874Y6.4027
N14960X2.0321Y6.4157
N14970X2.0782Y6.4279
N14980X2.1257Y6.4390
N14990X2.1744Y6.4492
N15000X2.2244Y6.4584
N15010X2.2755Y6.4666
N15020X2.3277Y6.4737
N15030X2.3809Y6.4797
N15040X2.4350Y6.4846
N15050X2.4901Y6.4884
N15060X2.5460Y6.4910
N15070X2.6023Y6.4924
N15080G2X2.6343Y6.4611I0.0008J-0.0312
N15090G01Y6.3568
N15100Y6.2236
N15110X2.7065Y6.1511
N15120G2X2.7156Y6.1291I-0.0221J-0.0220
N15130G01Y6.0857
N15140G2X2.6844Y6.0544I-0.0313J0.0000
N15150G01X2.4744
N15160Y5.9819
N15170X3.0569
N15180Y6.0544
N15190X2.8469
N15200G2X2.8156Y6.0857I0.0000J0.0313
N15210G01Y6.1291
N15220G2X2.8247Y6.1511I0.0313J0.0000
N15230G01X2.8969Y6.2236
N15240Y6.3568
N15250Y6.4450
N15260G2X2.9320Y6.4761I0.0313J0.0000
N15270G01X2.9720Y6.4711
N15280X3.0116Y6.4654
N15290X3.0505Y6.4592
N15300X3.0888Y6.4523
N15310X3.1265Y6.4449
N15320X3.1633Y6.4369
N15330X3.1995Y6.4283
N15340X3.2348Y6.4192
N15350X3.2694Y6.4095
N15360X3.3031Y6.3993
N15370X3.3360Y6.3886
N15380X3.3679Y6.3774
N15390X3.3990Y6.3657
N15400X3.4291Y6.3534
N15410X3.4582Y6.3407
N15420X3.4864Y6.3276
N15430X3.5135Y6.3139
N15440X3.5395Y6.2998
N15450X3.5645Y6.2853
N15460X3.5884Y6.2703
N15470X3.6111Y6.2548
N15480X3.6327Y6.2390
N15490X3.6530Y6.2227
N15500X3.6722Y6.2059
N15510X3.6901Y6.1887
N15520X3.7066Y6.1711
N15530X3.7219Y6.1530
N15540X3.7357Y6.1344
N15550X3.7482Y6.1155
N15560X3.7591Y6.0960
N15570X3.7685Y6.0762
N15580X3.7760Y6.0567
N15590G01Z-0.1000F15.0
N15600G01X3.7846Y6.0328F25.0
N15610X3.7883Y6.0194
N15620X3.7914Y6.0061
N15630X3.7937Y5.9925
N15640X3.7955Y5.9787
N15650X3.7965Y5.9648
N15660X3.7969Y5.9511
N15670Y5.9467
N15680Z-0.0750
N15690Y5.7842
N15700G01Z-0.1000F15.0
N15710G01Y4.3157F25.0
N15720Z-0.0750
N15730Y4.2340
N15740X3.7965Y4.2200
N15750X3.7954Y4.2058
N15760X3.7936Y4.1917
N15770X3.7911Y4.1779
N15780X3.7880Y4.1643
N15790X3.7851Y4.1543
N15800G01Z-0.1000F15.0
N15810G01X3.7842Y4.1510F25.0
N15820X3.7797Y4.1379
N15830X3.7745Y4.1248
N15840X3.7628Y4.1005
N15850X3.7487Y4.0774
N15860X3.7325Y4.0557
N15870X3.7143Y4.0357
N15880X3.6943Y4.0176
N15890X3.6727Y4.0014
N15900X3.6498Y3.9874
N15910X3.6374Y3.9810
N15920X3.6249Y3.9754
N15930X3.6121Y3.9703
N15940X3.5991Y3.9659
N15950X3.5857Y3.9621
N15960X3.5721Y3.9589
N15970X3.5583Y3.9564
N15980X3.5443Y3.9546
N15990X3.5300Y3.9535
N16000X3.5160Y3.9532
N16010X1.7704
N16020X1.7564Y3.9535
N16030X1.7422Y3.9546
N16040X1.7281Y3.9564
N16050X1.7143Y3.9589
N16060X1.7007Y3.9621
N16070X1.6874Y3.9659
N16080X1.6743Y3.9703
N16090X1.6612Y3.9755
N16100X1.6369Y3.9872
N16110X1.6138Y4.0014
N16120X1.5921Y4.0176
N16130X1.5721Y4.0357
N16140X1.5540Y4.0557
N16150X1.5378Y4.0774
N16160X1.5238Y4.1002
N16170X1.5174Y4.1127
N16180X1.5118Y4.1251
N16190X1.5067Y4.1379
N16200X1.5023Y4.1510
N16210X1.4985Y4.1643
N16220X1.4953Y4.1779
N16230X1.4928Y4.1917
N16240X1.4910Y4.2058
N16250X1.4899Y4.2200
N16260X1.4896Y4.2340
N16270Y4.2418
N16280Z-0.0750
N16290Y4.4043
N16300G01Z-0.1000F15.0
N16310G01Y5.7130F25.0
N16320Z-0.0750
N16330Y5.8755
N16340G01Z-0.1000F15.0
N16350G01Y5.9511F25.0
N16360X1.4899Y5.9631
N16370X1.4896Y5.9739
N16380X1.4900Y5.9880
N16390X1.4912Y6.0020
N16400X1.4931Y6.0159
N16410X1.4959Y6.0297
N16420X1.4994Y6.0434
N16430X1.5036Y6.0569
N16440X1.5086Y6.0702
N16450X1.5143Y6.0833
N16460X1.5206Y6.0963
N16470X1.5278Y6.1094
N16480X1.5435Y6.1340
N16490X1.5620Y6.1582
N16500X1.5827Y6.1817
N16510X1.6057Y6.2044
N16520X1.6309Y6.2263
N16530X1.6582Y6.2475
N16540X1.6875Y6.2679
N16550X1.7188Y6.2875
N16560X1.7520Y6.3064
N16570X1.7870Y6.3245
N16580X1.8238Y6.3418
N16590X1.8623Y6.3583
N16600X1.9024Y6.3740
N16610X1.9441Y6.3888
N16620X1.9874Y6.4027
N16630X2.0321Y6.4157
N16640X2.0782Y6.4279
N16650X2.1257Y6.4390
N16660X2.1744Y6.4492
N16670X2.2244Y6.4584
N16680X2.2755Y6.4666
N16690X2.3277Y6.4737
N16700X2.3809Y6.4797
N16710X2.4350Y6.4846
N16720X2.4901Y6.4884
N16730X2.5460Y6.4910
N16740X2.6023Y6.4924
N16750G2X2.6343Y6.4611I0.0008J-0.0312
N16760G01Y6.3568
N16770Y6.2236
N16780X2.7065Y6.1511
N16790G2X2.7156Y6.1291I-0.0221J-0.0220
N16800G01Y6.0857
N16810G2X2.6844Y6.0544I-0.0313J0.0000
N16820G01X2.4744
N16830Y5.9819
N16840X3.0569
N16850Y6.0544
N16860X2.8469
N16870G2X2.8156Y6.0857I0.0000J0.0313
N16880G01Y6.1291
N16890G2X2.8247Y6.1511I0.0313J0.0000
N16900G01X2.8969Y6.2236
N16910Y6.3568
N16920Y6.4450
N16930G2X2.9320Y6.4761I0.0313J0.0000
N16940G01X2.9720Y6.4711
N16950X3.0116Y6.4654
N16960X3.0505Y6.4592
N16970X3.0888Y6.4523
N16980X3.1265Y6.4449
N16990X3.1633Y6.4369
N17000X3.1995Y6.4283
N17010X3.2348Y6.4192
N17020X3.2694Y6.4095
N17030X3.3031Y6.3993
N17040X3.3360Y6.3886
N17050X3.3679Y6.3774
N17060X3.3990Y6.3657
N17070X3.4291Y6.3534
N17080X3.4582Y6.3407
N17090X3.4864Y6.3276
N17100X3.5135Y6.3139
N17110X3.5395Y6.2998
N17120X3.5645Y6.2853
N17130X3.5884Y6.2703
N17140X3.6111Y6.2548
N17150X3.6327Y6.2390
N17160X3.6530Y6.2227
N17170X3.6722Y6.2059
N17180X3.6901Y6.1887
N17190X3.7066Y6.1711
N17200X3.7219Y6.1530
N17210X3.7357Y6.1344
N17220X3.7482Y6.1155
N17230X3.7591Y6.0960
N17240X3.7685Y6.0762
N17250X3.7760Y6.0567
N17260G01Z-0.1500F15.0
N17270G01X3.7846Y6.0328F25.0
N17280X3.7883Y6.0194
N17290X3.7914Y6.0061
N17300X3.7937Y5.9925
N17310X3.7955Y5.9787
N17320X3.7965Y5.9648
N17330X3.7969Y5.9511
N17340Y5.9467
N17350Z-0.0750
N17360Y5.7842
N17370G01Z-0.1500F15.0
N17380G01Y4.3157F25.0
N17390Z-0.0750
N17400Y4.2340
N17410X3.7965Y4.2200
N17420X3.7954Y4.2058
N17430X3.7936Y4.1917
N17440X3.7911Y4.1779
N17450X3.7880Y4.1643
N17460X3.7851Y4.1543
N17470G01Z-0.1500F15.0
N17480G01X3.7842Y4.1510F25.0
N17490X3.7797Y4.1379
N17500X3.7745Y4.1248
N17510X3.7628Y4.1005
N17520X3.7487Y4.0774
N17530X3.7325Y4.0557
N17540X3.7143Y4.0357
N17550X3.6943Y4.0176
N17560X3.6727Y4.0014
N17570X3.6498Y3.9874
N17580X3.6374Y3.9810
N17590X3.6249Y3.9754
N17600X3.6121Y3.9703
N17610X3.5991Y3.9659
N17620X3.5857Y3.9621
N17630X3.5721Y3.9589
N17640X3.5583Y3.9564
N17650X3.5443Y3.9546
N17660X3.5300Y3.9535
N17670X3.5160Y3.9532
N17680X1.7704
N17690X1.7564Y3.9535
N17700X1.7422Y3.9546
N17710X1.7281Y3.9564
N17720X1.7143Y3.9589
N17730X1.7007Y3.9621
N17740X1.6874Y3.9659
N17750X1.6743Y3.9703
N17760X1.6612Y3.9755
N17770X1.6369Y3.9872
N17780X1.6138Y4.0014
N17790X1.5921Y4.0176
N17800X1.5721Y4.0357
N17810X1.5540Y4.0557
N17820X1.5378Y4.0774
N17830X1.5238Y4.1002
N17840X1.5174Y4.1127
N17850X1.5118Y4.1251
N17860X1.5067Y4.1379
N17870X1.5023Y4.1510
N17880X1.4985Y4.1643
N17890X1.4953Y4.1779
N17900X1.4928Y4.1917
N17910X1.4910Y4.2058
N17920X1.4899Y4.2200
N17930X1.4896Y4.2340
N17940Y4.2418
N17950Z-0.0750
N17960Y4.4043
N17970G01Z-0.1500F15.0
N17980G01Y5.7130F25.0
N17990Z-0.0750
N18000Y5.8755
N18010G01Z-0.1500F15.0
N18020G01Y5.9511F25.0
N18030X1.4899Y5.9631
N18040X1.4896Y5.9739
N18050X1.4900Y5.9880
N18060X1.4912Y6.0020
N18070X1.4931Y6.0159
N18080X1.4959Y6.0297
N18090X1.4994Y6.0434
N18100X1.5036Y6.0569
N18110X1.5086Y6.0702
N18120X1.5143Y6.0833
N18130X1.5206Y6.0963
N18140X1.5278Y6.1094
N18150X1.5435Y6.1340
N18160X1.5620Y6.1582
N18170X1.5827Y6.1817
N18180X1.6057Y6.2044
N18190X1.6309Y6.2263
N18200X1.6582Y6.2475
N18210X1.6875Y6.2679
N18220X1.7188Y6.2875
N18230X1.7520Y6.3064
N18240X1.7870Y6.3245
N18250X1.8238Y6.3418
N18260X1.8623Y6.3583
N18270X1.9024Y6.3740
N18280X1.9441Y6.3888
N18290X1.9874Y6.4027
N18300X2.0321Y6.4157
N18310X2.0782Y6.4279
N18320X2.1257Y6.4390
N18330X2.1744Y6.4492
N18340X2.2244Y6.4584
N18350X2.2755Y6.4666
N18360X2.3277Y6.4737
N18370X2.3809Y6.4797
N18380X2.4350Y6.4846
N18390X2.4901Y6.4884
N18400X2.5460Y6.4910
N18410X2.6023Y6.4924
N18420G2X2.6343Y6.4611I0.0008J-0.0312
N18430G01Y6.3568
N18440Y6.2236
N18450X2.7065Y6.1511
N18460G2X2.7156Y6.1291I-0.0221J-0.0220
N18470G01Y6.0857
N18480G2X2.6844Y6.0544I-0.0313J0.0000
N18490G01X2.4744
N18500Y5.9819
N18510X3.0569
N18520Y6.0544
N18530X2.8469
N18540G2X2.8156Y6.0857I0.0000J0.0313
N18550G01Y6.1291
N18560G2X2.8247Y6.1511I0.0313J0.0000
N18570G01X2.8969Y6.2236
N18580Y6.3568
N18590Y6.4450
N18600G2X2.9320Y6.4761I0.0313J0.0000
N18610G01X2.9720Y6.4711
N18620X3.0116Y6.4654
N18630X3.0505Y6.4592
N18640X3.0888Y6.4523
N18650X3.1265Y6.4449
N18660X3.1633Y6.4369
N18670X3.1995Y6.4283
N18680X3.2348Y6.4192
N18690X3.2694Y6.4095
N18700X3.3031Y6.3993
N18710X3.3360Y6.3886
N18720X3.3679Y6.3774
N18730X3.3990Y6.3657
N18740X3.4291Y6.3534
N18750X3.4582Y6.3407
N18760X3.4864Y6.3276
N18770X3.5135Y6.3139
N18780X3.5395Y6.2998
N18790X3.5645Y6.2853
N18800X3.5884Y6.2703
N18810X3.6111Y6.2548
N18820X3.6327Y6.2390
N18830X3.6530Y6.2227
N18840X3.6722Y6.2059
N18850X3.6901Y6.1887
N18860X3.7066Y6.1711
N18870X3.7219Y6.1530
N18880X3.7357Y6.1344
N18890X3.7482Y6.1155
N18900X3.7591Y6.0960
N18910X3.7685Y6.0762
N18920X3.7760Y6.0567
N18930G00Z0.2500
N18940G00X4.0216Y6.0592
N18950G01Z-0.0500F15.0
N18960G01X4.0290Y6.0787F25.0
N18970X4.0384Y6.0985
N18980X4.0494Y6.1180
N18990X4.0618Y6.1369
N19000X4.0757Y6.1555
N19010X4.0909Y6.1736
N19020X4.1075Y6.1912
N19030X4.1254Y6.2084
N19040X4.1445Y6.2252
N19050X4.1649Y6.2415
N19060X4.1864Y6.2574
N19070X4.2092Y6.2728
N19080X4.2330Y6.2878
N19090X4.2580Y6.3023
N19100X4.2841Y6.3164
N19110X4.3112Y6.3301
N19120X4.3393Y6.3432
N19130X4.3685Y6.3559
N19140X4.3986Y6.3682
N19150X4.4296Y6.3799
N19160X4.4616Y6.3911
N19170X4.4944Y6.4018
N19180X4.5281Y6.4120
N19190X4.5627Y6.4217
N19200X4.5981Y6.4308
N19210X4.6342Y6.4394
N19220X4.6711Y6.4474
N19230X4.7087Y6.4549
N19240X4.7470Y6.4617
N19250X4.7860Y6.4680
N19260X4.8256Y6.4736
N19270X4.8655Y6.4786
N19280G2X4.9007Y6.4476I0.0039J-0.0310
N19290G01Y6.3593
N19300Y6.2261
N19310X4.9728Y6.1536
N19320G2X4.9819Y6.1316I-0.0221J-0.0220
N19330G01Y6.0882
N19340G2X4.9507Y6.0569I-0.0313J0.0000
N19350G01X4.7407
N19360Y5.9844
N19370X5.3232
N19380Y6.0569
N19390X5.1132
N19400G2X5.0819Y6.0882I0.0000J0.0313
N19410G01Y6.1316
N19420G2X5.0910Y6.1536I0.0313J0.0000
N19430G01X5.1632Y6.2261
N19440Y6.3593
N19450Y6.4636
N19460G2X5.1952Y6.4949I0.0313J0.0000
N19470G01X5.2515Y6.4935
N19480X5.3074Y6.4909
N19490X5.3625Y6.4871
N19500X5.4167Y6.4822
N19510X5.4699Y6.4762
N19520X5.5221Y6.4691
N19530X5.5732Y6.4609
N19540X5.6231Y6.4517
N19550X5.6719Y6.4415
N19560X5.7193Y6.4304
N19570X5.7654Y6.4183
N19580X5.8102Y6.4052
N19590X5.8534Y6.3913
N19600X5.8951Y6.3765
N19610X5.9353Y6.3608
N19620X5.9738Y6.3443
N19630X6.0105Y6.3270
N19640X6.0456Y6.3089
N19650X6.0787Y6.2900
N19660X6.1100Y6.2704
N19670X6.1393Y6.2500
N19680X6.1666Y6.2288
N19690X6.1918Y6.2069
N19700X6.2148Y6.1842
N19710X6.2356Y6.1608
N19720X6.2540Y6.1365
N19730X6.2697Y6.1119
N19740X6.2769Y6.0988
N19750X6.2833Y6.0858
N19760X6.2889Y6.0727
N19770X6.2939Y6.0594
N19780X6.2981Y6.0459
N19790X6.3016Y6.0322
N19800X6.3044Y6.0185
N19810X6.3064Y6.0045
N19820X6.3076Y5.9905
N19830X6.3080Y5.9764
N19840X6.3077Y5.9656
N19850X6.3080Y5.9536
N19860Y5.9408
N19870Y5.7783
N19880Y4.3182
N19890Y4.2365
N19900X6.3076Y4.2225
N19910X6.3065Y4.2083
N19920X6.3047Y4.1942
N19930X6.3022Y4.1804
N19940X6.2991Y4.1668
N19950X6.2962Y4.1568
N19960X6.2953Y4.1535
N19970X6.2908Y4.1404
N19980X6.2856Y4.1273
N19990X6.2739Y4.1030
N20000X6.2598Y4.0799
N20010X6.2436Y4.0582
N20020X6.2254Y4.0382
N20030X6.2054Y4.0201
N20040X6.1838Y4.0039
N20050X6.1609Y3.9899
N20060X6.1485Y3.9835
N20070X6.1360Y3.9779
N20080X6.1232Y3.9728
N20090X6.1102Y3.9684
N20100X6.0968Y3.9646
N20110X6.0832Y3.9614
N20120X6.0694Y3.9589
N20130X6.0554Y3.9571
N20140X6.0411Y3.9560
N20150X6.0271Y3.9557
N20160X4.2815
N20170X4.2675Y3.9560
N20180X4.2533Y3.9571
N20190X4.2392Y3.9589
N20200X4.2254Y3.9614
N20210X4.2118Y3.9646
N20220X4.1985Y3.9684
N20230X4.1854Y3.9728
N20240X4.1723Y3.9780
N20250X4.1481Y3.9897
N20260X4.1249Y4.0039
N20270X4.1032Y4.0201
N20280X4.0832Y4.0382
N20290X4.0651Y4.0582
N20300X4.0489Y4.0799
N20310X4.0349Y4.1027
N20320X4.0285Y4.1152
N20330X4.0229Y4.1276
N20340X4.0178Y4.1404
N20350X4.0134Y4.1535
N20360X4.0099Y4.1655
N20370X4.0096Y4.1668
N20380X4.0064Y4.1804
N20390X4.0039Y4.1942
N20400X4.0021Y4.2083
N20410X4.0010Y4.2225
N20420X4.0007Y4.2365
N20430Y4.3272
N20440Y5.7130
N20450Y5.8755
N20460Y5.9536
N20470X4.0010Y5.9673
N20480X4.0021Y5.9812
N20490X4.0038Y5.9950
N20500X4.0063Y6.0089
N20510X4.0129Y6.0350
N20520X4.0216Y6.0592
N20530G01Z-0.1000F15.0
N20540G01X4.0290Y6.0787F25.0
N20550X4.0384Y6.0985
N20560X4.0494Y6.1180
N20570X4.0618Y6.1369
N20580X4.0757Y6.1555
N20590X4.0909Y6.1736
N20600X4.1075Y6.1912
N20610X4.1254Y6.2084
N20620X4.1445Y6.2252
N20630X4.1649Y6.2415
N20640X4.1864Y6.2574
N20650X4.2092Y6.2728
N20660X4.2330Y6.2878
N20670X4.2580Y6.3023
N20680X4.2841Y6.3164
N20690X4.3112Y6.3301
N20700X4.3393Y6.3432
N20710X4.3685Y6.3559
N20720X4.3986Y6.3682
N20730X4.4296Y6.3799
N20740X4.4616Y6.3911
N20750X4.4944Y6.4018
N20760X4.5281Y6.4120
N20770X4.5627Y6.4217
N20780X4.5981Y6.4308
N20790X4.6342Y6.4394
N20800X4.6711Y6.4474
N20810X4.7087Y6.4549
N20820X4.7470Y6.4617
N20830X4.7860Y6.4680
N20840X4.8256Y6.4736
N20850X4.8655Y6.4786
N20860G2X4.9007Y6.4476I0.0039J-0.0310
N20870G01Y6.3593
N20880Y6.2261
N20890X4.9728Y6.1536
N20900G2X4.9819Y6.1316I-0.0221J-0.0220
N20910G01Y6.0882
N20920G2X4.9507Y6.0569I-0.0313J0.0000
N20930G01X4.7407
N20940Y5.9844
N20950X5.3232
N20960Y6.0569
N20970X5.1132
N20980G2X5.0819Y6.0882I0.0000J0.0313
N20990G01Y6.1316
N21000G2X5.0910Y6.1536I0.0313J0.0000
N21010G01X5.1632Y6.2261
N21020Y6.3593
N21030Y6.4636
N21040G2X5.1952Y6.4949I0.0313J0.0000
N21050G01X5.2515Y6.4935
N21060X5.3074Y6.4909
N21070X5.3625Y6.4871
N21080X5.4167Y6.4822
N21090X5.4699Y6.4762
N21100X5.5221Y6.4691
N21110X5.5732Y6.4609
N21120X5.6231Y6.4517
N21130X5.6719Y6.4415
N21140X5.7193Y6.4304
N21150X5.7654Y6.4183
N21160X5.8102Y6.4052
N21170X5.8534Y6.3913
N21180X5.8951Y6.3765
N21190X5.9353Y6.3608
N21200X5.9738Y6.3443
N21210X6.0105Y6.3270
N21220X6.0456Y6.3089
N21230X6.0787Y6.2900
N21240X6.1100Y6.2704
N21250X6.1393Y6.2500
N21260X6.1666Y6.2288
N21270X6.1918Y6.2069
N21280X6.2148Y6.1842
N21290X6.2356Y6.1608
N21300X6.2540Y6.1365
N21310X6.2697Y6.1119
N21320X6.2769Y6.0988
N21330X6.2833Y6.0858
N21340X6.2889Y6.0727
N21350X6.2939Y6.0594
N21360X6.2981Y6.0459
N21370X6.3016Y6.0322
N21380X6.3044Y6.0185
N21390X6.3064Y6.0045
N21400X6.3076Y5.9905
N21410X6.3080Y5.9764
N21420X6.3077Y5.9656
N21430X6.3080Y5.9536
N21440Y5.9408
N21450Z-0.0750
N21460Y5.7783
N21470G01Z-0.1000F15.0
N21480G01Y4.3182F25.0
N21490Z-0.0750
N21500Y4.2365
N21510X6.3076Y4.2225
N21520X6.3065Y4.2083
N21530X6.3047Y4.1942
N21540X6.3022Y4.1804
N21550X6.2991Y4.1668
N21560X6.2962Y4.1568
N21570G01Z-0.1000F15.0
N21580G01X6.2953Y4.1535F25.0
N21590X6.2908Y4.1404
N21600X6.2856Y4.1273
N21610X6.2739Y4.1030
N21620X6.2598Y4.0799
N21630X6.2436Y4.0582
N21640X6.2254Y4.0382
N21650X6.2054Y4.0201
N21660X6.1838Y4.0039
N21670X6.1609Y3.9899
N21680X6.1485Y3.9835
N21690X6.1360Y3.9779
N21700X6.1232Y3.9728
N21710X6.1102Y3.9684
N21720X6.0968Y3.9646
N21730X6.0832Y3.9614
N21740X6.0694Y3.9589
N21750X6.0554Y3.9571
N21760X6.0411Y3.9560
N21770X6.0271Y3.9557
N21780X4.2815
N21790X4.2675Y3.9560
N21800X4.2533Y3.9571
N21810X4.2392Y3.9589
N21820X4.2254Y3.9614
N21830X4.2118Y3.9646
N21840X4.1985Y3.9684
N21850X4.1854Y3.9728
N21860X4.1723Y3.9780
N21870X4.1481Y3.9897
N21880X4.1249Y4.0039
N21890X4.1032Y4.0201
N21900X4.0832Y4.0382
N21910X4.0651Y4.0582
N21920X4.0489Y4.0799
N21930X4.0349Y4.1027
N21940X4.0285Y4.1152
N21950X4.0229Y4.1276
N21960X4.0178Y4.1404
N21970X4.0134Y4.1535
N21980X4.0099Y4.1655
N21990Z-0.0750
N22000X4.0096Y4.1668
N22010X4.0064Y4.1804
N22020X4.0039Y4.1942
N22030X4.0021Y4.2083
N22040X4.0010Y4.2225
N22050X4.0007Y4.2365
N22060Y4.3272
N22070G01Z-0.1000F15.0
N22080G01Y5.7130F25.0
N22090Z-0.0750
N22100Y5.8755
N22110G01Z-0.1000F15.0
N22120G01Y5.9536F25.0
N22130X4.0010Y5.9673
N22140X4.0021Y5.9812
N22150X4.0038Y5.9950
N22160X4.0063Y6.0089
N22170X4.0129Y6.0350
N22180X4.0216Y6.0592
N22190G01Z-0.1500F15.0
N22200G01X4.0290Y6.0787F25.0
N22210X4.0384Y6.0985
N22220X4.0494Y6.1180
N22230X4.0618Y6.1369
N22240X4.0757Y6.1555
N22250X4.0909Y6.1736
N22260X4.1075Y6.1912
N22270X4.1254Y6.2084
N22280X4.1445Y6.2252
N22290X4.1649Y6.2415
N22300X4.1864Y6.2574
N22310X4.2092Y6.2728
N22320X4.2330Y6.2878
N22330X4.2580Y6.3023
N22340X4.2841Y6.3164
N22350X4.3112Y6.3301
N22360X4.3393Y6.3432
N22370X4.3685Y6.3559
N22380X4.3986Y6.3682
N22390X4.4296Y6.3799
N22400X4.4616Y6.3911
N22410X4.4944Y6.4018
N22420X4.5281Y6.4120
N22430X4.5627Y6.4217
N22440X4.5981Y6.4308
N22450X4.6342Y6.4394
N22460X4.6711Y6.4474
N22470X4.7087Y6.4549
N22480X4.7470Y6.4617
N22490X4.7860Y6.4680
N22500X4.8256Y6.4736
N22510X4.8655Y6.4786
N22520G2X4.9007Y6.4476I0.0039J-0.0310
N22530G01Y6.3593
N22540Y6.2261
N22550X4.9728Y6.1536
N22560G2X4.9819Y6.1316I-0.0221J-0.0220
N22570G01Y6.0882
N22580G2X4.9507Y6.0569I-0.0313J0.0000
N22590G01X4.7407
N22600Y5.9844
N22610X5.3232
N22620Y6.0569
N22630X5.1132
N22640G2X5.0819Y6.0882I0.0000J0.0313
N22650G01Y6.1316
N22660G2X5.0910Y6.1536I0.0313J0.0000
N22670G01X5.1632Y6.2261
N22680Y6.3593
N22690Y6.4636
N22700G2X5.1952Y6.4949I0.0313J0.0000
N22710G01X5.2515Y6.4935
N22720X5.3074Y6.4909
N22730X5.3625Y6.4871
N22740X5.4167Y6.4822
N22750X5.4699Y6.4762
N22760X5.5221Y6.4691
N22770X5.5732Y6.4609
N22780X5.6231Y6.4517
N22790X5.6719Y6.4415
N22800X5.7193Y6.4304
N22810X5.7654Y6.4183
N22820X5.8102Y6.4052
N22830X5.8534Y6.3913
N22840X5.8951Y6.3765
N22850X5.9353Y6.3608
N22860X5.9738Y6.3443
N22870X6.0105Y6.3270
N22880X6.0456Y6.3089
N22890X6.0787Y6.2900
N22900X6.1100Y6.2704
N22910X6.1393Y6.2500
N22920X6.1666Y6.2288
N22930X6.1918Y6.2069
N22940X6.2148Y6.1842
N22950X6.2356Y6.1608
N22960X6.2540Y6.1365
N22970X6.2697Y6.1119
N22980X6.2769Y6.0988
N22990X6.2833Y6.0858
N23000X6.2889Y6.0727
N23010X6.2939Y6.0594
N23020X6.2981Y6.0459
N23030X6.3016Y6.0322
N23040X6.3044Y6.0185
N23050X6.3064Y6.0045
N23060X6.3076Y5.9905
N23070X6.3080Y5.9764
N23080X6.3077Y5.9656
N23090X6.3080Y5.9536
N23100Y5.9408
N23110Z-0.0750
N23120Y5.7783
N23130G01Z-0.1500F15.0
N23140G01Y4.3182F25.0
N23150Z-0.0750
N23160Y4.2365
N23170X6.3076Y4.2225
N23180X6.3065Y4.2083
N23190X6.3047Y4.1942
N23200X6.3022Y4.1804
N23210X6.2991Y4.1668
N23220X6.2962Y4.1568
N23230G01Z-0.1500F15.0
N23240G01X6.2953Y4.1535F25.0
N23250X6.2908Y4.1404
N23260X6.2856Y4.1273
N23270X6.2739Y4.1030
N23280X6.2598Y4.0799
N23290X6.2436Y4.0582
N23300X6.2254Y4.0382
N23310X6.2054Y4.0201
N23320X6.1838Y4.0039
N23330X6.1609Y3.9899
N23340X6.1485Y3.9835
N23350X6.1360Y3.9779
N23360X6.1232Y3.9728
N23370X6.1102Y3.9684
N23380X6.0968Y3.9646
N23390X6.0832Y3.9614
N23400X6.0694Y3.9589
N23410X6.0554Y3.9571
N23420X6.0411Y3.9560
N23430X6.0271Y3.9557
N23440X4.2815
N23450X4.2675Y3.9560
N23460X4.2533Y3.9571
N23470X4.2392Y3.9589
N23480X4.2254Y3.9614
N23490X4.2118Y3.9646
N23500X4.1985Y3.9684
N23510X4.1854Y3.9728
N23520X4.1723Y3.9780
N23530X4.1481Y3.9897
N23540X4.1249Y4.0039
N23550X4.1032Y4.0201
N23560X4.0832Y4.0382
N23570X4.0651Y4.0582
N23580X4.0489Y4.0799
N23590X4.0349Y4.1027
N23600X4.0285Y4.1152
N23610X4.0229Y4.1276
N23620X4.0178Y4.1404
N23630X4.0134Y4.1535
N23640X4.0099Y4.1655
N23650Z-0.0750
N23660X4.0096Y4.1668
N23670X4.0064Y4.1804
N23680X4.0039Y4.1942
N23690X4.0021Y4.2083
N23700X4.0010Y4.2225
N23710X4.0007Y4.2365
N23720Y4.3272
N23730G01Z-0.1500F15.0
N23740G01Y5.7130F25.0
N23750Z-0.0750
N23760Y5.8755
N23770G01Z-0.1500F15.0
N23780G01Y5.9536F25.0
N23790X4.0010Y5.9673
N23800X4.0021Y5.9812
N23810X4.0038Y5.9950
N23820X4.0063Y6.0089
N23830X4.0129Y6.0350
N23840X4.0216Y6.0592
N23850G00Z0.2500
N23860G00X3.4632Y3.2124
N23870G01Z-0.0500F15.0
N23880G01X3.4638Y3.2306F25.0
N23890X3.4655Y3.2485
N23900X3.4684Y3.2663
N23910X3.4725Y3.2837
N23920X3.4776Y3.3007
N23930X3.4837Y3.3174
N23940X3.4909Y3.3337
N23950X3.4990Y3.3496
N23960X3.5080Y3.3651
N23970X3.5179Y3.3801
N23980X3.5287Y3.3946
N23990X3.5404Y3.4086
N24000X3.5528Y3.4220
N24010X3.5659Y3.4350
N24020X3.5798Y3.4474
N24030X3.5944Y3.4592
N24040X3.6097Y3.4705
N24050X3.6256Y3.4811
N24060X3.6422Y3.4912
N24070X3.6593Y3.5006
N24080X3.6770Y3.5094
N24090X3.6952Y3.5175
N24100X3.7139Y3.5249
N24110X3.7331Y3.5316
N24120X3.7528Y3.5376
N24130X3.7729Y3.5429
N24140X3.7934Y3.5474
N24150X3.8143Y3.5511
N24160X3.8355Y3.5541
N24170X3.8571Y3.5562
N24180X3.8699Y3.5570
N24190Y3.6167
N24200Y3.6498
N24210G2X3.9012Y3.6811I0.0313J0.0000
N24220G01X4.0283
N24230X4.0299
N24240X4.1908
N24250X5.9800
N24260X6.1425
N24270X6.3337
N24280G2X6.3649Y3.6498I0.0000J-0.0313
N24290G01Y2.7748
N24300G2X6.3337Y2.7436I-0.0313J0.0000
N24310G01X6.0238
N24320X5.8613
N24330X4.1908
N24340X4.0299
N24350X4.0283
N24360X3.9012
N24370G2X3.8699Y2.7748I0.0000J0.0313
N24380G01Y2.8080
N24390Y2.8677
N24400X3.8571Y2.8685
N24410X3.8355Y2.8706
N24420X3.8143Y2.8736
N24430X3.7934Y2.8773
N24440X3.7729Y2.8818
N24450X3.7528Y2.8871
N24460X3.7331Y2.8931
N24470X3.7139Y2.8998
N24480X3.6952Y2.9073
N24490X3.6770Y2.9154
N24500X3.6593Y2.9241
N24510X3.6422Y2.9335
N24520X3.6256Y2.9436
N24530X3.6097Y2.9542
N24540X3.5944Y2.9655
N24550X3.5798Y2.9773
N24560X3.5659Y2.9897
N24570X3.5528Y3.0027
N24580X3.5404Y3.0161
N24590X3.5287Y3.0301
N24600X3.5179Y3.0446
N24610X3.5080Y3.0596
N24620X3.4990Y3.0751
N24630X3.4909Y3.0910
N24640X3.4837Y3.1073
N24650X3.4776Y3.1240
N24660X3.4725Y3.1411
N24670X3.4684Y3.1585
N24680X3.4655Y3.1762
N24690X3.4638Y3.1942
N24700X3.4632Y3.2124
N24710G01Z-0.1000F15.0
N24720G01X3.4638Y3.2306F25.0
N24730X3.4655Y3.2485
N24740X3.4684Y3.2663
N24750X3.4725Y3.2837
N24760X3.4776Y3.3007
N24770X3.4837Y3.3174
N24780X3.4909Y3.3337
N24790X3.4990Y3.3496
N24800X3.5080Y3.3651
N24810X3.5179Y3.3801
N24820X3.5287Y3.3946
N24830X3.5404Y3.4086
N24840X3.5528Y3.4220
N24850X3.5659Y3.4350
N24860X3.5798Y3.4474
N24870X3.5944Y3.4592
N24880X3.6097Y3.4705
N24890X3.6256Y3.4811
N24900X3.6422Y3.4912
N24910X3.6593Y3.5006
N24920X3.6770Y3.5094
N24930X3.6952Y3.5175
N24940X3.7139Y3.5249
N24950X3.7331Y3.5316
N24960X3.7528Y3.5376
N24970X3.7729Y3.5429
N24980X3.7934Y3.5474
N24990X3.8143Y3.5511
N25000X3.8355Y3.5541
N25010X3.8571Y3.5562
N25020X3.8699Y3.5570
N25030Y3.6167
N25040Y3.6498
N25050G2X3.9012Y3.6811I0.0313J0.0000
N25060G01X4.0283
N25070Z-0.0750
N25080X4.0299
N25090X4.1908
N25100G01Z-0.1000F15.0
N25110G01X5.9800F25.0
N25120Z-0.0750
N25130X6.1425
N25140G01Z-0.1000F15.0
N25150G01X6.3337F25.0
N25160G2X6.3649Y3.6498I0.0000J-0.0313
N25170G01Y2.7748
N25180G2X6.3337Y2.7436I-0.0313J0.0000
N25190G01X6.0238
N25200Z-0.0750
N25210X5.8613
N25220G01Z-0.1000F15.0
N25230G01X4.1908F25.0
N25240Z-0.0750
N25250X4.0299
N25260X4.0283
N25270G01Z-0.1000F15.0
N25280G01X3.9012F25.0
N25290G2X3.8699Y2.7748I0.0000J0.0313
N25300G01Y2.8080
N25310Y2.8677
N25320X3.8571Y2.8685
N25330X3.8355Y2.8706
N25340X3.8143Y2.8736
N25350X3.7934Y2.8773
N25360X3.7729Y2.8818
N25370X3.7528Y2.8871
N25380X3.7331Y2.8931
N25390X3.7139Y2.8998
N25400X3.6952Y2.9073
N25410X3.6770Y2.9154
N25420X3.6593Y2.9241
N25430X3.6422Y2.9335
N25440X3.6256Y2.9436
N25450X3.6097Y2.9542
N25460X3.5944Y2.9655
N25470X3.5798Y2.9773
N25480X3.5659Y2.9897
N25490X3.5528Y3.0027
N25500X3.5404Y3.0161
N25510X3.5287Y3.0301
N25520X3.5179Y3.0446
N25530X3.5080Y3.0596
N25540X3.4990Y3.0751
N25550X3.4909Y3.0910
N25560X3.4837Y3.1073
N25570X3.4776Y3.1240
N25580X3.4725Y3.1411
N25590X3.4684Y3.1585
N25600X3.4655Y3.1762
N25610X3.4638Y3.1942
N25620X3.4632Y3.2124
N25630G01Z-0.1500F15.0
N25640G01X3.4638Y3.2306F25.0
N25650X3.4655Y3.2485
N25660X3.4684Y3.2663
N25670X3.4725Y3.2837
N25680X3.4776Y3.3007
N25690X3.4837Y3.3174
N25700X3.4909Y3.3337
N25710X3.4990Y3.3496
N25720X3.5080Y3.3651
N25730X3.5179Y3.3801
N25740X3.5287Y3.3946
N25750X3.5404Y3.4086
N25760X3.5528Y3.4220
N25770X3.5659Y3.4350
N25780X3.5798Y3.4474
N25790X3.5944Y3.4592
N25800X3.6097Y3.4705
N25810X3.6256Y3.4811
N25820X3.6422Y3.4912
N25830X3.6593Y3.5006
N25840X3.6770Y3.5094
N25850X3.6952Y3.5175
N25860X3.7139Y3.5249
N25870X3.7331Y3.5316
N25880X3.7528Y3.5376
N25890X3.7729Y3.5429
N25900X3.7934Y3.5474
N25910X3.8143Y3.5511
N25920X3.8355Y3.5541
N25930X3.8571Y3.5562
N25940X3.8699Y3.5570
N25950Y3.6167
N25960Y3.6498
N25970G2X3.9012Y3.6811I0.0313J0.0000
N25980G01X4.0283
N25990Z-0.0750
N26000X4.0299
N26010X4.1908
N26020G01Z-0.1500F15.0
N26030G01X5.9800F25.0
N26040Z-0.0750
N26050X6.1425
N26060G01Z-0.1500F15.0
N26070G01X6.3337F25.0
N26080G2X6.3649Y3.6498I0.0000J-0.0313
N26090G01Y2.7748
N26100G2X6.3337Y2.7436I-0.0313J0.0000
N26110G01X6.0238
N26120Z-0.0750
N26130X5.8613
N26140G01Z-0.1500F15.0
N26150G01X4.1908F25.0
N26160Z-0.0750
N26170X4.0299
N26180X4.0283
N26190G01Z-0.1500F15.0
N26200G01X3.9012F25.0
N26210G2X3.8699Y2.7748I0.0000J0.0313
N26220G01Y2.8080
N26230Y2.8677
N26240X3.8571Y2.8685
N26250X3.8355Y2.8706
N26260X3.8143Y2.8736
N26270X3.7934Y2.8773
N26280X3.7729Y2.8818
N26290X3.7528Y2.8871
N26300X3.7331Y2.8931
N26310X3.7139Y2.8998
N26320X3.6952Y2.9073
N26330X3.6770Y2.9154
N26340X3.6593Y2.9241
N26350X3.6422Y2.9335
N26360X3.6256Y2.9436
N26370X3.6097Y2.9542
N26380X3.5944Y2.9655
N26390X3.5798Y2.9773
N26400X3.5659Y2.9897
N26410X3.5528Y3.0027
N26420X3.5404Y3.0161
N26430X3.5287Y3.0301
N26440X3.5179Y3.0446
N26450X3.5080Y3.0596
N26460X3.4990Y3.0751
N26470X3.4909Y3.0910
N26480X3.4837Y3.1073
N26490X3.4776Y3.1240
N26500X3.4725Y3.1411
N26510X3.4684Y3.1585
N26520X3.4655Y3.1762
N26530X3.4638Y3.1942
N26540X3.4632Y3.2124
N26550G00Z0.2500
N26560G00X2.0802Y1.9519
N26570G01Z-0.0500F15.0
N26580G01X2.0808Y1.9702F25.0
N26590X2.0826Y1.9881
N26600X2.0855Y2.0058
N26610X2.0895Y2.0232
N26620X2.0946Y2.0403
N26630X2.1008Y2.0570
N26640X2.1079Y2.0733
N26650X2.1160Y2.0892
N26660X2.1251Y2.1047
N26670X2.1350Y2.1196
N26680X2.1458Y2.1341
N26690X2.1574Y2.1481
N26700X2.1698Y2.1616
N26710X2.1830Y2.1746
N26720X2.1969Y2.1870
N26730X2.2115Y2.1988
N26740X2.2268Y2.2101
N26750X2.2427Y2.2207
N26760X2.2592Y2.2308
N26770X2.2763Y2.2402
N26780X2.2940Y2.2489
N26790X2.3122Y2.2570
N26800X2.3310Y2.2645
N26810X2.3502Y2.2712
N26820X2.3698Y2.2772
N26830X2.3899Y2.2824
N26840X2.4104Y2.2870
N26850X2.4313Y2.2907
N26860X2.4526Y2.2936
N26870X2.4742Y2.2958
N26880X2.4870Y2.2965
N26890Y2.3913
N26900Y2.4832
N26910G2X2.5182Y2.5144I0.0313J0.0000
N26920G01X2.6689
N26930X2.8003
N26940X2.9628
N26950X5.2207
N26960X5.3832
N26970X5.4480
N26980X5.5182
N26990G2X5.5495Y2.4832I0.0000J-0.0313
N27000G01Y2.3913
N27010Y2.2965
N27020X5.5623Y2.2958
N27030X5.5838Y2.2936
N27040X5.6051Y2.2907
N27050X5.6260Y2.2870
N27060X5.6465Y2.2824
N27070X5.6666Y2.2772
N27080X5.6863Y2.2712
N27090X5.7055Y2.2645
N27100X5.7242Y2.2570
N27110X5.7424Y2.2489
N27120X5.7601Y2.2402
N27130X5.7772Y2.2308
N27140X5.7938Y2.2207
N27150X5.8097Y2.2101
N27160X5.8249Y2.1988
N27170X5.8395Y2.1870
N27180X5.8534Y2.1746
N27190X5.8666Y2.1616
N27200X5.8790Y2.1481
N27210X5.8906Y2.1341
N27220X5.9014Y2.1196
N27230X5.9114Y2.1047
N27240X5.9204Y2.0892
N27250X5.9285Y2.0733
N27260X5.9357Y2.0570
N27270X5.9418Y2.0403
N27280X5.9469Y2.0232
N27290X5.9509Y2.0058
N27300X5.9539Y1.9881
N27310X5.9556Y1.9702
N27320X5.9562Y1.9519
N27330X5.9556Y1.9337
N27340X5.9539Y1.9158
N27350X5.9509Y1.8980
N27360X5.9469Y1.8806
N27370X5.9418Y1.8636
N27380X5.9357Y1.8469
N27390X5.9285Y1.8306
N27400X5.9204Y1.8147
N27410X5.9114Y1.7992
N27420X5.9014Y1.7842
N27430X5.8906Y1.7697
N27440X5.8790Y1.7557
N27450X5.8666Y1.7422
N27460X5.8534Y1.7293
N27470X5.8395Y1.7169
N27480X5.8249Y1.7051
N27490X5.8097Y1.6938
N27500X5.7938Y1.6832
N27510X5.7772Y1.6731
N27520X5.7601Y1.6637
N27530X5.7424Y1.6549
N27540X5.7242Y1.6468
N27550X5.7055Y1.6394
N27560X5.6863Y1.6327
N27570X5.6666Y1.6267
N27580X5.6465Y1.6214
N27590X5.6260Y1.6169
N27600X5.6051Y1.6132
N27610X5.5838Y1.6102
N27620X5.5623Y1.6081
N27630X5.5495Y1.6073
N27640Y1.5126
N27650Y1.4207
N27660G2X5.5182Y1.3894I-0.0313J0.0000
N27670G01X5.4480
N27680X5.2467
N27690X5.0842
N27700X2.8560
N27710X2.6935
N27720X2.6689
N27730X2.5182
N27740G2X2.4870Y1.4207I0.0000J0.0313
N27750G01Y1.5126
N27760Y1.6073
N27770X2.4742Y1.6081
N27780X2.4526Y1.6102
N27790X2.4313Y1.6132
N27800X2.4104Y1.6169
N27810X2.3899Y1.6214
N27820X2.3698Y1.6267
N27830X2.3502Y1.6327
N27840X2.3310Y1.6394
N27850X2.3122Y1.6468
N27860X2.2940Y1.6549
N27870X2.2763Y1.6637
N27880X2.2592Y1.6731
N27890X2.2427Y1.6832
N27900X2.2268Y1.6938
N27910X2.2115Y1.7051
N27920X2.1969Y1.7169
N27930X2.1830Y1.7293
N27940X2.1698Y1.7422
N27950X2.1574Y1.7557
N27960X2.1458Y1.7697
N27970X2.1350Y1.7842
N27980X2.1251Y1.7992
N27990X2.1160Y1.8147
N28000X2.1079Y1.8306
N28010X2.1008Y1.8469
N28020X2.0946Y1.8636
N28030X2.0895Y1.8806
N28040X2.0855Y1.8980
N28050X2.0826Y1.9158
N28060X2.0808Y1.9337
N28070X2.0802Y1.9519
N28080G01Z-0.1000F15.0
N28090G01X2.0808Y1.9702F25.0
N28100X2.0826Y1.9881
N28110X2.0855Y2.0058
N28120X2.0895Y2.0232
N28130X2.0946Y2.0403
N28140X2.1008Y2.0570
N28150X2.1079Y2.0733
N28160X2.1160Y2.0892
N28170X2.1251Y2.1047
N28180X2.1350Y2.1196
N28190X2.1458Y2.1341
N28200X2.1574Y2.1481
N28210X2.1698Y2.1616
N28220X2.1830Y2.1746
N28230X2.1969Y2.1870
N28240X2.2115Y2.1988
N28250X2.2268Y2.2101
N28260X2.2427Y2.2207
N28270X2.2592Y2.2308
N28280X2.2763Y2.2402
N28290X2.2940Y2.2489
N28300X2.3122Y2.2570
N28310X2.3310Y2.2645
N28320X2.3502Y2.2712
N28330X2.3698Y2.2772
N28340X2.3899Y2.2824
N28350X2.4104Y2.2870
N28360X2.4313Y2.2907
N28370X2.4526Y2.2936
N28380X2.4742Y2.2958
N28390X2.4870Y2.2965
N28400Y2.3913
N28410Y2.4832
N28420G2X2.5182Y2.5144I0.0313J0.0000
N28430G01X2.6689
N28440X2.8003
N28450Z-0.0750
N28460X2.9628
N28470G01Z-0.1000F15.0
N28480G01X5.2207F25.0
N28490Z-0.0750
N28500X5.3832
N28510G01Z-0.1000F15.0
N28520G01X5.4480F25.0
N28530X5.5182
N28540G2X5.5495Y2.4832I0.0000J-0.0313
N28550G01Y2.3913
N28560Y2.2965
N28570X5.5623Y2.2958
N28580X5.5838Y2.2936
N28590X5.6051Y2.2907
N28600X5.6260Y2.2870
N28610X5.6465Y2.2824
N28620X5.6666Y2.2772
N28630X5.6863Y2.2712
N28640X5.7055Y2.2645
N28650X5.7242Y2.2570
N28660X5.7424Y2.2489
N28670X5.7601Y2.2402
N28680X5.7772Y2.2308
N28690X5.7938Y2.2207
N28700X5.8097Y2.2101
N28710X5.8249Y2.1988
N28720X5.8395Y2.1870
N28730X5.8534Y2.1746
N28740X5.8666Y2.1616
N28750X5.8790Y2.1481
N28760X5.8906Y2.1341
N28770X5.9014Y2.1196
N28780X5.9114Y2.1047
N28790X5.9204Y2.0892
N28800X5.9285Y2.0733
N28810X5.9357Y2.0570
N28820X5.9418Y2.0403
N28830X5.9469Y2.0232
N28840X5.9509Y2.0058
N28850X5.9539Y1.9881
N28860X5.9556Y1.9702
N28870X5.9562Y1.9519
N28880X5.9556Y1.9337
N28890X5.9539Y1.9158
N28900X5.9509Y1.8980
N28910X5.9469Y1.8806
N28920X5.9418Y1.8636
N28930X5.9357Y1.8469
N28940X5.9285Y1.8306
N28950X5.9204Y1.8147
N28960X5.9114Y1.7992
N28970X5.9014Y1.7842
N28980X5.8906Y1.7697
N28990X5.8790Y1.7557
N29000X5.8666Y1.7422
N29010X5.8534Y1.7293
N29020X5.8395Y1.7169
N29030X5.8249Y1.7051
N29040X5.8097Y1.6938
N29050X5.7938Y1.6832
N29060X5.7772Y1.6731
N29070X5.7601Y1.6637
N29080X5.7424Y1.6549
N29090X5.7242Y1.6468
N29100X5.7055Y1.6394
N29110X5.6863Y1.6327
N29120X5.6666Y1.6267
N29130X5.6465Y1.6214
N29140X5.6260Y1.6169
N29150X5.6051Y1.6132
N29160X5.5838Y1.6102
N29170X5.5623Y1.6081
N29180X5.5495Y1.6073
N29190Y1.5126
N29200Y1.4207
N29210G2X5.5182Y1.3894I-0.0313J0.0000
N29220G01X5.4480
N29230X5.2467
N29240Z-0.0750
N29250X5.0842
N29260G01Z-0.1000F15.0
N29270G01X2.8560F25.0
N29280Z-0.0750
N29290X2.6935
N29300G01Z-0.1000F15.0
N29310G01X2.6689F25.0
N29320X2.5182
N29330G2X2.4870Y1.4207I0.0000J0.0313
N29340G01Y1.5126
N29350Y1.6073
N29360X2.4742Y1.6081
N29370X2.4526Y1.6102
N29380X2.4313Y1.6132
N29390X2.4104Y1.6169
N29400X2.3899Y1.6214
N29410X2.3698Y1.6267
N29420X2.3502Y1.6327
N29430X2.3310Y1.6394
N29440X2.3122Y1.6468
N29450X2.2940Y1.6549
N29460X2.2763Y1.6637
N29470X2.2592Y1.6731
N29480X2.2427Y1.6832
N29490X2.2268Y1.6938
N29500X2.2115Y1.7051
N29510X2.1969Y1.7169
N29520X2.1830Y1.7293
N29530X2.1698Y1.7422
N29540X2.1574Y1.7557
N29550X2.1458Y1.7697
N29560X2.1350Y1.7842
N29570X2.1251Y1.7992
N29580X2.1160Y1.8147
N29590X2.1079Y1.8306
N29600X2.1008Y1.8469
N29610X2.0946Y1.8636
N29620X2.0895Y1.8806
N29630X2.0855Y1.8980
N29640X2.0826Y1.9158
N29650X2.0808Y1.9337
N29660X2.0802Y1.9519
N29670G01Z-0.1500F15.0
N29680G01X2.0808Y1.9702F25.0
N29690X2.0826Y1.9881
N29700X2.0855Y2.0058
N29710X2.0895Y2.0232
N29720X2.0946Y2.0403
N29730X2.1008Y2.0570
N29740X2.1079Y2.0733
N29750X2.1160Y2.0892
N29760X2.1251Y2.1047
N29770X2.1350Y2.1196
N29780X2.1458Y2.1341
N29790X2.1574Y2.1481
N29800X2.1698Y2.1616
N29810X2.1830Y2.1746
N29820X2.1969Y2.1870
N29830X2.2115Y2.1988
N29840X2.2268Y2.2101
N29850X2.2427Y2.2207
N29860X2.2592Y2.2308
N29870X2.2763Y2.2402
N29880X2.2940Y2.2489
N29890X2.3122Y2.2570
N29900X2.3310Y2.2645
N29910X2.3502Y2.2712
N29920X2.3698Y2.2772
N29930X2.3899Y2.2824
N29940X2.4104Y2.2870
N29950X2.4313Y2.2907
N29960X2.4526Y2.2936
N29970X2.4742Y2.2958
N29980X2.4870Y2.2965
N29990Y2.3913
N30000Y2.4832
N30010G2X2.5182Y2.5144I0.0313J0.0000
N30020G01X2.6689
N30030X2.8003
N30040Z-0.0750
N30050X2.9628
N30060G01Z-0.1500F15.0
N30070G01X5.2207F25.0
N30080Z-0.0750
N30090X5.3832
N30100G01Z-0.1500F15.0
N30110G01X5.4480F25.0
N30120X5.5182
N30130G2X5.5495Y2.4832I0.0000J-0.0313
N30140G01Y2.3913
N30150Y2.2965
N30160X5.5623Y2.2958
N30170X5.5838Y2.2936
N30180X5.6051Y2.2907
N30190X5.6260Y2.2870
N30200X5.6465Y2.2824
N30210X5.6666Y2.2772
N30220X5.6863Y2.2712
N30230X5.7055Y2.2645
N30240X5.7242Y2.2570
N30250X5.7424Y2.2489
N30260X5.7601Y2.2402
N30270X5.7772Y2.2308
N30280X5.7938Y2.2207
N30290X5.8097Y2.2101
N30300X5.8249Y2.1988
N30310X5.8395Y2.1870
N30320X5.8534Y2.1746
N30330X5.8666Y2.1616
N30340X5.8790Y2.1481
N30350X5.8906Y2.1341
N30360X5.9014Y2.1196
N30370X5.9114Y2.1047
N30380X5.9204Y2.0892
N30390X5.9285Y2.0733
N30400X5.9357Y2.0570
N30410X5.9418Y2.0403
N30420X5.9469Y2.0232
N30430X5.9509Y2.0058
N30440X5.9539Y1.9881
N30450X5.9556Y1.9702
N30460X5.9562Y1.9519
N30470X5.9556Y1.9337
N30480X5.9539Y1.9158
N30490X5.9509Y1.8980
N30500X5.9469Y1.8806
N30510X5.9418Y1.8636
N30520X5.9357Y1.8469
N30530X5.9285Y1.8306
N30540X5.9204Y1.8147
N30550X5.9114Y1.7992
N30560X5.9014Y1.7842
N30570X5.8906Y1.7697
N30580X5.8790Y1.7557
N30590X5.8666Y1.7422
N30600X5.8534Y1.7293
N30610X5.8395Y1.7169
N30620X5.8249Y1.7051
N30630X5.8097Y1.6938
N30640X5.7938Y1.6832
N30650X5.7772Y1.6731
N30660X5.7601Y1.6637
N30670X5.7424Y1.6549
N30680X5.7242Y1.6468
N30690X5.7055Y1.6394
N30700X5.6863Y1.6327
N30710X5.6666Y1.6267
N30720X5.6465Y1.6214
N30730X5.6260Y1.6169
N30740X5.6051Y1.6132
N30750X5.5838Y1.6102
N30760X5.5623Y1.6081
N30770X5.5495Y1.6073
N30780Y1.5126
N30790Y1.4207
N30800G2X5.5182Y1.3894I-0.0313J0.0000
N30810G01X5.4480
N30820X5.2467
N30830Z-0.0750
N30840X5.0842
N30850G01Z-0.1500F15.0
N30860G01X2.8560F25.0
N30870Z-0.0750
N30880X2.6935
N30890G01Z-0.1500F15.0
N30900G01X2.6689F25.0
N30910X2.5182
N30920G2X2.4870Y1.4207I0.0000J0.0313
N30930G01Y1.5126
N30940Y1.6073
N30950X2.4742Y1.6081
N30960X2.4526Y1.6102
N30970X2.4313Y1.6132
N30980X2.4104Y1.6169
N30990X2.3899Y1.6214
N31000X2.3698Y1.6267
N31010X2.3502Y1.6327
N31020X2.3310Y1.6394
N31030X2.3122Y1.6468
N31040X2.2940Y1.6549
N31050X2.2763Y1.6637
N31060X2.2592Y1.6731
N31070X2.2427Y1.6832
N31080X2.2268Y1.6938
N31090X2.2115Y1.7051
N31100X2.1969Y1.7169
N31110X2.1830Y1.7293
N31120X2.1698Y1.7422
N31130X2.1574Y1.7557
N31140X2.1458Y1.7697
N31150X2.1350Y1.7842
N31160X2.1251Y1.7992
N31170X2.1160Y1.8147
N31180X2.1079Y1.8306
N31190X2.1008Y1.8469
N31200X2.0946Y1.8636
N31210X2.0895Y1.8806
N31220X2.0855Y1.8980
N31230X2.0826Y1.9158
N31240X2.0808Y1.9337
N31250X2.0802Y1.9519
N31260G00Z0.2500
N31270G00X1.5512Y3.2017
N31280G01Z-0.0500F15.0
N31290G01X1.5518Y3.2199F25.0
N31300X1.5536Y3.2379
N31310X1.5565Y3.2556
N31320X1.5605Y3.2730
N31330X1.5656Y3.2901
N31340X1.5718Y3.3068
N31350X1.5789Y3.3231
N31360X1.5870Y3.3390
N31370X1.5961Y3.3545
N31380X1.6060Y3.3694
N31390X1.6168Y3.3839
N31400X1.6284Y3.3979
N31410X1.6408Y3.4114
N31420X1.6540Y3.4244
N31430X1.6679Y3.4368
N31440X1.6825Y3.4486
N31450X1.6978Y3.4599
N31460X1.7137Y3.4705
N31470X1.7302Y3.4806
N31480X1.7473Y3.4900
N31490X1.7650Y3.4987
N31500X1.7832Y3.5068
N31510X1.8020Y3.5143
N31520X1.8212Y3.5210
N31530X1.8408Y3.5270
N31540X1.8609Y3.5322
N31550X1.8815Y3.5368
N31560X1.9023Y3.5405
N31570X1.9236Y3.5434
N31580X1.9452Y3.5456
N31590X1.9580Y3.5463
N31600Y3.6061
N31610Y3.6392
N31620G2X1.9892Y3.6705I0.0313J0.0000
N31630G01X2.0594
N31640X2.1240
N31650X2.2865
N31660X2.8715
N31670X3.0340
N31680X3.2055
N31690G2X3.2367Y3.6392I0.0000J-0.0313
N31700G01Y2.7642
N31710G2X3.2055Y2.7330I-0.0313J0.0000
N31720G01X3.0340
N31730X2.8715
N31740X2.2925
N31750X2.1300
N31760X2.0594
N31770X1.9892
N31780G2X1.9580Y2.7642I0.0000J0.0313
N31790G01Y2.7974
N31800Y2.8571
N31810X1.9452Y2.8579
N31820X1.9236Y2.8600
N31830X1.9023Y2.8630
N31840X1.8815Y2.8667
N31850X1.8609Y2.8712
N31860X1.8408Y2.8765
N31870X1.8212Y2.8825
N31880X1.8020Y2.8892
N31890X1.7832Y2.8966
N31900X1.7650Y2.9047
N31910X1.7473Y2.9135
N31920X1.7302Y2.9229
N31930X1.7137Y2.9329
N31940X1.6978Y2.9436
N31950X1.6825Y2.9549
N31960X1.6679Y2.9667
N31970X1.6540Y2.9791
N31980X1.6408Y2.9920
N31990X1.6284Y3.0055
N32000X1.6168Y3.0195
N32010X1.6060Y3.0340
N32020X1.5961Y3.0490
N32030X1.5870Y3.0645
N32040X1.5789Y3.0803
N32050X1.5718Y3.0967
N32060X1.5656Y3.1134
N32070X1.5605Y3.1304
N32080X1.5565Y3.1478
N32090X1.5536Y3.1655
N32100X1.5518Y3.1835
N32110X1.5512Y3.2017
N32120G01Z-0.1000F15.0
N32130G01X1.5518Y3.2199F25.0
N32140X1.5536Y3.2379
N32150X1.5565Y3.2556
N32160X1.5605Y3.2730
N32170X1.5656Y3.2901
N32180X1.5718Y3.3068
N32190X1.5789Y3.3231
N32200X1.5870Y3.3390
N32210X1.5961Y3.3545
N32220X1.6060Y3.3694
N32230X1.6168Y3.3839
N32240X1.6284Y3.3979
N32250X1.6408Y3.4114
N32260X1.6540Y3.4244
N32270X1.6679Y3.4368
N32280X1.6825Y3.4486
N32290X1.6978Y3.4599
N32300X1.7137Y3.4705
N32310X1.7302Y3.4806
N32320X1.7473Y3.4900
N32330X1.7650Y3.4987
N32340X1.7832Y3.5068
N32350X1.8020Y3.5143
N32360X1.8212Y3.5210
N32370X1.8408Y3.5270
N32380X1.8609Y3.5322
N32390X1.8815Y3.5368
N32400X1.9023Y3.5405
N32410X1.9236Y3.5434
N32420X1.9452Y3.5456
N32430X1.9580Y3.5463
N32440Y3.6061
N32450Y3.6392
N32460G2X1.9892Y3.6705I0.0313J0.0000
N32470G01X2.0594
N32480X2.1240
N32490Z-0.0750
N32500X2.2865
N32510G01Z-0.1000F15.0
N32520G01X2.8715F25.0
N32530Z-0.0750
N32540X3.0340
N32550G01Z-0.1000F15.0
N32560G01X3.2055F25.0
N32570G2X3.2367Y3.6392I0.0000J-0.0313
N32580G01Y2.7642
N32590G2X3.2055Y2.7330I-0.0313J0.0000
N32600G01X3.0340
N32610Z-0.0750
N32620X2.8715
N32630G01Z-0.1000F15.0
N32640G01X2.2925F25.0
N32650Z-0.0750
N32660X2.1300
N32670G01Z-0.1000F15.0
N32680G01X2.0594F25.0
N32690X1.9892
N32700G2X1.9580Y2.7642I0.0000J0.0313
N32710G01Y2.7974
N32720Y2.8571
N32730X1.9452Y2.8579
N32740X1.9236Y2.8600
N32750X1.9023Y2.8630
N32760X1.8815Y2.8667
N32770X1.8609Y2.8712
N32780X1.8408Y2.8765
N32790X1.8212Y2.8825
N32800X1.8020Y2.8892
N32810X1.7832Y2.8966
N32820X1.7650Y2.9047
N32830X1.7473Y2.9135
N32840X1.7302Y2.9229
N32850X1.7137Y2.9329
N32860X1.6978Y2.9436
N32870X1.6825Y2.9549
N32880X1.6679Y2.9667
N32890X1.6540Y2.9791
N32900X1.6408Y2.9920
N32910X1.6284Y3.0055
N32920X1.6168Y3.0195
N32930X1.6060Y3.0340
N32940X1.5961Y3.0490
N32950X1.5870Y3.0645
N32960X1.5789Y3.0803
N32970X1.5718Y3.0967
N32980X1.5656Y3.1134
N32990X1.5605Y3.1304
N33000X1.5565Y3.1478
N33010X1.5536Y3.1655
N33020X1.5518Y3.1835
N33030X1.5512Y3.2017
N33040G01Z-0.1500F15.0
N33050G01X1.5518Y3.2199F25.0
N33060X1.5536Y3.2379
N33070X1.5565Y3.2556
N33080X1.5605Y3.2730
N33090X1.5656Y3.2901
N33100X1.5718Y3.3068
N33110X1.5789Y3.3231
N33120X1.5870Y3.3390
N33130X1.5961Y3.3545
N33140X1.6060Y3.3694
N33150X1.6168Y3.3839
N33160X1.6284Y3.3979
N33170X1.6408Y3.4114
N33180X1.6540Y3.4244
N33190X1.6679Y3.4368
N33200X1.6825Y3.4486
N33210X1.6978Y3.4599
N33220X1.7137Y3.4705
N33230X1.7302Y3.4806
N33240X1.7473Y3.4900
N33250X1.7650Y3.4987
N33260X1.7832Y3.5068
N33270X1.8020Y3.5143
N33280X1.8212Y3.5210
N33290X1.8408Y3.5270
N33300X1.8609Y3.5322
N33310X1.8815Y3.5368
N33320X1.9023Y3.5405
N33330X1.9236Y3.5434
N33340X1.9452Y3.5456
N33350X1.9580Y3.5463
N33360Y3.6061
N33370Y3.6392
N33380G2X1.9892Y3.6705I0.0313J0.0000
N33390G01X2.0594
N33400X2.1240
N33410Z-0.0750
N33420X2.2865
N33430G01Z-0.1500F15.0
N33440G01X2.8715F25.0
N33450Z-0.0750
N33460X3.0340
N33470G01Z-0.1500F15.0
N33480G01X3.2055F25.0
N33490G2X3.2367Y3.6392I0.0000J-0.0313
N33500G01Y2.7642
N33510G2X3.2055Y2.7330I-0.0313J0.0000
N33520G01X3.0340
N33530Z-0.0750
N33540X2.8715
N33550G01Z-0.1500F15.0
N33560G01X2.2925F25.0
N33570Z-0.0750
N33580X2.1300
N33590G01Z-0.1500F15.0
N33600G01X2.0594F25.0
N33610X1.9892
N33620G2X1.9580Y2.7642I0.0000J0.0313
N33630G01Y2.7974
N33640Y2.8571
N33650X1.9452Y2.8579
N33660X1.9236Y2.8600
N33670X1.9023Y2.8630
N33680X1.8815Y2.8667
N33690X1.8609Y2.8712
N33700X1.8408Y2.8765
N33710X1.8212Y2.8825
N33720X1.8020Y2.8892
N33730X1.7832Y2.8966
N33740X1.7650Y2.9047
N33750X1.7473Y2.9135
N33760X1.7302Y2.9229
N33770X1.7137Y2.9329
N33780X1.6978Y2.9436
N33790X1.6825Y2.9549
N33800X1.6679Y2.9667
N33810X1.6540Y2.9791
N33820X1.6408Y2.9920
N33830X1.6284Y3.0055
N33840X1.6168Y3.0195
N33850X1.6060Y3.0340
N33860X1.5961Y3.0490
N33870X1.5870Y3.0645
N33880X1.5789Y3.0803
N33890X1.5718Y3.0967
N33900X1.5656Y3.1134
N33910X1.5605Y3.1304
N33920X1.5565Y3.1478
N33930X1.5536Y3.1655
N33940X1.5518Y3.1835
N33950X1.5512Y3.2017
N33960G00Z0.2500
N33970G00Z3.0000
N33980G00X0.0000Y8.0000
N33990M09
N34000M30
%
